;FLAVOR:RepRap
;TIME:6079
;Filament used: 6.55806m
;Layer height: 0.2
;Generated with Cura_SteamEngine 2.4.0
M190 S50
M104 S195
M109 S195
G28 ;Home
G1 Z15.0 F6000 ;Move the platform down 15mm
;Prime the extruder
G92 E0
G1 F200 E3
G92 E0
;LAYER_COUNT:52
;LAYER:0
M107
G1 F1500 E-6.5
G0 F3600 X10.701 Y20.865 Z0.3
;TYPE:SKIRT
G1 F1500 E0
G1 F1800 X11.561 Y20.462 E0.04738
G1 X12.46 Y20.107 E0.0956
G1 X13.349 Y19.818 E0.14224
G1 X14.305 Y19.573 E0.19148
G1 X15.237 Y19.396 E0.23881
G1 X16.201 Y19.274 E0.28728
G1 X17.137 Y19.215 E0.33407
G1 X17.628 Y19.2 E0.35858
G1 X52.313 Y19.199 E2.08902
G1 X53.101 Y19.239 E2.12839
G1 X53.882 Y19.358 E2.1678
G1 X54.647 Y19.556 E2.20723
G1 X55.387 Y19.83 E2.24659
G1 X56.015 Y20.138 E2.28149
G1 X63.998 Y20.138 E2.67976
G1 X64.248 Y19.999 E2.69403
G1 X64.973 Y19.687 E2.73341
G1 X65.726 Y19.45 E2.7728
G1 X66.5 Y19.291 E2.81222
G1 X67.285 Y19.21 E2.85159
G1 X67.69 Y19.2 E2.8718
G1 X102.85 Y19.215 E4.62594
G1 X103.828 Y19.277 E4.67483
G1 X104.767 Y19.396 E4.72205
G1 X105.744 Y19.584 E4.77169
G1 X106.65 Y19.819 E4.81839
G1 X107.555 Y20.113 E4.86586
G1 X108.437 Y20.461 E4.91316
G1 X109.338 Y20.885 E4.96284
G1 X110.162 Y21.339 E5.00978
G1 X110.994 Y21.869 E5.05899
G1 X111.755 Y22.424 E5.10599
G1 X112.482 Y23.025 E5.15304
G1 X113.161 Y23.659 E5.19939
G1 X113.856 Y24.397 E5.24997
G1 X114.463 Y25.133 E5.29756
G1 X115.031 Y25.917 E5.34586
G1 X115.536 Y26.713 E5.39289
G1 X116.012 Y27.58 E5.44224
G1 X116.412 Y28.433 E5.48924
G1 X116.77 Y29.341 E5.53794
G1 X117.06 Y30.236 E5.58487
G1 X117.303 Y31.184 E5.6337
G1 X117.479 Y32.11 E5.68072
G1 X117.6 Y33.073 E5.72915
G1 X117.659 Y34.004 E5.77569
G1 X117.675 Y34.497 E5.8003
G1 X117.676 Y52.313 E6.68914
G1 X117.636 Y53.101 E6.7285
G1 X117.517 Y53.882 E6.76792
G1 X117.319 Y54.646 E6.80729
G1 X117.045 Y55.387 E6.84671
G1 X116.737 Y56.015 E6.8816
G1 X116.737 Y63.998 E7.27988
G1 X116.876 Y64.248 E7.29415
G1 X117.188 Y64.973 E7.33353
G1 X117.425 Y65.726 E7.37291
G1 X117.584 Y66.5 E7.41233
G1 X117.665 Y67.285 E7.4517
G1 X117.675 Y67.693 E7.47206
G1 X117.66 Y85.967 E8.38376
G1 X117.601 Y86.919 E8.43135
G1 X117.485 Y87.856 E8.47845
G1 X117.299 Y88.839 E8.52836
G1 X117.066 Y89.746 E8.57508
G1 X116.767 Y90.666 E8.62334
G1 X116.42 Y91.546 E8.67054
G1 X116.005 Y92.432 E8.71935
G1 X115.558 Y93.248 E8.76577
G1 X115.041 Y94.068 E8.81413
G1 X114.49 Y94.831 E8.86108
G1 X113.868 Y95.587 E8.90992
G1 X113.208 Y96.294 E8.95818
G1 X112.461 Y96.995 E9.00929
G1 X111.734 Y97.593 E9.05625
G1 X110.954 Y98.158 E9.1043
G1 X110.146 Y98.67 E9.15202
G1 X109.268 Y99.15 E9.20195
G1 X108.419 Y99.546 E9.24868
G1 X107.529 Y99.896 E9.2964
G1 X106.632 Y100.187 E9.34344
G1 X105.658 Y100.435 E9.39359
G1 X104.727 Y100.609 E9.44084
G1 X103.783 Y100.727 E9.4883
G1 X102.86 Y100.785 E9.53444
G1 X102.371 Y100.8 E9.55885
G1 X67.687 Y100.801 E11.28924
G1 X66.899 Y100.761 E11.32861
G1 X66.118 Y100.642 E11.36802
G1 X65.353 Y100.444 E11.40744
G1 X64.613 Y100.17 E11.44681
G1 X63.985 Y99.862 E11.48171
G1 X56.002 Y99.862 E11.87998
G1 X55.752 Y100.001 E11.89425
G1 X55.027 Y100.313 E11.93363
G1 X54.274 Y100.55 E11.97301
G1 X53.5 Y100.709 E12.01243
G1 X52.715 Y100.79 E12.05181
G1 X52.31 Y100.8 E12.07202
G1 X17.15 Y100.785 E13.82616
G1 X16.172 Y100.723 E13.87505
G1 X15.233 Y100.604 E13.92227
G1 X14.256 Y100.416 E13.97191
G1 X13.35 Y100.181 E14.0186
G1 X12.445 Y99.887 E14.06608
G1 X11.563 Y99.539 E14.11338
G1 X10.662 Y99.115 E14.16306
G1 X9.838 Y98.661 E14.21
G1 X9.004 Y98.13 E14.25932
G1 X8.242 Y97.574 E14.30638
G1 X7.517 Y96.974 E14.35333
G1 X6.838 Y96.34 E14.39968
G1 X6.143 Y95.602 E14.45026
G1 X5.536 Y94.866 E14.49785
G1 X4.97 Y94.085 E14.54597
G1 X4.465 Y93.29 E14.59296
G1 X3.982 Y92.41 E14.64304
G1 X3.583 Y91.556 E14.69007
G1 X3.231 Y90.661 E14.73805
G1 X2.941 Y89.767 E14.78494
G1 X2.697 Y88.813 E14.83407
G1 X2.521 Y87.885 E14.88119
G1 X2.4 Y86.926 E14.92942
G1 X2.341 Y85.997 E14.97586
G1 X2.325 Y85.503 E15.00052
G1 X2.324 Y67.687 E15.88936
G1 X2.364 Y66.899 E15.92872
G1 X2.483 Y66.118 E15.96814
G1 X2.681 Y65.354 E16.00751
G1 X2.955 Y64.613 E16.04693
G1 X3.263 Y63.985 E16.08182
G1 X3.263 Y56.002 E16.4801
G1 X3.124 Y55.752 E16.49437
G1 X2.812 Y55.027 E16.53375
G1 X2.575 Y54.274 E16.57313
G1 X2.416 Y53.5 E16.61255
G1 X2.335 Y52.715 E16.65192
G1 X2.325 Y52.307 E16.67228
G1 X2.34 Y34.018 E17.58473
G1 X2.402 Y33.039 E17.63367
G1 X2.521 Y32.104 E17.68069
G1 X2.706 Y31.14 E17.72966
G1 X2.938 Y30.241 E17.77598
G1 X3.236 Y29.326 E17.82399
G1 X3.587 Y28.437 E17.87168
G1 X4.01 Y27.537 E17.92129
G1 X4.464 Y26.713 E17.96823
G1 X4.994 Y25.881 E18.01744
G1 X5.549 Y25.12 E18.06443
G1 X6.15 Y24.393 E18.11149
G1 X6.784 Y23.714 E18.15784
G1 X7.522 Y23.019 E18.20841
G1 X8.258 Y22.412 E18.25601
G1 X9.038 Y21.847 E18.30406
G1 X9.828 Y21.345 E18.35076
G1 X10.701 Y20.865 E18.40046
G0 F3600 X10.871 Y21.227
G1 F1800 X11.731 Y20.824 E18.44785
G1 X12.583 Y20.488 E18.49354
G1 X13.472 Y20.199 E18.54017
G1 X14.379 Y19.966 E18.58689
G1 X15.311 Y19.789 E18.63422
G1 X16.226 Y19.674 E18.68023
G1 X17.162 Y19.615 E18.72702
G1 X17.628 Y19.6 E18.75028
G1 X52.313 Y19.599 E20.48072
G1 X53.081 Y19.639 E20.51909
G1 X53.841 Y19.758 E20.55747
G1 X54.584 Y19.956 E20.59583
G1 X55.303 Y20.23 E20.63422
G1 X55.912 Y20.538 E20.66827
G1 X64.096 Y20.538 E21.07657
G1 X64.623 Y20.264 E21.1062
G1 X65.338 Y19.983 E21.14453
G1 X66.08 Y19.777 E21.18295
G1 X66.838 Y19.649 E21.2213
G1 X67.69 Y19.6 E21.26388
G1 X102.85 Y19.615 E23.01802
G1 X103.777 Y19.674 E23.06436
G1 X104.716 Y19.793 E23.11158
G1 X105.644 Y19.971 E23.15872
G1 X106.55 Y20.206 E23.20542
G1 X107.408 Y20.485 E23.25043
G1 X108.29 Y20.833 E23.29774
G1 X109.145 Y21.236 E23.34489
G1 X109.969 Y21.69 E23.39183
G1 X110.758 Y22.192 E23.43848
G1 X111.519 Y22.747 E23.48548
G1 X112.209 Y23.317 E23.53013
G1 X112.888 Y23.951 E23.57647
G1 X113.547 Y24.652 E23.62447
G1 X114.154 Y25.388 E23.67207
G1 X114.694 Y26.132 E23.71793
G1 X115.199 Y26.928 E23.76496
G1 X115.65 Y27.75 E23.81174
G1 X116.05 Y28.603 E23.85874
G1 X116.39 Y29.464 E23.90493
G1 X116.68 Y30.359 E23.95187
G1 X116.91 Y31.258 E23.99816
G1 X117.086 Y32.184 E24.04519
G1 X117.201 Y33.098 E24.09115
G1 X117.26 Y34.029 E24.13769
G1 X117.275 Y34.497 E24.16105
G1 X117.276 Y52.313 E25.04989
G1 X117.236 Y53.081 E25.08826
G1 X117.117 Y53.841 E25.12664
G1 X116.919 Y54.584 E25.165
G1 X116.645 Y55.303 E25.20339
G1 X116.337 Y55.912 E25.23743
G1 X116.337 Y64.096 E25.64574
G1 X116.611 Y64.623 E25.67537
G1 X116.892 Y65.338 E25.7137
G1 X117.098 Y66.08 E25.75212
G1 X117.226 Y66.838 E25.79047
G1 X117.275 Y67.693 E25.83319
G1 X117.26 Y85.967 E26.74489
G1 X117.204 Y86.87 E26.79003
G1 X117.088 Y87.807 E26.83713
G1 X116.911 Y88.739 E26.88446
G1 X116.678 Y89.646 E26.93118
G1 X116.395 Y90.52 E26.97701
G1 X116.048 Y91.4 E27.0242
G1 X115.654 Y92.24 E27.07049
G1 X115.207 Y93.056 E27.11691
G1 X114.716 Y93.833 E27.16277
G1 X114.165 Y94.596 E27.20972
G1 X113.575 Y95.314 E27.25608
G1 X112.915 Y96.021 E27.30434
G1 X112.207 Y96.686 E27.3528
G1 X111.48 Y97.284 E27.39976
G1 X110.74 Y97.82 E27.44535
G1 X109.932 Y98.332 E27.49307
G1 X109.099 Y98.787 E27.54043
G1 X108.25 Y99.183 E27.58716
G1 X107.406 Y99.516 E27.63243
G1 X106.509 Y99.807 E27.67948
G1 X105.584 Y100.042 E27.72709
G1 X104.653 Y100.216 E27.77434
G1 X103.758 Y100.327 E27.81934
G1 X102.835 Y100.385 E27.86548
G1 X102.371 Y100.4 E27.88864
G1 X67.687 Y100.401 E29.61903
G1 X66.919 Y100.361 E29.6574
G1 X66.159 Y100.242 E29.69578
G1 X65.416 Y100.044 E29.73414
G1 X64.697 Y99.77 E29.77253
G1 X64.088 Y99.462 E29.80657
G1 X55.904 Y99.462 E30.21487
G1 X55.377 Y99.736 E30.24451
G1 X54.662 Y100.017 E30.28284
G1 X53.92 Y100.223 E30.32125
G1 X53.162 Y100.351 E30.35961
G1 X52.31 Y100.4 E30.40218
G1 X17.15 Y100.385 E32.15632
G1 X16.223 Y100.326 E32.20266
G1 X15.284 Y100.207 E32.24989
G1 X14.356 Y100.029 E32.29703
G1 X13.45 Y99.794 E32.34372
G1 X12.592 Y99.515 E32.38874
G1 X11.71 Y99.167 E32.43604
G1 X10.855 Y98.764 E32.4832
G1 X10.031 Y98.31 E32.53013
G1 X9.24 Y97.807 E32.5769
G1 X8.478 Y97.251 E32.62396
G1 X7.79 Y96.682 E32.6685
G1 X7.111 Y96.048 E32.71485
G1 X6.452 Y95.347 E32.76285
G1 X5.845 Y94.611 E32.81045
G1 X5.308 Y93.871 E32.85606
G1 X4.803 Y93.076 E32.90305
G1 X4.345 Y92.24 E32.95061
G1 X3.946 Y91.386 E32.99763
G1 X3.611 Y90.537 E33.04317
G1 X3.321 Y89.643 E33.09006
G1 X3.09 Y88.739 E33.13661
G1 X2.914 Y87.811 E33.18373
G1 X2.799 Y86.901 E33.22949
G1 X2.74 Y85.972 E33.27594
G1 X2.725 Y85.503 E33.29935
G1 X2.724 Y67.687 E34.18819
G1 X2.764 Y66.919 E34.22656
G1 X2.883 Y66.159 E34.26494
G1 X3.081 Y65.416 E34.3033
G1 X3.355 Y64.697 E34.34169
G1 X3.663 Y64.088 E34.37573
G1 X3.663 Y55.904 E34.78403
G1 X3.389 Y55.377 E34.81367
G1 X3.108 Y54.662 E34.852
G1 X2.902 Y53.92 E34.89041
G1 X2.774 Y53.162 E34.92877
G1 X2.725 Y52.307 E34.97149
G1 X2.74 Y34.018 E35.88393
G1 X2.799 Y33.09 E35.93033
G1 X2.918 Y32.155 E35.97735
G1 X3.094 Y31.24 E36.02384
G1 X3.326 Y30.341 E36.07016
G1 X3.608 Y29.472 E36.11574
G1 X3.959 Y28.583 E36.16342
G1 X4.361 Y27.73 E36.21047
G1 X4.815 Y26.906 E36.2574
G1 X5.317 Y26.117 E36.30406
G1 X5.872 Y25.356 E36.35105
G1 X6.442 Y24.666 E36.3957
G1 X7.076 Y23.987 E36.44205
G1 X7.777 Y23.328 E36.49005
G1 X8.513 Y22.721 E36.53764
G1 X9.252 Y22.184 E36.58322
G1 X10.042 Y21.682 E36.62992
G1 X10.871 Y21.227 E36.67709
G0 F3600 X11.041 Y21.589
G1 F1800 X11.901 Y21.186 E36.72448
G1 X12.707 Y20.868 E36.76771
G1 X13.596 Y20.579 E36.81434
G1 X14.454 Y20.359 E36.85853
G1 X15.386 Y20.182 E36.90586
G1 X16.252 Y20.073 E36.94941
G1 X17.188 Y20.014 E36.9962
G1 X17.628 Y20 E37.01816
G1 X52.313 Y19.999 E38.7486
G1 X53.06 Y20.039 E38.78592
G1 X53.798 Y20.158 E38.82322
G1 X54.52 Y20.356 E38.86057
G1 X55.216 Y20.629 E38.89787
G1 X55.806 Y20.938 E38.9311
G1 X64.199 Y20.938 E39.34982
G1 X64.321 Y20.862 E39.357
G1 X64.995 Y20.538 E39.3943
G1 X65.7 Y20.288 E39.43162
G1 X66.428 Y20.114 E39.46897
G1 X67.17 Y20.019 E39.50629
G1 X67.69 Y20 E39.53225
G1 X102.85 Y20.015 E41.28639
G1 X103.727 Y20.071 E41.33023
G1 X104.666 Y20.19 E41.37745
G1 X105.544 Y20.358 E41.42205
G1 X106.45 Y20.593 E41.46875
G1 X107.261 Y20.858 E41.51131
G1 X108.143 Y21.206 E41.55862
G1 X108.952 Y21.586 E41.60321
G1 X109.776 Y22.04 E41.65015
G1 X110.523 Y22.515 E41.69431
G1 X111.284 Y23.07 E41.7413
G1 X111.936 Y23.61 E41.78354
G1 X112.615 Y24.244 E41.82988
G1 X113.238 Y24.906 E41.87524
G1 X113.845 Y25.642 E41.92283
G1 X114.356 Y26.346 E41.96623
G1 X114.861 Y27.142 E42.01326
G1 X115.288 Y27.92 E42.05754
G1 X115.688 Y28.773 E42.10454
G1 X116.009 Y29.587 E42.1482
G1 X116.299 Y30.482 E42.19513
G1 X116.517 Y31.333 E42.23896
G1 X116.693 Y32.259 E42.28599
G1 X116.802 Y33.123 E42.32943
G1 X116.861 Y34.054 E42.37597
G1 X116.875 Y34.497 E42.39809
G1 X116.876 Y52.313 E43.28693
G1 X116.836 Y53.06 E43.32425
G1 X116.717 Y53.798 E43.36155
G1 X116.519 Y54.52 E43.3989
G1 X116.246 Y55.216 E43.4362
G1 X115.937 Y55.808 E43.46951
G1 X115.937 Y64.199 E43.88814
G1 X116.013 Y64.321 E43.89531
G1 X116.337 Y64.995 E43.93262
G1 X116.587 Y65.7 E43.96994
G1 X116.761 Y66.428 E44.00728
G1 X116.856 Y67.17 E44.0446
G1 X116.875 Y67.693 E44.07071
G1 X116.86 Y85.967 E44.98241
G1 X116.807 Y86.821 E45.0251
G1 X116.691 Y87.758 E45.0722
G1 X116.524 Y88.64 E45.11698
G1 X116.291 Y89.547 E45.1637
G1 X116.023 Y90.373 E45.20703
G1 X115.676 Y91.253 E45.25422
G1 X115.303 Y92.048 E45.29803
G1 X114.856 Y92.864 E45.34445
G1 X114.392 Y93.599 E45.38782
G1 X113.841 Y94.362 E45.43477
G1 X113.283 Y95.041 E45.47862
G1 X112.623 Y95.748 E45.52687
G1 X111.953 Y96.377 E45.57272
G1 X111.226 Y96.975 E45.61968
G1 X110.526 Y97.482 E45.6628
G1 X109.718 Y97.994 E45.71053
G1 X108.93 Y98.425 E45.75534
G1 X108.081 Y98.821 E45.80207
G1 X107.282 Y99.135 E45.8449
G1 X106.385 Y99.426 E45.89195
G1 X105.511 Y99.649 E45.93695
G1 X104.58 Y99.823 E45.98421
G1 X103.733 Y99.928 E46.02679
G1 X102.81 Y99.986 E46.07292
G1 X102.371 Y100 E46.09484
G1 X67.687 Y100.001 E47.82523
G1 X66.94 Y99.961 E47.86255
G1 X66.202 Y99.842 E47.89985
G1 X65.48 Y99.644 E47.9372
G1 X64.784 Y99.371 E47.9745
G1 X64.194 Y99.062 E48.00772
G1 X55.801 Y99.062 E48.42645
G1 X55.679 Y99.138 E48.43362
G1 X55.005 Y99.462 E48.47093
G1 X54.3 Y99.712 E48.50825
G1 X53.572 Y99.886 E48.54559
G1 X52.83 Y99.981 E48.58291
G1 X52.31 Y100 E48.60887
G1 X17.15 Y99.985 E50.36301
G1 X16.273 Y99.929 E50.40686
G1 X15.334 Y99.81 E50.45408
G1 X14.456 Y99.642 E50.49868
G1 X13.55 Y99.407 E50.54537
G1 X12.739 Y99.142 E50.58794
G1 X11.857 Y98.794 E50.63524
G1 X11.048 Y98.414 E50.67984
G1 X10.224 Y97.96 E50.72677
G1 X9.476 Y97.484 E50.77101
G1 X8.714 Y96.928 E50.81807
G1 X8.063 Y96.389 E50.86023
G1 X7.384 Y95.755 E50.90658
G1 X6.761 Y95.093 E50.95193
G1 X6.154 Y94.357 E50.99953
G1 X5.645 Y93.656 E51.04275
G1 X5.14 Y92.861 E51.08974
G1 X4.707 Y92.071 E51.13468
G1 X4.308 Y91.217 E51.18171
G1 X3.992 Y90.414 E51.22476
G1 X3.702 Y89.52 E51.27165
G1 X3.483 Y88.664 E51.31573
G1 X3.307 Y87.736 E51.36286
G1 X3.198 Y86.876 E51.4061
G1 X3.139 Y85.947 E51.45255
G1 X3.125 Y85.503 E51.47471
G1 X3.124 Y67.687 E52.36355
G1 X3.164 Y66.94 E52.40087
G1 X3.283 Y66.202 E52.43817
G1 X3.481 Y65.48 E52.47552
G1 X3.754 Y64.784 E52.51282
G1 X4.063 Y64.192 E52.54613
G1 X4.063 Y55.801 E52.96476
G1 X3.987 Y55.679 E52.97193
G1 X3.663 Y55.005 E53.00924
G1 X3.413 Y54.3 E53.04656
G1 X3.239 Y53.572 E53.0839
G1 X3.144 Y52.83 E53.12123
G1 X3.125 Y52.307 E53.14733
G1 X3.14 Y34.018 E54.05978
G1 X3.196 Y33.14 E54.10367
G1 X3.315 Y32.205 E54.15069
G1 X3.481 Y31.34 E54.19464
G1 X3.713 Y30.441 E54.24096
G1 X3.98 Y29.619 E54.28408
G1 X4.331 Y28.73 E54.33176
G1 X4.711 Y27.923 E54.37626
G1 X5.165 Y27.099 E54.4232
G1 X5.64 Y26.352 E54.46736
G1 X6.195 Y25.591 E54.51435
G1 X6.735 Y24.939 E54.55659
G1 X7.369 Y24.26 E54.60294
G1 X8.031 Y23.637 E54.64829
G1 X8.767 Y23.03 E54.69588
G1 X9.467 Y22.522 E54.73904
G1 X10.257 Y22.02 E54.78573
G1 X11.041 Y21.589 E54.83037
G0 F3600 X11.21 Y21.952
G1 F1800 X12.07 Y21.549 E54.87775
G1 X12.831 Y21.248 E54.91858
G1 X13.72 Y20.959 E54.96522
G1 X14.529 Y20.752 E55.00688
G1 X15.461 Y20.575 E55.05421
G1 X16.277 Y20.472 E55.09524
G1 X17.213 Y20.413 E55.14203
G1 X17.628 Y20.4 E55.16274
G1 X52.313 Y20.399 E56.89319
G1 X53.038 Y20.439 E56.92941
G1 X53.755 Y20.558 E56.96567
G1 X54.454 Y20.756 E57.00192
G1 X55.127 Y21.029 E57.03815
G1 X55.699 Y21.338 E57.07059
G1 X64.315 Y21.338 E57.50044
G1 X64.7 Y21.115 E57.52264
G1 X65.365 Y20.822 E57.55889
G1 X66.058 Y20.604 E57.59514
G1 X66.77 Y20.464 E57.63134
G1 X67.69 Y20.4 E57.67735
G1 X102.85 Y20.415 E59.43149
G1 X103.677 Y20.467 E59.47283
G1 X104.616 Y20.586 E59.52005
G1 X105.443 Y20.745 E59.56206
G1 X106.349 Y20.98 E59.60876
G1 X107.114 Y21.23 E59.64891
G1 X107.996 Y21.578 E59.69622
G1 X108.759 Y21.936 E59.73826
G1 X109.583 Y22.39 E59.7852
G1 X110.287 Y22.838 E59.82683
G1 X111.048 Y23.393 E59.87382
G1 X111.663 Y23.902 E59.91365
G1 X112.342 Y24.536 E59.96
G1 X112.93 Y25.161 E60.00281
G1 X113.537 Y25.897 E60.05041
G1 X114.018 Y26.56 E60.09127
G1 X114.523 Y27.356 E60.1383
G1 X114.926 Y28.09 E60.18008
G1 X115.326 Y28.943 E60.22708
G1 X115.629 Y29.711 E60.26827
G1 X115.919 Y30.606 E60.31521
G1 X116.124 Y31.408 E60.35651
G1 X116.3 Y32.334 E60.40353
G1 X116.403 Y33.149 E60.44452
G1 X116.462 Y34.08 E60.49106
G1 X116.475 Y34.497 E60.51187
G1 X116.476 Y52.313 E61.40071
G1 X116.436 Y53.038 E61.43694
G1 X116.317 Y53.754 E61.47315
G1 X116.119 Y54.453 E61.5094
G1 X115.846 Y55.126 E61.54563
G1 X115.537 Y55.699 E61.57811
G1 X115.537 Y64.315 E62.00796
G1 X115.76 Y64.7 E62.03016
G1 X116.053 Y65.365 E62.06641
G1 X116.271 Y66.058 E62.10266
G1 X116.411 Y66.77 E62.13886
G1 X116.475 Y67.692 E62.18497
G1 X116.46 Y85.966 E63.09666
G1 X116.41 Y86.772 E63.13695
G1 X116.294 Y87.709 E63.18406
G1 X116.136 Y88.54 E63.22626
G1 X115.903 Y89.447 E63.27298
G1 X115.651 Y90.226 E63.31383
G1 X115.304 Y91.106 E63.36102
G1 X114.952 Y91.856 E63.40235
G1 X114.505 Y92.672 E63.44877
G1 X114.068 Y93.365 E63.48965
G1 X113.517 Y94.128 E63.5366
G1 X112.991 Y94.768 E63.57793
G1 X112.331 Y95.475 E63.62618
G1 X111.699 Y96.068 E63.66942
G1 X110.972 Y96.666 E63.71638
G1 X110.312 Y97.144 E63.75704
G1 X109.504 Y97.656 E63.80476
G1 X108.761 Y98.062 E63.847
G1 X107.912 Y98.458 E63.89374
G1 X107.159 Y98.755 E63.93413
G1 X106.262 Y99.046 E63.98117
