;FLAVOR:RepRap
;TIME:5833
;Filament used: 5.90596m
;Layer height: 0.2
;Generated with Cura_SteamEngine 2.4.0
M190 S50
M104 S195
M109 S195
G28 ;Home
G1 Z15.0 F6000 ;Move the platform down 15mm
;Prime the extruder
G92 E0
G1 F200 E3
G92 E0
;LAYER_COUNT:52
;LAYER:0
M107
G1 F1500 E-6.5
G0 F3600 X10.701 Y20.865 Z0.3
;TYPE:SKIRT
G1 F1500 E0
G1 F1800 X11.561 Y20.462 E0.04738
G1 X12.46 Y20.107 E0.0956
G1 X13.349 Y19.818 E0.14224
G1 X14.305 Y19.573 E0.19148
G1 X15.237 Y19.396 E0.23881
G1 X16.201 Y19.274 E0.28728
G1 X17.137 Y19.215 E0.33407
G1 X17.628 Y19.2 E0.35858
G1 X52.313 Y19.199 E2.08902
G1 X53.101 Y19.239 E2.12839
G1 X53.882 Y19.358 E2.1678
G1 X54.647 Y19.556 E2.20723
G1 X55.387 Y19.83 E2.24659
G1 X56.015 Y20.138 E2.28149
G1 X63.998 Y20.138 E2.67976
G1 X64.248 Y19.999 E2.69403
G1 X64.973 Y19.687 E2.73341
G1 X65.726 Y19.45 E2.7728
G1 X66.5 Y19.291 E2.81222
G1 X67.285 Y19.21 E2.85159
G1 X67.69 Y19.2 E2.8718
G1 X102.85 Y19.215 E4.62594
G1 X103.828 Y19.277 E4.67483
G1 X104.767 Y19.396 E4.72205
G1 X105.744 Y19.584 E4.77169
G1 X106.65 Y19.819 E4.81839
G1 X107.555 Y20.113 E4.86586
G1 X108.437 Y20.461 E4.91316
G1 X109.338 Y20.885 E4.96284
G1 X110.162 Y21.339 E5.00978
G1 X110.994 Y21.869 E5.05899
G1 X111.755 Y22.424 E5.10599
G1 X112.482 Y23.025 E5.15304
G1 X113.161 Y23.659 E5.19939
G1 X113.856 Y24.397 E5.24997
G1 X114.463 Y25.133 E5.29756
G1 X115.031 Y25.917 E5.34586
G1 X115.536 Y26.713 E5.39289
G1 X116.012 Y27.58 E5.44224
G1 X116.412 Y28.433 E5.48924
G1 X116.77 Y29.341 E5.53794
G1 X117.06 Y30.236 E5.58487
G1 X117.303 Y31.184 E5.6337
G1 X117.479 Y32.11 E5.68072
G1 X117.6 Y33.073 E5.72915
G1 X117.659 Y34.004 E5.77569
G1 X117.675 Y34.497 E5.8003
G1 X117.676 Y52.313 E6.68914
G1 X117.636 Y53.101 E6.7285
G1 X117.517 Y53.882 E6.76792
G1 X117.319 Y54.646 E6.80729
G1 X117.045 Y55.387 E6.84671
G1 X116.737 Y56.015 E6.8816
G1 X116.737 Y63.998 E7.27988
G1 X116.876 Y64.248 E7.29415
G1 X117.188 Y64.973 E7.33353
G1 X117.425 Y65.726 E7.37291
G1 X117.584 Y66.5 E7.41233
G1 X117.665 Y67.285 E7.4517
G1 X117.675 Y67.693 E7.47206
G1 X117.66 Y85.978 E8.38431
G1 X117.598 Y86.953 E8.43305
G1 X117.479 Y87.892 E8.48027
G1 X117.294 Y88.86 E8.52944
G1 X117.062 Y89.759 E8.57576
G1 X116.766 Y90.67 E8.62355
G1 X116.416 Y91.558 E8.67117
G1 X115.989 Y92.465 E8.72118
G1 X115.534 Y93.29 E8.76819
G1 X115.006 Y94.119 E8.81722
G1 X114.451 Y94.88 E8.86421
G1 X113.85 Y95.607 E8.91127
G1 X113.216 Y96.286 E8.95762
G1 X112.478 Y96.981 E9.00819
G1 X111.742 Y97.588 E9.05579
G1 X110.962 Y98.153 E9.10384
G1 X110.172 Y98.655 E9.15054
G1 X109.302 Y99.133 E9.20006
G1 X108.443 Y99.536 E9.2474
G1 X107.539 Y99.894 E9.29591
G1 X106.649 Y100.183 E9.34259
G1 X105.695 Y100.427 E9.39172
G1 X104.763 Y100.604 E9.43905
G1 X103.799 Y100.726 E9.48753
G1 X102.863 Y100.785 E9.53432
G1 X102.372 Y100.8 E9.55882
G1 X67.687 Y100.801 E11.28927
G1 X66.899 Y100.761 E11.32863
G1 X66.118 Y100.642 E11.36804
G1 X65.353 Y100.444 E11.40747
G1 X64.613 Y100.17 E11.44684
G1 X63.985 Y99.862 E11.48173
G1 X56.002 Y99.862 E11.88001
G1 X55.752 Y100.001 E11.89428
G1 X55.027 Y100.313 E11.93365
G1 X54.274 Y100.55 E11.97304
G1 X53.5 Y100.709 E12.01246
G1 X52.715 Y100.79 E12.05183
G1 X52.31 Y100.8 E12.07204
G1 X17.15 Y100.785 E13.82618
G1 X16.172 Y100.723 E13.87507
G1 X15.233 Y100.604 E13.92229
G1 X14.256 Y100.416 E13.97193
G1 X13.35 Y100.181 E14.01863
G1 X12.445 Y99.887 E14.0661
G1 X11.563 Y99.539 E14.11341
G1 X10.662 Y99.115 E14.16309
G1 X9.838 Y98.661 E14.21002
G1 X9.004 Y98.13 E14.25935
G1 X8.242 Y97.574 E14.30641
G1 X7.517 Y96.974 E14.35336
G1 X6.838 Y96.34 E14.39971
G1 X6.143 Y95.602 E14.45028
G1 X5.536 Y94.866 E14.49788
G1 X4.97 Y94.085 E14.546
G1 X4.465 Y93.29 E14.59299
G1 X3.982 Y92.41 E14.64307
G1 X3.583 Y91.556 E14.69009
G1 X3.231 Y90.661 E14.73808
G1 X2.941 Y89.767 E14.78497
G1 X2.697 Y88.815 E14.834
G1 X2.521 Y87.888 E14.88107
G1 X2.4 Y86.927 E14.92939
G1 X2.341 Y85.997 E14.97588
G1 X2.325 Y85.503 E15.00054
G1 X2.324 Y67.687 E15.88939
G1 X2.364 Y66.899 E15.92875
G1 X2.483 Y66.118 E15.96817
G1 X2.681 Y65.354 E16.00754
G1 X2.955 Y64.613 E16.04696
G1 X3.263 Y63.985 E16.08185
G1 X3.263 Y56.002 E16.48013
G1 X3.124 Y55.752 E16.4944
G1 X2.812 Y55.027 E16.53377
G1 X2.575 Y54.274 E16.57316
G1 X2.416 Y53.5 E16.61258
G1 X2.335 Y52.715 E16.65195
G1 X2.325 Y52.307 E16.67231
G1 X2.34 Y34.018 E17.58475
G1 X2.402 Y33.039 E17.6337
G1 X2.521 Y32.104 E17.68072
G1 X2.706 Y31.14 E17.72969
G1 X2.938 Y30.241 E17.77601
G1 X3.236 Y29.326 E17.82402
G1 X3.587 Y28.437 E17.8717
G1 X4.01 Y27.537 E17.92132
G1 X4.464 Y26.713 E17.96825
G1 X4.994 Y25.881 E18.01747
G1 X5.549 Y25.12 E18.06446
G1 X6.15 Y24.393 E18.11152
G1 X6.784 Y23.714 E18.15787
G1 X7.522 Y23.019 E18.20844
G1 X8.258 Y22.412 E18.25604
G1 X9.038 Y21.847 E18.30409
G1 X9.828 Y21.345 E18.35079
G1 X10.701 Y20.865 E18.40049
G0 F3600 X10.871 Y21.227
G1 F1800 X11.731 Y20.824 E18.44787
G1 X12.583 Y20.488 E18.49357
G1 X13.472 Y20.199 E18.5402
G1 X14.379 Y19.966 E18.58692
G1 X15.311 Y19.789 E18.63425
G1 X16.226 Y19.674 E18.68026
G1 X17.162 Y19.615 E18.72705
G1 X17.628 Y19.6 E18.75031
G1 X52.313 Y19.599 E20.48075
G1 X53.081 Y19.639 E20.51912
G1 X53.841 Y19.758 E20.5575
G1 X54.584 Y19.956 E20.59586
G1 X55.303 Y20.23 E20.63425
G1 X55.912 Y20.538 E20.6683
G1 X64.096 Y20.538 E21.0766
G1 X64.623 Y20.264 E21.10623
G1 X65.338 Y19.983 E21.14456
G1 X66.08 Y19.777 E21.18298
G1 X66.838 Y19.649 E21.22133
G1 X67.69 Y19.6 E21.26391
G1 X102.85 Y19.615 E23.01805
G1 X103.777 Y19.674 E23.06439
G1 X104.716 Y19.793 E23.11161
G1 X105.644 Y19.971 E23.15875
G1 X106.55 Y20.206 E23.20545
G1 X107.408 Y20.485 E23.25046
G1 X108.29 Y20.833 E23.29776
G1 X109.145 Y21.236 E23.34492
G1 X109.969 Y21.69 E23.39186
G1 X110.758 Y22.192 E23.43851
G1 X111.519 Y22.747 E23.4855
G1 X112.209 Y23.317 E23.53015
G1 X112.888 Y23.951 E23.5765
G1 X113.547 Y24.652 E23.6245
G1 X114.154 Y25.388 E23.6721
G1 X114.694 Y26.132 E23.71796
G1 X115.199 Y26.928 E23.76499
G1 X115.65 Y27.75 E23.81177
G1 X116.05 Y28.603 E23.85877
G1 X116.39 Y29.464 E23.90496
G1 X116.68 Y30.359 E23.95189
G1 X116.91 Y31.258 E23.99819
G1 X117.086 Y32.184 E24.04521
G1 X117.201 Y33.098 E24.09117
G1 X117.26 Y34.029 E24.13771
G1 X117.275 Y34.497 E24.16107
G1 X117.276 Y52.313 E25.04992
G1 X117.236 Y53.081 E25.08829
G1 X117.117 Y53.841 E25.12666
G1 X116.919 Y54.584 E25.16503
G1 X116.645 Y55.303 E25.20341
G1 X116.337 Y55.912 E25.23746
G1 X116.337 Y64.096 E25.64576
G1 X116.611 Y64.623 E25.6754
G1 X116.892 Y65.338 E25.71372
G1 X117.098 Y66.08 E25.75214
G1 X117.226 Y66.838 E25.7905
G1 X117.275 Y67.693 E25.83322
G1 X117.26 Y85.978 E26.74546
G1 X117.201 Y86.902 E26.79166
G1 X117.082 Y87.841 E26.83888
G1 X116.906 Y88.76 E26.88556
G1 X116.674 Y89.659 E26.93188
G1 X116.394 Y90.524 E26.97724
G1 X116.044 Y91.412 E27.02486
G1 X115.639 Y92.272 E27.07229
G1 X115.184 Y93.097 E27.11929
G1 X114.683 Y93.883 E27.16579
G1 X114.128 Y94.644 E27.21278
G1 X113.558 Y95.334 E27.25743
G1 X112.924 Y96.013 E27.30378
G1 X112.223 Y96.672 E27.35178
G1 X111.487 Y97.279 E27.39938
G1 X110.748 Y97.816 E27.44495
G1 X109.958 Y98.318 E27.49165
G1 X109.132 Y98.771 E27.53865
G1 X108.273 Y99.174 E27.58599
G1 X107.415 Y99.513 E27.63201
G1 X106.525 Y99.802 E27.6787
G1 X105.621 Y100.034 E27.72526
G1 X104.689 Y100.211 E27.77259
G1 X103.774 Y100.326 E27.8186
G1 X102.838 Y100.385 E27.86539
G1 X102.372 Y100.4 E27.88865
G1 X67.687 Y100.401 E29.61909
G1 X66.919 Y100.361 E29.65746
G1 X66.159 Y100.242 E29.69584
G1 X65.416 Y100.044 E29.7342
G1 X64.697 Y99.77 E29.77259
G1 X64.088 Y99.462 E29.80663
G1 X55.904 Y99.462 E30.21493
G1 X55.377 Y99.736 E30.24457
G1 X54.662 Y100.017 E30.2829
G1 X53.92 Y100.223 E30.32131
G1 X53.162 Y100.351 E30.35967
G1 X52.31 Y100.4 E30.40224
G1 X17.15 Y100.385 E32.15638
G1 X16.223 Y100.326 E32.20272
G1 X15.284 Y100.207 E32.24995
G1 X14.356 Y100.029 E32.29709
G1 X13.45 Y99.794 E32.34378
G1 X12.592 Y99.515 E32.3888
G1 X11.71 Y99.167 E32.4361
G1 X10.855 Y98.764 E32.48326
G1 X10.031 Y98.31 E32.53019
G1 X9.24 Y97.807 E32.57696
G1 X8.478 Y97.251 E32.62402
G1 X7.79 Y96.682 E32.66856
G1 X7.111 Y96.048 E32.71491
G1 X6.452 Y95.347 E32.76291
G1 X5.845 Y94.611 E32.81051
G1 X5.308 Y93.871 E32.85612
G1 X4.803 Y93.076 E32.90311
G1 X4.345 Y92.24 E32.95067
G1 X3.946 Y91.386 E32.99769
G1 X3.611 Y90.537 E33.04323
G1 X3.321 Y89.643 E33.09012
G1 X3.09 Y88.74 E33.13662
G1 X2.914 Y87.813 E33.1837
G1 X2.799 Y86.902 E33.22951
G1 X2.74 Y85.972 E33.276
G1 X2.725 Y85.503 E33.29941
G1 X2.724 Y67.687 E34.18825
G1 X2.764 Y66.919 E34.22662
G1 X2.883 Y66.159 E34.265
G1 X3.081 Y65.416 E34.30336
G1 X3.355 Y64.697 E34.34175
G1 X3.663 Y64.088 E34.3758
G1 X3.663 Y55.904 E34.7841
G1 X3.389 Y55.377 E34.81373
G1 X3.108 Y54.662 E34.85206
G1 X2.902 Y53.92 E34.89048
G1 X2.774 Y53.162 E34.92883
G1 X2.725 Y52.307 E34.97155
G1 X2.74 Y34.018 E35.884
G1 X2.799 Y33.09 E35.93039
G1 X2.918 Y32.155 E35.97741
G1 X3.094 Y31.24 E36.0239
G1 X3.326 Y30.341 E36.07022
G1 X3.608 Y29.472 E36.1158
G1 X3.959 Y28.583 E36.16348
G1 X4.361 Y27.73 E36.21053
G1 X4.815 Y26.906 E36.25747
G1 X5.317 Y26.117 E36.30412
G1 X5.872 Y25.356 E36.35111
G1 X6.442 Y24.666 E36.39576
G1 X7.076 Y23.987 E36.44211
G1 X7.777 Y23.328 E36.49011
G1 X8.513 Y22.721 E36.53771
G1 X9.252 Y22.184 E36.58328
G1 X10.042 Y21.682 E36.62998
G1 X10.871 Y21.227 E36.67716
G0 F3600 X11.041 Y21.589
G1 F1800 X11.901 Y21.186 E36.72454
G1 X12.707 Y20.868 E36.76777
G1 X13.596 Y20.579 E36.81441
G1 X14.454 Y20.359 E36.8586
G1 X15.386 Y20.182 E36.90592
G1 X16.252 Y20.073 E36.94947
G1 X17.188 Y20.014 E36.99626
G1 X17.628 Y20 E37.01822
G1 X52.313 Y19.999 E38.74866
G1 X53.06 Y20.039 E38.78599
G1 X53.798 Y20.158 E38.82328
G1 X54.52 Y20.356 E38.86063
G1 X55.216 Y20.629 E38.89793
G1 X55.806 Y20.938 E38.93116
G1 X64.199 Y20.938 E39.34989
G1 X64.321 Y20.862 E39.35706
G1 X64.995 Y20.538 E39.39437
G1 X65.7 Y20.288 E39.43169
G1 X66.428 Y20.114 E39.46903
G1 X67.17 Y20.019 E39.50635
G1 X67.69 Y20 E39.53231
G1 X102.85 Y20.015 E41.28645
G1 X103.727 Y20.071 E41.33029
G1 X104.666 Y20.19 E41.37751
G1 X105.544 Y20.358 E41.42211
G1 X106.45 Y20.593 E41.46881
G1 X107.261 Y20.858 E41.51137
G1 X108.143 Y21.206 E41.55868
G1 X108.952 Y21.586 E41.60327
G1 X109.776 Y22.04 E41.65021
G1 X110.523 Y22.515 E41.69437
G1 X111.284 Y23.07 E41.74136
G1 X111.936 Y23.61 E41.7836
G1 X112.615 Y24.244 E41.82995
G1 X113.238 Y24.906 E41.8753
G1 X113.845 Y25.642 E41.92289
G1 X114.356 Y26.346 E41.96629
G1 X114.861 Y27.142 E42.01332
G1 X115.288 Y27.92 E42.0576
G1 X115.688 Y28.773 E42.1046
G1 X116.009 Y29.587 E42.14826
G1 X116.299 Y30.482 E42.1952
G1 X116.517 Y31.333 E42.23902
G1 X116.693 Y32.259 E42.28605
G1 X116.802 Y33.123 E42.3295
G1 X116.861 Y34.054 E42.37604
G1 X116.875 Y34.497 E42.39815
G1 X116.876 Y52.313 E43.28699
G1 X116.836 Y53.06 E43.32431
G1 X116.717 Y53.798 E43.36161
G1 X116.519 Y54.52 E43.39896
G1 X116.246 Y55.216 E43.43626
G1 X115.937 Y55.808 E43.46957
G1 X115.937 Y64.199 E43.8882
G1 X116.013 Y64.321 E43.89537
G1 X116.337 Y64.995 E43.93268
G1 X116.587 Y65.7 E43.97
G1 X116.761 Y66.428 E44.00735
G1 X116.856 Y67.17 E44.04467
G1 X116.875 Y67.693 E44.07078
G1 X116.86 Y85.978 E44.98302
G1 X116.804 Y86.852 E45.02671
G1 X116.685 Y87.791 E45.07393
G1 X116.519 Y88.66 E45.11807
G1 X116.287 Y89.559 E45.16439
G1 X116.021 Y90.377 E45.20731
G1 X115.671 Y91.265 E45.25493
G1 X115.289 Y92.079 E45.29979
G1 X114.834 Y92.904 E45.34679
G1 X114.36 Y93.648 E45.3908
G1 X113.805 Y94.409 E45.43779
G1 X113.265 Y95.061 E45.48003
G1 X112.631 Y95.74 E45.52638
G1 X111.969 Y96.363 E45.57173
G1 X111.233 Y96.97 E45.61932
G1 X110.533 Y97.478 E45.66247
G1 X109.743 Y97.98 E45.70917
G1 X108.962 Y98.409 E45.75363
G1 X108.103 Y98.812 E45.80096
G1 X107.292 Y99.133 E45.84448
G1 X106.402 Y99.422 E45.89116
G1 X105.546 Y99.641 E45.93525
G1 X104.614 Y99.818 E45.98257
G1 X103.748 Y99.927 E46.02612
G1 X102.812 Y99.986 E46.07291
G1 X102.372 Y100 E46.09487
G1 X67.687 Y100.001 E47.82532
G1 X66.94 Y99.961 E47.86264
G1 X66.202 Y99.842 E47.89993
G1 X65.48 Y99.644 E47.93728
G1 X64.784 Y99.371 E47.97458
G1 X64.194 Y99.062 E48.00781
G1 X55.801 Y99.062 E48.42654
G1 X55.679 Y99.138 E48.43371
G1 X55.005 Y99.462 E48.47102
G1 X54.3 Y99.712 E48.50834
G1 X53.572 Y99.886 E48.54568
G1 X52.83 Y99.981 E48.583
G1 X52.31 Y100 E48.60896
G1 X17.15 Y99.985 E50.3631
G1 X16.273 Y99.929 E50.40694
G1 X15.334 Y99.81 E50.45416
G1 X14.456 Y99.642 E50.49876
G1 X13.55 Y99.407 E50.54546
G1 X12.739 Y99.142 E50.58803
G1 X11.857 Y98.794 E50.63533
G1 X11.048 Y98.414 E50.67992
G1 X10.224 Y97.96 E50.72686
G1 X9.476 Y97.484 E50.77109
G1 X8.714 Y96.928 E50.81815
G1 X8.063 Y96.389 E50.86032
G1 X7.384 Y95.755 E50.90666
G1 X6.761 Y95.093 E50.95202
G1 X6.154 Y94.357 E50.99961
G1 X5.645 Y93.656 E51.04283
G1 X5.14 Y92.861 E51.08982
G1 X4.707 Y92.071 E51.13477
G1 X4.308 Y91.217 E51.18179
G1 X3.992 Y90.414 E51.22485
G1 X3.702 Y89.52 E51.27174
G1 X3.483 Y88.666 E51.31572
G1 X3.307 Y87.739 E51.36279
G1 X3.198 Y86.876 E51.40619
G1 X3.139 Y85.946 E51.45268
G1 X3.125 Y85.503 E51.4748
G1 X3.124 Y67.687 E52.36364
G1 X3.164 Y66.94 E52.40096
G1 X3.283 Y66.202 E52.43826
G1 X3.481 Y65.48 E52.47561
G1 X3.754 Y64.784 E52.51291
G1 X4.063 Y64.192 E52.54622
G1 X4.063 Y55.801 E52.96485
G1 X3.987 Y55.679 E52.97202
G1 X3.663 Y55.005 E53.00933
G1 X3.413 Y54.3 E53.04665
G1 X3.239 Y53.572 E53.08399
G1 X3.144 Y52.83 E53.12131
G1 X3.125 Y52.307 E53.14742
G1 X3.14 Y34.018 E54.05987
G1 X3.196 Y33.14 E54.10376
G1 X3.315 Y32.205 E54.15078
G1 X3.481 Y31.34 E54.19472
G1 X3.713 Y30.441 E54.24104
G1 X3.98 Y29.619 E54.28416
G1 X4.331 Y28.73 E54.33185
G1 X4.711 Y27.923 E54.37635
G1 X5.165 Y27.099 E54.42329
G1 X5.64 Y26.352 E54.46745
G1 X6.195 Y25.591 E54.51444
G1 X6.735 Y24.939 E54.55668
G1 X7.369 Y24.26 E54.60302
G1 X8.031 Y23.637 E54.64838
G1 X8.767 Y23.03 E54.69597
G1 X9.467 Y22.522 E54.73912
G1 X10.257 Y22.02 E54.78582
G1 X11.041 Y21.589 E54.83046
G0 F3600 X11.21 Y21.952
G1 F1800 X12.07 Y21.549 E54.87784
G1 X12.831 Y21.248 E54.91867
G1 X13.72 Y20.959 E54.9653
G1 X14.529 Y20.752 E55.00697
G1 X15.461 Y20.575 E55.05429
G1 X16.277 Y20.472 E55.09533
G1 X17.213 Y20.413 E55.14212
G1 X17.628 Y20.4 E55.16283
G1 X52.313 Y20.399 E56.89327
G1 X53.038 Y20.439 E56.9295
G1 X53.755 Y20.558 E56.96576
G1 X54.454 Y20.756 E57.002
G1 X55.127 Y21.029 E57.03824
G1 X55.699 Y21.338 E57.07067
G1 X64.315 Y21.338 E57.50053
G1 X64.7 Y21.115 E57.52272
G1 X65.365 Y20.822 E57.55898
G1 X66.058 Y20.604 E57.59522
G1 X66.77 Y20.464 E57.63143
G1 X67.69 Y20.4 E57.67744
G1 X102.85 Y20.415 E59.43157
G1 X103.677 Y20.467 E59.47292
G1 X104.616 Y20.586 E59.52014
G1 X105.443 Y20.745 E59.56215
G1 X106.349 Y20.98 E59.60885
G1 X107.114 Y21.23 E59.649
G1 X107.996 Y21.578 E59.6963
G1 X108.759 Y21.936 E59.73835
G1 X109.583 Y22.39 E59.78529
G1 X110.287 Y22.838 E59.82692
G1 X111.048 Y23.393 E59.87391
G1 X111.663 Y23.902 E59.91374
G1 X112.342 Y24.536 E59.96009
G1 X112.93 Y25.161 E60.0029
G1 X113.537 Y25.897 E60.05049
G1 X114.018 Y26.56 E60.09136
G1 X114.523 Y27.356 E60.13839
G1 X114.926 Y28.09 E60.18017
G1 X115.326 Y28.943 E60.22717
G1 X115.629 Y29.711 E60.26836
G1 X115.919 Y30.606 E60.3153
G1 X116.124 Y31.408 E60.35659
G1 X116.3 Y32.334 E60.40362
G1 X116.403 Y33.149 E60.4446
G1 X116.462 Y34.08 E60.49114
G1 X116.475 Y34.497 E60.51196
G1 X116.476 Y52.313 E61.4008
G1 X116.436 Y53.038 E61.43703
G1 X116.317 Y53.754 E61.47324
G1 X116.119 Y54.453 E61.50948
G1 X115.846 Y55.126 E61.54572
G1 X115.537 Y55.699 E61.5782
G1 X115.537 Y64.315 E62.00805
G1 X115.76 Y64.7 E62.03025
G1 X116.053 Y65.365 E62.0665
G1 X116.271 Y66.058 E62.10275
G1 X116.411 Y66.77 E62.13895
G1 X116.475 Y67.692 E62.18506
G1 X116.46 Y85.977 E63.0973
G1 X116.408 Y86.802 E63.13854
G1 X116.289 Y87.741 E63.18576
G1 X116.132 Y88.56 E63.22737
G1 X115.9 Y89.459 E63.27369
G1 X115.649 Y90.23 E63.31414
G1 X115.299 Y91.118 E63.36176
G1 X114.938 Y91.885 E63.40405
G1 X114.483 Y92.71 E63.45106
G1 X114.037 Y93.412 E63.49255
G1 X113.482 Y94.173 E63.53954
G1 X112.973 Y94.788 E63.57937
G1 X112.339 Y95.467 E63.62572
G1 X111.714 Y96.055 E63.66853
G1 X110.978 Y96.662 E63.71612
G1 X110.319 Y97.14 E63.75674
G1 X109.529 Y97.642 E63.80344
G1 X108.792 Y98.047 E63.84539
G1 X107.933 Y98.45 E63.89273
G1 X107.168 Y98.752 E63.93376
G1 X106.278 Y99.041 E63.98045
