;FLAVOR:RepRap
;TIME:2026
;Filament used: 2.10189m
;Layer height: 0.2
;Generated with Cura_SteamEngine 2.4.0
M190 S50
M104 S195
M109 S195
G28 ;Home
G1 Z15.0 F6000 ;Move the platform down 15mm
;Prime the extruder
G92 E0
G1 F200 E3
G92 E0
;LAYER_COUNT:45
;LAYER:0
M107
G1 F1500 E-6.5
G0 F3600 X8.188 Y44.791 Z0.3
;TYPE:SKIRT
G1 F1500 E0
G1 F1800 X8.973 Y44.71 E0.03937
G1 X9.375 Y44.7 E0.05943
G1 X44.7 Y44.7 E1.82181
G1 X44.7 Y26.25 E2.74228
G1 X44.74 Y25.461 E2.78169
G1 X44.859 Y24.681 E2.82106
G1 X45.057 Y23.916 E2.86048
G1 X45.331 Y23.176 E2.89985
G1 X45.679 Y22.467 E2.93925
G1 X46.097 Y21.796 E2.97869
G1 X46.58 Y21.172 E3.01806
G1 X47.123 Y20.599 E3.05745
G1 X47.722 Y20.084 E3.09686
G1 X48.37 Y19.633 E3.13624
G1 X49.061 Y19.249 E3.17568
G1 X49.786 Y18.937 E3.21506
G1 X50.539 Y18.7 E3.25445
G1 X51.313 Y18.541 E3.29387
G1 X52.098 Y18.46 E3.33324
G1 X52.5 Y18.45 E3.3533
G1 X67.5 Y18.45 E4.10165
G1 X68.289 Y18.49 E4.14107
G1 X69.069 Y18.609 E4.18043
G1 X69.834 Y18.807 E4.21986
G1 X70.574 Y19.081 E4.25922
G1 X71.283 Y19.429 E4.29863
G1 X71.954 Y19.847 E4.33807
G1 X72.578 Y20.33 E4.37744
G1 X73.151 Y20.873 E4.41682
G1 X73.666 Y21.472 E4.45623
G1 X74.117 Y22.12 E4.49562
G1 X74.501 Y22.811 E4.53506
G1 X74.813 Y23.536 E4.57444
G1 X75.05 Y24.289 E4.61382
G1 X75.209 Y25.063 E4.65324
G1 X75.29 Y25.848 E4.69261
G1 X75.3 Y26.25 E4.71268
G1 X75.3 Y44.7 E5.63315
G1 X110.625 Y44.7 E7.39552
G1 X111.414 Y44.74 E7.43494
G1 X112.194 Y44.859 E7.4743
G1 X112.959 Y45.057 E7.51372
G1 X113.699 Y45.331 E7.55309
G1 X114.408 Y45.679 E7.5925
G1 X115.079 Y46.097 E7.63194
G1 X115.703 Y46.58 E7.6713
G1 X116.276 Y47.123 E7.71069
G1 X116.791 Y47.722 E7.7501
G1 X117.242 Y48.37 E7.78949
G1 X117.626 Y49.061 E7.82893
G1 X117.938 Y49.786 E7.8683
G1 X118.175 Y50.539 E7.90769
G1 X118.334 Y51.313 E7.94711
G1 X118.415 Y52.098 E7.98648
G1 X118.425 Y52.5 E8.00654
G1 X118.425 Y67.5 E8.7549
G1 X118.385 Y68.289 E8.79431
G1 X118.266 Y69.069 E8.83368
G1 X118.068 Y69.834 E8.8731
G1 X117.794 Y70.574 E8.91247
G1 X117.446 Y71.283 E8.95187
G1 X117.028 Y71.954 E8.99131
G1 X116.545 Y72.578 E9.03068
G1 X116.002 Y73.151 E9.07006
G1 X115.403 Y73.666 E9.10947
G1 X114.755 Y74.117 E9.14886
G1 X114.064 Y74.501 E9.1883
G1 X113.339 Y74.813 E9.22768
G1 X112.586 Y75.05 E9.26706
G1 X111.812 Y75.209 E9.30649
G1 X111.027 Y75.29 E9.34586
G1 X110.625 Y75.3 E9.36592
G1 X75.3 Y75.3 E11.12829
G1 X75.3 Y93.75 E12.04876
G1 X75.26 Y94.539 E12.08818
G1 X75.141 Y95.319 E12.12754
G1 X74.943 Y96.084 E12.16697
G1 X74.669 Y96.824 E12.20634
G1 X74.321 Y97.533 E12.24574
G1 X73.903 Y98.204 E12.28518
G1 X73.42 Y98.828 E12.32455
G1 X72.877 Y99.401 E12.36393
G1 X72.278 Y99.916 E12.40334
G1 X71.63 Y100.367 E12.44273
G1 X70.939 Y100.751 E12.48217
G1 X70.214 Y101.063 E12.52155
G1 X69.461 Y101.3 E12.56093
G1 X68.687 Y101.459 E12.60035
G1 X67.902 Y101.54 E12.63972
G1 X67.5 Y101.55 E12.65979
G1 X52.5 Y101.55 E13.40814
G1 X51.711 Y101.51 E13.44755
G1 X50.931 Y101.391 E13.48692
G1 X50.166 Y101.193 E13.52634
G1 X49.426 Y100.919 E13.56571
G1 X48.717 Y100.571 E13.60511
G1 X48.046 Y100.153 E13.64455
G1 X47.422 Y99.67 E13.68392
G1 X46.849 Y99.127 E13.72331
G1 X46.334 Y98.528 E13.76272
G1 X45.883 Y97.88 E13.80211
G1 X45.499 Y97.189 E13.84155
G1 X45.187 Y96.464 E13.88092
G1 X44.95 Y95.711 E13.92031
G1 X44.791 Y94.937 E13.95973
G1 X44.71 Y94.152 E13.9991
G1 X44.7 Y93.75 E14.01916
G1 X44.7 Y75.3 E14.93964
G1 X9.375 Y75.3 E16.70201
G1 X8.586 Y75.26 E16.74142
G1 X7.806 Y75.141 E16.78079
G1 X7.041 Y74.943 E16.82021
G1 X6.301 Y74.669 E16.85958
G1 X5.592 Y74.321 E16.89898
G1 X4.921 Y73.903 E16.93842
G1 X4.297 Y73.42 E16.97779
G1 X3.724 Y72.877 E17.01717
G1 X3.209 Y72.278 E17.05658
G1 X2.758 Y71.63 E17.09597
G1 X2.374 Y70.939 E17.13541
G1 X2.062 Y70.214 E17.17479
G1 X1.825 Y69.461 E17.21417
G1 X1.666 Y68.687 E17.2536
G1 X1.585 Y67.902 E17.29297
G1 X1.575 Y67.5 E17.31303
G1 X1.575 Y52.5 E18.06138
G1 X1.615 Y51.711 E18.1008
G1 X1.734 Y50.931 E18.14016
G1 X1.932 Y50.166 E18.17958
G1 X2.206 Y49.426 E18.21895
G1 X2.554 Y48.717 E18.25836
G1 X2.972 Y48.046 E18.2978
G1 X3.455 Y47.422 E18.33716
G1 X3.998 Y46.849 E18.37655
G1 X4.597 Y46.334 E18.41596
G1 X5.245 Y45.883 E18.45535
G1 X5.936 Y45.499 E18.49479
G1 X6.661 Y45.187 E18.53417
G1 X7.414 Y44.95 E18.57355
G1 X8.188 Y44.791 E18.61297
G0 F3600 X8.526 Y45.149
G1 F1800 X9.375 Y45.1 E18.6554
G1 X45.1 Y45.1 E20.43773
G1 X45.1 Y26.25 E21.37816
G1 X45.14 Y25.482 E21.41652
G1 X45.259 Y24.722 E21.4549
G1 X45.457 Y23.979 E21.49326
G1 X45.731 Y23.26 E21.53165
G1 X46.078 Y22.574 E21.57001
G1 X46.494 Y21.927 E21.60838
G1 X46.975 Y21.327 E21.64675
G1 X47.516 Y20.78 E21.68513
G1 X48.111 Y20.292 E21.72352
G1 X48.753 Y19.869 E21.76188
G1 X49.436 Y19.514 E21.80028
G1 X50.151 Y19.233 E21.83861
G1 X50.893 Y19.027 E21.87703
G1 X51.651 Y18.899 E21.91538
G1 X52.5 Y18.85 E21.95781
G1 X67.5 Y18.85 E22.70616
G1 X68.268 Y18.89 E22.74453
G1 X69.028 Y19.009 E22.78291
G1 X69.771 Y19.207 E22.82127
G1 X70.49 Y19.481 E22.85966
G1 X71.176 Y19.828 E22.89801
G1 X71.823 Y20.244 E22.93638
G1 X72.423 Y20.725 E22.97475
G1 X72.97 Y21.266 E23.01313
G1 X73.458 Y21.861 E23.05152
G1 X73.881 Y22.503 E23.08988
G1 X74.236 Y23.186 E23.12828
G1 X74.517 Y23.901 E23.16661
G1 X74.723 Y24.643 E23.20503
G1 X74.851 Y25.401 E23.24338
G1 X74.9 Y26.25 E23.28581
G1 X74.9 Y45.1 E24.22624
G1 X110.625 Y45.1 E26.00857
G1 X111.393 Y45.14 E26.04694
G1 X112.153 Y45.259 E26.08531
G1 X112.896 Y45.457 E26.12368
G1 X113.615 Y45.731 E26.16206
G1 X114.301 Y46.078 E26.20042
G1 X114.948 Y46.494 E26.23879
G1 X115.548 Y46.975 E26.27716
G1 X116.095 Y47.516 E26.31554
G1 X116.583 Y48.111 E26.35393
G1 X117.006 Y48.753 E26.39229
G1 X117.361 Y49.436 E26.43069
G1 X117.642 Y50.151 E26.46902
G1 X117.848 Y50.893 E26.50744
G1 X117.976 Y51.651 E26.54579
G1 X118.025 Y52.5 E26.58822
G1 X118.025 Y67.5 E27.33657
G1 X117.985 Y68.268 E27.37494
G1 X117.866 Y69.028 E27.41332
G1 X117.668 Y69.771 E27.45168
G1 X117.394 Y70.49 E27.49007
G1 X117.047 Y71.176 E27.52842
G1 X116.631 Y71.823 E27.5668
G1 X116.15 Y72.423 E27.60516
G1 X115.609 Y72.97 E27.64354
G1 X115.014 Y73.458 E27.68194
G1 X114.372 Y73.881 E27.72029
G1 X113.689 Y74.236 E27.7587
G1 X112.974 Y74.517 E27.79702
G1 X112.232 Y74.723 E27.83544
G1 X111.474 Y74.851 E27.87379
G1 X110.625 Y74.9 E27.91622
G1 X74.9 Y74.9 E29.69855
G1 X74.9 Y93.75 E30.63898
G1 X74.86 Y94.518 E30.67735
G1 X74.741 Y95.278 E30.71573
G1 X74.543 Y96.021 E30.75409
G1 X74.269 Y96.74 E30.79248
G1 X73.922 Y97.426 E30.83083
G1 X73.506 Y98.073 E30.86921
G1 X73.025 Y98.673 E30.90757
G1 X72.484 Y99.22 E30.94595
G1 X71.889 Y99.708 E30.98435
G1 X71.247 Y100.131 E31.0227
G1 X70.564 Y100.486 E31.0611
G1 X69.849 Y100.767 E31.09943
G1 X69.107 Y100.973 E31.13785
G1 X68.349 Y101.101 E31.1762
G1 X67.5 Y101.15 E31.21863
G1 X52.5 Y101.15 E31.96698
G1 X51.732 Y101.11 E32.00535
G1 X50.972 Y100.991 E32.04373
G1 X50.229 Y100.793 E32.08209
G1 X49.51 Y100.519 E32.12048
G1 X48.824 Y100.172 E32.15883
G1 X48.177 Y99.756 E32.19721
G1 X47.577 Y99.275 E32.23557
G1 X47.03 Y98.734 E32.27396
G1 X46.542 Y98.139 E32.31235
G1 X46.119 Y97.497 E32.35071
G1 X45.764 Y96.814 E32.38911
G1 X45.483 Y96.099 E32.42744
G1 X45.277 Y95.357 E32.46585
G1 X45.149 Y94.599 E32.50421
G1 X45.1 Y93.75 E32.54663
G1 X45.1 Y74.9 E33.48706
G1 X9.375 Y74.9 E35.26939
G1 X8.607 Y74.86 E35.30776
G1 X7.847 Y74.741 E35.34614
G1 X7.104 Y74.543 E35.3845
G1 X6.385 Y74.269 E35.42289
G1 X5.699 Y73.922 E35.46124
G1 X5.052 Y73.506 E35.49962
G1 X4.452 Y73.025 E35.53798
G1 X3.905 Y72.484 E35.57637
G1 X3.417 Y71.889 E35.61476
G1 X2.994 Y71.247 E35.65311
G1 X2.639 Y70.564 E35.69152
G1 X2.358 Y69.849 E35.72984
G1 X2.152 Y69.107 E35.76826
G1 X2.024 Y68.349 E35.80662
G1 X1.975 Y67.5 E35.84904
G1 X1.975 Y52.5 E36.5974
G1 X2.015 Y51.732 E36.63576
G1 X2.134 Y50.972 E36.67414
G1 X2.332 Y50.229 E36.7125
G1 X2.606 Y49.51 E36.75089
G1 X2.953 Y48.824 E36.78925
G1 X3.369 Y48.177 E36.82762
G1 X3.85 Y47.577 E36.86599
G1 X4.391 Y47.03 E36.90437
G1 X4.986 Y46.542 E36.94276
G1 X5.628 Y46.119 E36.98112
G1 X6.311 Y45.764 E37.01952
G1 X7.026 Y45.483 E37.05785
G1 X7.768 Y45.277 E37.09627
G1 X8.526 Y45.149 E37.13462
G0 F3600 X8.858 Y45.519
G1 F1800 X9.375 Y45.5 E37.16043
G1 X45.5 Y45.5 E38.96271
G1 X45.5 Y26.25 E39.9231
G1 X45.54 Y25.503 E39.96042
G1 X45.659 Y24.765 E39.99772
G1 X45.857 Y24.043 E40.03507
G1 X46.13 Y23.347 E40.07237
G1 X46.477 Y22.684 E40.1097
G1 X46.892 Y22.061 E40.14705
G1 X47.371 Y21.487 E40.18434
G1 X47.908 Y20.966 E40.22167
G1 X48.498 Y20.507 E40.25897
G1 X49.134 Y20.112 E40.29632
G1 X49.808 Y19.788 E40.33363
G1 X50.513 Y19.538 E40.37095
G1 X51.241 Y19.364 E40.40829
G1 X51.983 Y19.269 E40.44561
G1 X52.5 Y19.25 E40.47142
G1 X67.5 Y19.25 E41.21977
G1 X68.247 Y19.29 E41.25709
G1 X68.985 Y19.409 E41.29439
G1 X69.707 Y19.607 E41.33174
G1 X70.403 Y19.88 E41.36904
G1 X71.066 Y20.227 E41.40637
G1 X71.689 Y20.642 E41.44372
G1 X72.263 Y21.121 E41.48102
G1 X72.784 Y21.658 E41.51834
G1 X73.243 Y22.248 E41.55564
G1 X73.638 Y22.884 E41.59299
G1 X73.962 Y23.558 E41.6303
G1 X74.212 Y24.263 E41.66762
G1 X74.386 Y24.991 E41.70496
G1 X74.481 Y25.733 E41.74228
G1 X74.5 Y26.25 E41.76809
G1 X74.5 Y45.5 E42.72848
G1 X110.625 Y45.5 E44.53076
G1 X111.372 Y45.54 E44.56808
G1 X112.11 Y45.659 E44.60538
G1 X112.832 Y45.857 E44.64273
G1 X113.528 Y46.13 E44.68003
G1 X114.191 Y46.477 E44.71736
G1 X114.814 Y46.892 E44.75471
G1 X115.388 Y47.371 E44.79201
G1 X115.909 Y47.908 E44.82933
G1 X116.368 Y48.498 E44.86663
G1 X116.763 Y49.134 E44.90398
G1 X117.087 Y49.808 E44.94129
G1 X117.337 Y50.513 E44.97861
G1 X117.511 Y51.241 E45.01595
G1 X117.606 Y51.983 E45.05327
G1 X117.625 Y52.5 E45.07908
G1 X117.625 Y67.5 E45.82744
G1 X117.585 Y68.247 E45.86476
G1 X117.466 Y68.985 E45.90205
G1 X117.268 Y69.707 E45.9394
G1 X116.995 Y70.403 E45.9767
G1 X116.648 Y71.066 E46.01404
G1 X116.233 Y71.689 E46.05138
G1 X115.754 Y72.263 E46.08868
G1 X115.217 Y72.784 E46.12601
G1 X114.627 Y73.243 E46.1633
G1 X113.991 Y73.638 E46.20065
G1 X113.317 Y73.962 E46.23796
G1 X112.612 Y74.212 E46.27528
G1 X111.884 Y74.386 E46.31262
G1 X111.142 Y74.481 E46.34995
G1 X110.625 Y74.5 E46.37576
G1 X74.5 Y74.5 E48.17804
G1 X74.5 Y93.75 E49.13843
G1 X74.46 Y94.497 E49.17575
G1 X74.341 Y95.235 E49.21304
G1 X74.143 Y95.957 E49.25039
G1 X73.87 Y96.653 E49.28769
G1 X73.523 Y97.316 E49.32503
G1 X73.108 Y97.939 E49.36237
G1 X72.629 Y98.513 E49.39967
G1 X72.092 Y99.034 E49.437
G1 X71.502 Y99.493 E49.47429
G1 X70.866 Y99.888 E49.51164
G1 X70.192 Y100.212 E49.54895
G1 X69.487 Y100.462 E49.58627
G1 X68.759 Y100.636 E49.62361
G1 X68.017 Y100.731 E49.66094
G1 X67.5 Y100.75 E49.68675
G1 X52.5 Y100.75 E50.4351
G1 X51.753 Y100.71 E50.47242
G1 X51.015 Y100.591 E50.50971
G1 X50.293 Y100.393 E50.54707
G1 X49.597 Y100.12 E50.58436
G1 X48.934 Y99.773 E50.6217
G1 X48.311 Y99.358 E50.65904
G1 X47.737 Y98.879 E50.69634
G1 X47.216 Y98.342 E50.73367
G1 X46.757 Y97.752 E50.77096
G1 X46.362 Y97.116 E50.80832
G1 X46.038 Y96.442 E50.84563
G1 X45.788 Y95.737 E50.88294
G1 X45.614 Y95.009 E50.92029
G1 X45.519 Y94.267 E50.95761
G1 X45.5 Y93.75 E50.98342
G1 X45.5 Y74.5 E51.94381
G1 X9.375 Y74.5 E53.74609
G1 X8.628 Y74.46 E53.78341
G1 X7.89 Y74.341 E53.8207
G1 X7.168 Y74.143 E53.85806
G1 X6.472 Y73.87 E53.89535
G1 X5.809 Y73.523 E53.93269
G1 X5.186 Y73.108 E53.97003
G1 X4.612 Y72.629 E54.00733
G1 X4.091 Y72.092 E54.04466
G1 X3.632 Y71.502 E54.08195
G1 X3.237 Y70.866 E54.11931
G1 X2.913 Y70.192 E54.15662
G1 X2.663 Y69.487 E54.19393
G1 X2.489 Y68.759 E54.23128
G1 X2.394 Y68.017 E54.2686
G1 X2.375 Y67.5 E54.29441
G1 X2.375 Y52.5 E55.04276
G1 X2.415 Y51.753 E55.08008
G1 X2.534 Y51.015 E55.11738
G1 X2.732 Y50.293 E55.15473
G1 X3.005 Y49.597 E55.19203
G1 X3.352 Y48.934 E55.22936
G1 X3.767 Y48.311 E55.26671
G1 X4.246 Y47.737 E55.30401
G1 X4.783 Y47.216 E55.34133
G1 X5.373 Y46.757 E55.37863
G1 X6.009 Y46.362 E55.41598
G1 X6.683 Y46.038 E55.45329
G1 X7.388 Y45.788 E55.49061
G1 X8.116 Y45.614 E55.52795
G1 X8.858 Y45.519 E55.56527
G0 F3600 X9.375 Y45.9
G1 F1800 X45.9 Y45.9 E57.38751
G1 X45.9 Y26.25 E58.36785
G1 X45.94 Y25.525 E58.40408
G1 X46.059 Y24.808 E58.44034
G1 X46.257 Y24.109 E58.47658
G1 X46.53 Y23.436 E58.51282
G1 X46.875 Y22.797 E58.54905
G1 X47.289 Y22.2 E58.58529
G1 X47.765 Y21.652 E58.62151
G1 X48.299 Y21.159 E58.65777
G1 X48.884 Y20.729 E58.69399
G1 X49.513 Y20.365 E58.73024
G1 X50.178 Y20.072 E58.7665
G1 X50.871 Y19.854 E58.80274
G1 X51.583 Y19.714 E58.83895
G1 X52.5 Y19.65 E58.88481
G1 X67.5 Y19.65 E59.63316
G1 X68.225 Y19.69 E59.66938
G1 X68.942 Y19.809 E59.70564
G1 X69.641 Y20.007 E59.74189
G1 X70.314 Y20.28 E59.77812
G1 X70.953 Y20.625 E59.81435
G1 X71.55 Y21.039 E59.8506
G1 X72.098 Y21.515 E59.88681
G1 X72.591 Y22.049 E59.92307
G1 X73.021 Y22.634 E59.95929
G1 X73.385 Y23.263 E59.99555
G1 X73.678 Y23.928 E60.0318
G1 X73.896 Y24.621 E60.06805
G1 X74.036 Y25.333 E60.10425
G1 X74.1 Y26.25 E60.15011
G1 X74.1 Y45.9 E61.13045
G1 X110.625 Y45.9 E62.95269
G1 X111.35 Y45.94 E62.98892
G1 X112.067 Y46.059 E63.02518
G1 X112.766 Y46.257 E63.06142
G1 X113.439 Y46.53 E63.09766
G1 X114.078 Y46.875 E63.13389
G1 X114.675 Y47.289 E63.17013
G1 X115.223 Y47.765 E63.20635
G1 X115.716 Y48.299 E63.24261
G1 X116.146 Y48.884 E63.27883
G1 X116.51 Y49.513 E63.31508
G1 X116.803 Y50.178 E63.35134
G1 X117.021 Y50.871 E63.38758
G1 X117.161 Y51.583 E63.42379
G1 X117.225 Y52.5 E63.46965
G1 X117.225 Y67.5 E64.218
G1 X117.185 Y68.225 E64.25422
G1 X117.066 Y68.942 E64.29048
G1 X116.868 Y69.641 E64.32673
G1 X116.595 Y70.314 E64.36296
G1 X116.25 Y70.953 E64.39919
G1 X115.836 Y71.55 E64.43544
G1 X115.36 Y72.098 E64.47165
G1 X114.826 Y72.591 E64.50791
G1 X114.241 Y73.021 E64.54413
G1 X113.612 Y73.385 E64.58039
G1 X112.947 Y73.678 E64.61664
G1 X112.254 Y73.896 E64.65289
G1 X111.542 Y74.036 E64.68909
G1 X110.625 Y74.1 E64.73495
G1 X74.1 Y74.1 E66.55719
G1 X74.1 Y93.75 E67.53753
G1 X74.06 Y94.475 E67.57376
G1 X73.941 Y95.192 E67.61002
G1 X73.743 Y95.891 E67.64626
G1 X73.47 Y96.564 E67.6825
G1 X73.125 Y97.203 E67.71873
G1 X72.711 Y97.8 E67.75497
G1 X72.235 Y98.348 E67.79119
G1 X71.701 Y98.841 E67.82745
G1 X71.116 Y99.271 E67.86367
G1 X70.487 Y99.635 E67.89992
G1 X69.822 Y99.928 E67.93618
G1 X69.129 Y100.146 E67.97242
G1 X68.417 Y100.286 E68.00862
G1 X67.5 Y100.35 E68.05449
G1 X52.5 Y100.35 E68.80284
G1 X51.775 Y100.31 E68.83906
G1 X51.058 Y100.191 E68.87532
G1 X50.359 Y99.993 E68.91157
G1 X49.686 Y99.72 E68.9478
G1 X49.047 Y99.375 E68.98403
G1 X48.45 Y98.961 E69.02028
G1 X47.902 Y98.485 E69.05649
G1 X47.409 Y97.951 E69.09275
G1 X46.979 Y97.366 E69.12897
G1 X46.615 Y96.737 E69.16523
G1 X46.322 Y96.072 E69.20148
G1 X46.104 Y95.379 E69.23773
G1 X45.964 Y94.667 E69.27393
G1 X45.9 Y93.75 E69.31979
G1 X45.9 Y74.1 E70.30013
G1 X9.375 Y74.1 E72.12237
G1 X8.65 Y74.06 E72.1586
G1 X7.933 Y73.941 E72.19486
G1 X7.234 Y73.743 E72.2311
G1 X6.561 Y73.47 E72.26734
G1 X5.922 Y73.125 E72.30357
G1 X5.325 Y72.711 E72.33981
G1 X4.777 Y72.235 E72.37603
G1 X4.284 Y71.701 E72.41229
G1 X3.854 Y71.116 E72.44851
G1 X3.49 Y70.487 E72.48476
G1 X3.197 Y69.822 E72.52102
G1 X2.979 Y69.129 E72.55726
G1 X2.839 Y68.417 E72.59346
G1 X2.775 Y67.5 E72.63933
G1 X2.775 Y52.5 E73.38768
G1 X2.815 Y51.775 E73.4239
G1 X2.934 Y51.058 E73.46016
G1 X3.132 Y50.359 E73.49641
G1 X3.405 Y49.686 E73.53264
G1 X3.75 Y49.047 E73.56887
G1 X4.164 Y48.45 E73.60512
G1 X4.64 Y47.902 E73.64133
G1 X5.174 Y47.409 E73.67759
G1 X5.759 Y46.979 E73.71381
G1 X6.388 Y46.615 E73.75007
G1 X7.053 Y46.322 E73.78632
G1 X7.746 Y46.104 E73.82257
G1 X8.458 Y45.964 E73.85877
G1 X9.375 Y45.9 E73.90463
G0 F3600 X9.375 Y46.3
G1 F1800 X46.3 Y46.3 E75.74683
G1 X46.3 Y26.25 E76.74713
G1 X46.34 Y25.547 E76.78225
G1 X46.459 Y24.853 E76.81738
G1 X46.657 Y24.178 E76.85248
G1 X46.929 Y23.529 E76.88759
G1 X47.274 Y22.915 E76.92272
G1 X47.685 Y22.344 E76.95782
G1 X48.159 Y21.823 E76.99296
G1 X48.689 Y21.359 E77.02811
G1 X49.268 Y20.959 E77.06322
G1 X49.889 Y20.627 E77.09835
G1 X50.543 Y20.367 E77.13346
G1 X51.223 Y20.183 E77.1686
G1 X51.919 Y20.077 E77.20373
G1 X52.5 Y20.05 E77.23275
G1 X67.5 Y20.05 E77.9811
G1 X68.203 Y20.09 E78.01623
G1 X68.897 Y20.209 E78.05136
G1 X69.572 Y20.407 E78.08645
G1 X70.221 Y20.679 E78.12156
G1 X70.835 Y21.024 E78.1567
