;FLAVOR:RepRap
;TIME:3254
;Filament used: 2.60361m
;Layer height: 0.2
;Generated with Cura_SteamEngine 2.4.0
M190 S50
M104 S195
M109 S195
G28 ;Home
G1 Z15.0 F6000 ;Move the platform down 15mm
;Prime the extruder
G92 E0
G1 F200 E3
G92 E0
;LAYER_COUNT:75
;LAYER:0
M107
G1 F1500 E-6.5
G0 F3600 X35.353 Y44.847 Z0.3
;TYPE:SKIRT
G1 F1500 E0
G1 F1800 X35.983 Y44.371 E0.03939
G1 X36.47 Y44.066 E0.06806
G1 X37.454 Y43.499 E0.12472
G1 X38.157 Y43.14 E0.1641
G1 X38.674 Y42.93 E0.19194
G1 X39.74 Y42.541 E0.24856
G1 X40.495 Y42.308 E0.28798
G1 X41.058 Y42.187 E0.3167
G1 X42.163 Y41.992 E0.37269
G1 X42.628 Y41.934 E0.39606
G1 X42.813 Y41.669 E0.41219
G1 X43.298 Y41.045 E0.45162
G1 X43.692 Y40.622 E0.48046
G1 X44.481 Y39.833 E0.53613
G1 X45.067 Y39.303 E0.57554
G1 X45.524 Y38.957 E0.60414
G1 X46.463 Y38.3 E0.66132
G1 X47.132 Y37.881 E0.7007
G1 X47.642 Y37.62 E0.72928
G1 X48.664 Y37.144 E0.78553
G1 X49.396 Y36.848 E0.82492
G1 X49.937 Y36.681 E0.85317
G1 X51.03 Y36.388 E0.90962
G1 X51.802 Y36.222 E0.94902
G1 X52.374 Y36.151 E0.97778
G1 X53.501 Y36.053 E1.03421
G1 X54.29 Y36.025 E1.0736
G1 X54.853 Y36.053 E1.10173
G1 X55.98 Y36.151 E1.15816
G1 X56.762 Y36.259 E1.19755
G1 X57.322 Y36.388 E1.22622
G1 X58.416 Y36.681 E1.28272
G1 X59.167 Y36.923 E1.32209
G1 X59.693 Y37.145 E1.35057
G1 X59.98 Y37.279 E1.36637
G1 X60.407 Y37.105 E1.38938
G1 X61.483 Y36.714 E1.44649
G1 X62.238 Y36.482 E1.4859
G1 X62.786 Y36.365 E1.51385
G1 X63.892 Y36.169 E1.56989
G1 X64.675 Y36.07 E1.60927
G1 X65.253 Y36.049 E1.63812
G1 X66.393 Y36.049 E1.695
G1 X67.182 Y36.089 E1.73441
G1 X67.754 Y36.169 E1.76323
G1 X68.86 Y36.365 E1.81926
G1 X69.63 Y36.542 E1.85868
G1 X70.163 Y36.714 E1.88662
G1 X71.239 Y37.105 E1.94374
G1 X71.967 Y37.412 E1.98316
G1 X72.483 Y37.686 E2.01231
G1 X73.452 Y38.247 E2.06817
G1 X74.115 Y38.676 E2.10756
G1 X74.544 Y39.01 E2.13469
G1 X75.417 Y39.739 E2.19143
G1 X75.996 Y40.275 E2.2308
G1 X76.401 Y40.723 E2.26093
G1 X77.125 Y41.589 E2.31724
G1 X77.38 Y41.928 E2.3384
G1 X77.837 Y41.992 E2.36143
G1 X78.942 Y42.187 E2.41741
G1 X79.711 Y42.363 E2.45676
G1 X80.26 Y42.541 E2.48556
G1 X81.326 Y42.93 E2.54217
G1 X82.053 Y43.238 E2.58156
G1 X82.546 Y43.499 E2.60939
G1 X83.53 Y44.066 E2.66605
G1 X84.194 Y44.494 E2.70546
G1 X84.646 Y44.846 E2.73405
G1 X85.511 Y45.571 E2.79035
G1 X86.09 Y46.108 E2.82975
G1 X86.48 Y46.54 E2.85879
G1 X87.213 Y47.415 E2.91573
G1 X87.689 Y48.045 E2.95513
G1 X87.988 Y48.523 E2.98326
G1 X88.546 Y49.489 E3.03891
G1 X88.906 Y50.191 E3.07827
G1 X89.122 Y50.724 E3.10697
G1 X89.514 Y51.802 E3.16419
G1 X89.746 Y52.557 E3.2036
G1 X89.864 Y53.104 E3.23152
G1 X90.059 Y54.202 E3.28715
G1 X90.119 Y54.68 E3.31119
G1 X90.384 Y54.865 E3.32731
G1 X91.007 Y55.35 E3.3667
G1 X91.437 Y55.75 E3.396
G1 X92.228 Y56.543 E3.45188
G1 X92.757 Y57.129 E3.49127
G1 X93.096 Y57.578 E3.51933
G1 X93.747 Y58.508 E3.57597
G1 X94.167 Y59.177 E3.61538
G1 X94.425 Y59.681 E3.64363
G1 X94.904 Y60.707 E3.70012
G1 X95.201 Y61.439 E3.73953
G1 X95.37 Y61.986 E3.76809
G1 X95.663 Y63.078 E3.8245
G1 X95.828 Y63.85 E3.86388
G1 X95.899 Y64.417 E3.89239
G1 X95.998 Y65.545 E3.94889
G1 X96.027 Y66.334 E3.98827
G1 X95.998 Y66.908 E4.01695
G1 X95.899 Y68.037 E4.07349
G1 X95.79 Y68.82 E4.11293
G1 X95.663 Y69.374 E4.14129
G1 X95.371 Y70.464 E4.19759
G1 X95.129 Y71.216 E4.237
G1 X94.908 Y71.739 E4.26532
G1 X94.433 Y72.759 E4.32146
G1 X94.064 Y73.457 E4.36085
G1 X93.757 Y73.932 E4.38907
G1 X93.102 Y74.87 E4.44614
G1 X92.618 Y75.493 E4.4855
G1 X92.222 Y75.919 E4.51452
G1 X91.425 Y76.716 E4.57075
G1 X90.839 Y77.246 E4.61017
G1 X90.379 Y77.594 E4.63895
G1 X89.442 Y78.249 E4.69599
G1 X88.773 Y78.668 E4.73537
G1 X88.263 Y78.928 E4.76393
G1 X87.723 Y79.179 E4.79364
G1 X87.38 Y79.418 E4.81449
G1 X86.689 Y79.802 E4.85393
G1 X85.964 Y80.114 E4.89331
G1 X85.211 Y80.351 E4.93269
G1 X84.437 Y80.51 E4.97212
G1 X83.652 Y80.591 E5.01149
G1 X83.25 Y80.601 E5.03155
G1 X68.671 Y80.601 E5.7589
G1 X68.653 Y80.63 E5.7606
G1 X68.17 Y81.254 E5.79997
G1 X67.627 Y81.827 E5.83935
G1 X67.028 Y82.342 E5.87876
G1 X66.38 Y82.793 E5.91815
G1 X65.689 Y83.177 E5.95759
G1 X64.964 Y83.489 E5.99697
G1 X64.211 Y83.726 E6.03635
G1 X63.437 Y83.885 E6.07578
G1 X62.652 Y83.966 E6.11515
G1 X62.25 Y83.976 E6.13521
G1 X57.75 Y83.976 E6.35972
G1 X56.961 Y83.936 E6.39913
G1 X56.181 Y83.817 E6.43849
G1 X55.416 Y83.619 E6.47792
G1 X54.676 Y83.345 E6.51729
G1 X53.967 Y82.997 E6.55669
G1 X53.296 Y82.579 E6.59613
G1 X52.672 Y82.096 E6.6355
G1 X52.099 Y81.553 E6.67488
G1 X51.584 Y80.954 E6.71429
G1 X51.338 Y80.601 E6.73576
G1 X36.75 Y80.601 E7.46356
G1 X35.961 Y80.561 E7.50297
G1 X35.181 Y80.442 E7.54234
G1 X34.416 Y80.244 E7.58176
G1 X33.676 Y79.97 E7.62113
G1 X32.967 Y79.622 E7.66053
G1 X32.296 Y79.204 E7.69997
G1 X32.244 Y79.164 E7.70324
G1 X31.737 Y78.928 E7.73114
G1 X31.039 Y78.559 E7.77053
G1 X30.558 Y78.249 E7.79908
G1 X29.621 Y77.594 E7.85612
G1 X28.998 Y77.109 E7.89551
G1 X28.575 Y76.716 E7.92432
G1 X27.778 Y75.919 E7.98055
G1 X27.248 Y75.333 E8.01997
G1 X26.898 Y74.87 E8.04892
G1 X26.243 Y73.932 E8.106
G1 X25.824 Y73.262 E8.14543
G1 X25.567 Y72.759 E8.17361
G1 X25.092 Y71.739 E8.22974
G1 X24.795 Y71.007 E8.26915
G1 X24.629 Y70.464 E8.29748
G1 X24.337 Y69.374 E8.35378
G1 X24.171 Y68.602 E8.39318
G1 X24.101 Y68.039 E8.42148
G1 X24.002 Y66.912 E8.47792
G1 X23.973 Y66.122 E8.51736
G1 X24.002 Y65.548 E8.54604
G1 X24.101 Y64.419 E8.60258
G1 X24.21 Y63.636 E8.64202
G1 X24.336 Y63.083 E8.67031
G1 X24.628 Y61.992 E8.72666
G1 X24.871 Y61.241 E8.76604
G1 X25.095 Y60.709 E8.79484
G1 X25.574 Y59.683 E8.85133
G1 X25.944 Y58.986 E8.8907
G1 X26.25 Y58.513 E8.91881
G1 X26.901 Y57.582 E8.97548
G1 X27.385 Y56.959 E9.01484
G1 X27.771 Y56.544 E9.04312
G1 X28.562 Y55.751 E9.099
G1 X29.147 Y55.22 E9.13841
G1 X29.612 Y54.868 E9.16751
G1 X29.874 Y54.685 E9.18345
G1 X29.941 Y54.207 E9.20753
G1 X30.136 Y53.107 E9.26327
G1 X30.313 Y52.337 E9.30269
G1 X30.486 Y51.802 E9.33074
G1 X30.878 Y50.724 E9.38797
G1 X31.185 Y49.997 E9.42734
G1 X31.453 Y49.491 E9.4559
G1 X32.01 Y48.526 E9.51149
G1 X32.438 Y47.863 E9.55086
G1 X32.786 Y47.416 E9.57912
G1 X33.519 Y46.541 E9.63607
G1 X34.056 Y45.962 E9.67547
G1 X34.487 Y45.573 E9.70444
G1 X35.353 Y44.847 E9.76081
G0 F3600 X35.61 Y45.153
G1 F1800 X36.224 Y44.69 E9.79918
G1 X36.669 Y44.412 E9.82536
G1 X37.653 Y43.845 E9.88202
G1 X38.339 Y43.496 E9.92042
G1 X38.811 Y43.305 E9.94582
G1 X39.877 Y42.916 E10.00243
G1 X40.613 Y42.691 E10.04083
G1 X41.128 Y42.581 E10.0671
G1 X42.233 Y42.386 E10.12308
G1 X42.854 Y42.309 E10.1543
G1 X43.141 Y41.898 E10.17931
G1 X43.614 Y41.291 E10.2177
G1 X43.974 Y40.904 E10.24407
G1 X44.763 Y40.115 E10.29974
G1 X45.335 Y39.601 E10.33811
G1 X45.754 Y39.285 E10.36429
G1 X46.693 Y38.628 E10.42146
G1 X47.345 Y38.22 E10.45984
G1 X47.811 Y37.983 E10.48592
G1 X48.833 Y37.507 E10.54217
G1 X49.546 Y37.219 E10.58053
G1 X50.041 Y37.067 E10.60636
G1 X51.134 Y36.774 E10.66282
G1 X51.886 Y36.614 E10.70118
G1 X52.409 Y36.55 E10.72746
G1 X53.536 Y36.452 E10.7839
G1 X54.305 Y36.425 E10.82229
G1 X54.818 Y36.452 E10.84792
G1 X55.945 Y36.55 E10.90436
G1 X56.707 Y36.656 E10.94274
G1 X57.218 Y36.774 E10.96891
G1 X58.312 Y37.067 E11.02541
G1 X59.044 Y37.304 E11.0638
G1 X59.524 Y37.508 E11.08982
G1 X59.976 Y37.719 E11.1147
G1 X60.051 Y37.68 E11.11892
G1 X60.544 Y37.481 E11.14544
G1 X61.62 Y37.09 E11.20256
G1 X62.355 Y36.865 E11.24091
G1 X62.856 Y36.759 E11.26646
G1 X63.962 Y36.563 E11.3225
G1 X64.725 Y36.468 E11.36086
G1 X65.253 Y36.449 E11.38722
G1 X66.393 Y36.449 E11.44409
G1 X67.161 Y36.489 E11.48246
G1 X67.684 Y36.563 E11.50881
G1 X68.79 Y36.759 E11.56485
G1 X69.54 Y36.932 E11.60325
G1 X70.026 Y37.09 E11.62874
G1 X71.102 Y37.481 E11.68586
G1 X71.811 Y37.781 E11.72427
G1 X72.283 Y38.032 E11.75094
G1 X73.252 Y38.593 E11.8068
G1 X73.896 Y39.012 E11.84513
G1 X74.287 Y39.317 E11.86987
G1 X75.16 Y40.046 E11.92661
G1 X75.724 Y40.569 E11.96499
G1 X76.094 Y40.98 E11.99258
G1 X76.818 Y41.846 E12.04889
G1 X77.166 Y42.309 E12.07779
G1 X77.249 Y42.313 E12.08194
G1 X77.767 Y42.386 E12.10803
G1 X78.872 Y42.581 E12.16401
G1 X79.621 Y42.753 E12.20235
G1 X80.123 Y42.916 E12.22869
G1 X81.189 Y43.305 E12.2853
G1 X81.897 Y43.606 E12.32368
G1 X82.347 Y43.845 E12.3491
G1 X83.331 Y44.412 E12.40576
G1 X83.976 Y44.83 E12.44411
G1 X84.389 Y45.153 E12.47026
G1 X85.254 Y45.878 E12.52657
G1 X85.817 Y46.402 E12.56494
G1 X86.174 Y46.797 E12.59151
G1 X86.907 Y47.672 E12.64845
G1 X87.369 Y48.286 E12.68679
G1 X87.642 Y48.723 E12.7125
G1 X88.2 Y49.689 E12.76815
G1 X88.549 Y50.374 E12.80651
G1 X88.746 Y50.861 E12.83272
G1 X89.138 Y51.939 E12.88994
G1 X89.363 Y52.675 E12.92834
G1 X89.47 Y53.174 E12.9538
G1 X89.665 Y54.272 E13.00944
G1 X89.744 Y54.906 E13.04131
G1 X90.155 Y55.193 E13.06632
G1 X90.761 Y55.666 E13.10468
G1 X91.154 Y56.032 E13.13147
G1 X91.945 Y56.825 E13.18735
G1 X92.459 Y57.397 E13.22572
G1 X92.768 Y57.807 E13.25133
G1 X93.419 Y58.737 E13.30796
G1 X93.827 Y59.39 E13.34638
G1 X94.062 Y59.851 E13.37219
G1 X94.541 Y60.877 E13.42869
G1 X94.83 Y61.589 E13.46702
G1 X94.983 Y62.089 E13.49311
G1 X95.276 Y63.181 E13.54952
G1 X95.437 Y63.934 E13.58793
G1 X95.501 Y64.452 E13.61397
G1 X95.6 Y65.58 E13.67046
G1 X95.627 Y66.349 E13.70885
G1 X95.6 Y66.873 E13.73503
G1 X95.501 Y68.002 E13.79157
G1 X95.394 Y68.764 E13.82996
G1 X95.277 Y69.271 E13.85592
G1 X94.985 Y70.361 E13.91222
G1 X94.748 Y71.092 E13.95056
G1 X94.545 Y71.57 E13.97647
G1 X94.07 Y72.59 E14.0326
G1 X93.71 Y73.269 E14.07094
G1 X93.429 Y73.703 E14.09674
G1 X92.774 Y74.641 E14.15382
G1 X92.302 Y75.248 E14.19218
G1 X91.94 Y75.637 E14.21869
G1 X91.143 Y76.434 E14.27492
G1 X90.571 Y76.948 E14.31329
G1 X90.15 Y77.266 E14.33961
G1 X89.213 Y77.921 E14.39665
G1 X88.56 Y78.328 E14.43503
G1 X88.094 Y78.565 E14.46112
G1 X87.548 Y78.819 E14.49116
G1 X86.997 Y79.182 E14.52408
G1 X86.314 Y79.537 E14.56248
G1 X85.599 Y79.818 E14.60081
G1 X84.857 Y80.024 E14.63923
G1 X84.099 Y80.152 E14.67758
G1 X83.25 Y80.201 E14.72001
G1 X68.448 Y80.201 E15.45848
G1 X68.256 Y80.499 E15.47617
G1 X67.775 Y81.099 E15.51453
G1 X67.234 Y81.646 E15.55292
G1 X66.639 Y82.134 E15.59131
G1 X65.997 Y82.557 E15.62967
G1 X65.314 Y82.912 E15.66807
G1 X64.599 Y83.193 E15.7064
G1 X63.857 Y83.399 E15.74481
G1 X63.099 Y83.527 E15.78317
G1 X62.25 Y83.576 E15.82559
G1 X57.75 Y83.576 E16.0501
G1 X56.982 Y83.536 E16.08847
G1 X56.222 Y83.417 E16.12685
G1 X55.479 Y83.219 E16.16521
G1 X54.76 Y82.945 E16.2036
G1 X54.074 Y82.598 E16.24195
G1 X53.427 Y82.182 E16.28032
G1 X52.827 Y81.701 E16.31869
G1 X52.28 Y81.16 E16.35707
G1 X51.792 Y80.565 E16.39546
G1 X51.552 Y80.201 E16.41722
G1 X36.75 Y80.201 E17.15569
G1 X35.982 Y80.161 E17.19406
G1 X35.222 Y80.042 E17.23244
G1 X34.479 Y79.844 E17.2708
G1 X33.76 Y79.57 E17.30919
G1 X33.074 Y79.223 E17.34754
G1 X32.429 Y78.808 E17.38581
G1 X31.906 Y78.565 E17.41458
G1 X31.226 Y78.205 E17.45296
G1 X30.787 Y77.921 E17.47905
G1 X29.85 Y77.266 E17.53609
G1 X29.244 Y76.793 E17.57444
G1 X28.857 Y76.434 E17.60077
G1 X28.06 Y75.637 E17.65701
G1 X27.546 Y75.065 E17.69537
G1 X27.226 Y74.641 E17.72187
G1 X26.571 Y73.703 E17.77895
G1 X26.164 Y73.05 E17.81734
G1 X25.93 Y72.59 E17.84309
G1 X25.455 Y71.57 E17.89922
G1 X25.167 Y70.857 E17.93759
G1 X25.015 Y70.361 E17.96347
G1 X24.723 Y69.271 E18.01977
G1 X24.563 Y68.519 E18.05812
G1 X24.499 Y68.004 E18.08401
G1 X24.4 Y66.877 E18.14046
G1 X24.373 Y66.108 E18.17885
G1 X24.4 Y65.583 E18.20507
G1 X24.499 Y64.454 E18.26162
G1 X24.606 Y63.692 E18.30001
G1 X24.723 Y63.187 E18.32587
G1 X25.015 Y62.096 E18.38221
G1 X25.252 Y61.364 E18.4206
G1 X25.458 Y60.879 E18.44689
G1 X25.937 Y59.853 E18.50338
G1 X26.298 Y59.173 E18.54179
G1 X26.578 Y58.742 E18.56743
G1 X27.229 Y57.811 E18.62411
G1 X27.701 Y57.205 E18.66243
G1 X28.054 Y56.826 E18.68827
G1 X28.845 Y56.033 E18.74415
G1 X29.416 Y55.517 E18.78254
G1 X29.841 Y55.196 E18.80912
G1 X30.255 Y54.906 E18.83433
G1 X30.261 Y54.8 E18.83963
G1 X30.335 Y54.276 E18.86603
G1 X30.53 Y53.176 E18.92177
G1 X30.703 Y52.427 E18.96012
G1 X30.862 Y51.939 E18.98573
G1 X31.254 Y50.861 E19.04295
G1 X31.554 Y50.153 E19.08132
G1 X31.799 Y49.691 E19.1074
G1 X32.356 Y48.726 E19.16299
G1 X32.775 Y48.08 E19.20141
G1 X33.092 Y47.673 E19.22715
G1 X33.825 Y46.798 E19.28409
G1 X34.349 Y46.235 E19.32246
G1 X34.744 Y45.879 E19.34899
G1 X35.61 Y45.153 E19.40537
G0 F3600 X35.867 Y45.46
G1 F1800 X36.465 Y45.01 E19.44271
G1 X36.869 Y44.759 E19.46644
G1 X37.853 Y44.192 E19.5231
G1 X38.52 Y43.854 E19.5604
G1 X38.948 Y43.681 E19.58343
G1 X40.014 Y43.292 E19.64005
G1 X40.73 Y43.074 E19.67739
G1 X41.198 Y42.975 E19.70125
G1 X42.303 Y42.78 E19.75723
G1 X43.045 Y42.689 E19.79453
G1 X43.077 Y42.688 E19.79613
G1 X43.469 Y42.127 E19.83027
G1 X43.93 Y41.538 E19.86759
G1 X44.257 Y41.187 E19.89152
G1 X45.046 Y40.398 E19.94719
G1 X45.603 Y39.898 E19.98453
G1 X45.983 Y39.613 E20.00823
G1 X46.922 Y38.956 E20.0654
G1 X47.557 Y38.56 E20.10274
G1 X47.98 Y38.345 E20.12641
G1 X49.002 Y37.869 E20.18266
G1 X49.696 Y37.59 E20.21998
G1 X50.145 Y37.454 E20.24338
G1 X51.238 Y37.161 E20.29984
G1 X51.969 Y37.006 E20.33712
G1 X52.444 Y36.948 E20.36099
G1 X53.571 Y36.85 E20.41743
G1 X54.318 Y36.825 E20.45472
G1 X54.783 Y36.85 E20.47795
G1 X55.91 Y36.948 E20.53439
G1 X56.651 Y37.053 E20.57173
G1 X57.115 Y37.16 E20.59549
G1 X58.209 Y37.453 E20.65199
G1 X58.92 Y37.685 E20.6893
G1 X59.355 Y37.87 E20.71289
G1 X59.984 Y38.163 E20.7475
G1 X60.233 Y38.037 E20.76143
G1 X60.68 Y37.857 E20.78547
G1 X61.756 Y37.466 E20.84258
G1 X62.472 Y37.248 E20.87992
G1 X62.926 Y37.152 E20.90308
G1 X64.032 Y36.956 E20.95911
G1 X64.774 Y36.865 E20.99641
G1 X65.253 Y36.849 E21.02032
G1 X66.393 Y36.849 E21.07719
G1 X67.14 Y36.889 E21.11452
G1 X67.614 Y36.956 E21.1384
G1 X68.72 Y37.152 E21.19444
G1 X69.449 Y37.322 E21.23178
G1 X69.89 Y37.466 E21.25493
G1 X70.966 Y37.857 E21.31204
G1 X71.654 Y38.15 E21.34935
G1 X72.082 Y38.378 E21.37355
G1 X73.051 Y38.939 E21.42941
G1 X73.678 Y39.348 E21.46675
G1 X74.031 Y39.624 E21.48911
G1 X74.904 Y40.353 E21.54585
G1 X75.451 Y40.862 E21.58313
G1 X75.787 Y41.236 E21.60821
G1 X76.511 Y42.102 E21.66453
G1 X76.958 Y42.699 E21.70174
G1 X77.228 Y42.713 E21.71522
G1 X77.697 Y42.78 E21.73886
G1 X78.802 Y42.975 E21.79484
G1 X79.531 Y43.144 E21.83218
G1 X79.986 Y43.292 E21.85605
G1 X81.052 Y43.681 E21.91266
G1 X81.74 Y43.975 E21.94999
G1 X82.147 Y44.192 E21.973
G1 X83.131 Y44.759 E22.02966
G1 X83.758 Y45.166 E22.06695
G1 X84.133 Y45.459 E22.09069
G1 X84.998 Y46.184 E22.147
G1 X85.544 Y46.695 E22.18431
G1 X85.867 Y47.054 E22.2084
G1 X86.6 Y47.929 E22.26535
G1 X87.049 Y48.527 E22.30266
G1 X87.295 Y48.923 E22.32592
G1 X87.853 Y49.889 E22.38157
G1 X88.192 Y50.556 E22.4189
G1 X88.371 Y50.998 E22.44269
G1 X88.763 Y52.076 E22.49992
G1 X88.98 Y52.791 E22.5372
G1 X89.076 Y53.244 E22.5603
G1 X89.271 Y54.342 E22.61594
G1 X89.362 Y55.084 E22.65323
G1 X89.364 Y55.128 E22.65543
G1 X89.926 Y55.521 E22.68964
G1 X90.515 Y55.982 E22.72696
G1 X90.871 Y56.315 E22.75128
G1 X91.662 Y57.108 E22.80716
G1 X92.161 Y57.665 E22.84447
G1 X92.441 Y58.037 E22.8677
G1 X93.092 Y58.967 E22.92433
G1 X93.487 Y59.602 E22.96164
G1 X93.7 Y60.02 E22.98505
G1 X94.179 Y61.046 E23.04154
G1 X94.459 Y61.74 E23.07887
G1 X94.597 Y62.193 E23.1025
G1 X94.89 Y63.285 E23.15891
G1 X95.045 Y64.017 E23.19624
G1 X95.102 Y64.487 E23.21986
G1 X95.201 Y65.615 E23.27635
G1 X95.227 Y66.363 E23.31369
G1 X95.201 Y66.838 E23.33742
G1 X95.102 Y67.967 E23.39397
G1 X94.997 Y68.708 E23.4313
G1 X94.891 Y69.167 E23.45481
G1 X94.599 Y70.257 E23.5111
G1 X94.367 Y70.969 E23.54846
G1 X94.183 Y71.401 E23.57189
G1 X93.708 Y72.421 E23.62803
G1 X93.356 Y73.081 E23.66534
G1 X93.101 Y73.474 E23.68872
G1 X92.446 Y74.412 E23.74579
G1 X91.986 Y75.001 E23.78308
G1 X91.657 Y75.354 E23.80715
G1 X90.86 Y76.151 E23.86338
G1 X90.303 Y76.651 E23.90073
G1 X89.921 Y76.938 E23.92457
G1 X88.984 Y77.593 E23.9816
G1 X88.348 Y77.988 E24.01895
G1 X87.926 Y78.203 E24.04258
G1 X87.34 Y78.476 E24.07483
G1 X87.252 Y78.544 E24.08038
G1 X86.616 Y78.939 E24.11773
G1 X85.942 Y79.263 E24.15504
G1 X85.237 Y79.513 E24.19236
G1 X84.509 Y79.687 E24.22971
G1 X83.767 Y79.782 E24.26703
G1 X83.25 Y79.801 E24.29284
G1 X68.234 Y79.801 E25.04199
G1 X67.858 Y80.365 E25.07581
G1 X67.379 Y80.939 E25.1131
