;FLAVOR:RepRap
;TIME:7705
;Filament used: 8.36641m
;Layer height: 0.2
;Generated with Cura_SteamEngine 2.4.0
M190 S50
M104 S205
M109 S205
G28 ;Home
G1 Z15.0 F6000 ;Move the platform down 15mm
;Prime the extruder
G92 E0
G1 F200 E3
G92 E0
;LAYER_COUNT:74
;LAYER:0
M107
G1 F1500 E-6.5
G0 F3600 X33.229 Y20.566 Z0.3
;TYPE:SKIRT
G1 F1500 E0
G1 F1800 X33.647 Y19.895 E0.03944
G1 X34.13 Y19.271 E0.07881
G1 X34.673 Y18.698 E0.11819
G1 X35.272 Y18.183 E0.1576
G1 X35.92 Y17.732 E0.19699
G1 X36.611 Y17.348 E0.23643
G1 X37.336 Y17.036 E0.27581
G1 X38.089 Y16.799 E0.31519
G1 X38.863 Y16.64 E0.35461
G1 X39.648 Y16.559 E0.39399
G1 X40.05 Y16.549 E0.41405
G1 X79.95 Y16.55 E2.40467
G1 X80.739 Y16.59 E2.44408
G1 X81.519 Y16.71 E2.48345
G1 X82.284 Y16.907 E2.52286
G1 X83.025 Y17.182 E2.5623
G1 X83.734 Y17.529 E2.60168
G1 X84.404 Y17.947 E2.64108
G1 X85.028 Y18.43 E2.68044
G1 X85.601 Y18.974 E2.71986
G1 X86.116 Y19.573 E2.75927
G1 X86.567 Y20.22 E2.79862
G1 X86.951 Y20.911 E2.83806
G1 X87.263 Y21.636 E2.87744
G1 X87.5 Y22.39 E2.91687
G1 X87.659 Y23.163 E2.95624
G1 X87.74 Y23.948 E2.99561
G1 X87.75 Y24.35 E3.01568
G1 X87.75 Y97.45 E6.66265
G1 X87.71 Y98.239 E6.70206
G1 X87.591 Y99.019 E6.74143
G1 X87.393 Y99.784 E6.78085
G1 X87.119 Y100.524 E6.82022
G1 X86.771 Y101.233 E6.85962
G1 X86.353 Y101.904 E6.89906
G1 X85.87 Y102.528 E6.93843
G1 X85.327 Y103.101 E6.97782
G1 X84.728 Y103.616 E7.01723
G1 X84.08 Y104.067 E7.05662
G1 X83.389 Y104.451 E7.09606
G1 X82.664 Y104.763 E7.13543
G1 X81.911 Y105 E7.17482
G1 X81.137 Y105.159 E7.21424
G1 X80.352 Y105.24 E7.25361
G1 X79.95 Y105.25 E7.27367
G1 X40.05 Y105.25 E9.26429
G1 X39.261 Y105.21 E9.30371
G1 X38.481 Y105.091 E9.34307
G1 X37.716 Y104.893 E9.38249
G1 X36.976 Y104.619 E9.42186
G1 X36.267 Y104.271 E9.46127
G1 X35.596 Y103.853 E9.50071
G1 X34.972 Y103.37 E9.54007
G1 X34.399 Y102.827 E9.57946
G1 X33.884 Y102.228 E9.61887
G1 X33.433 Y101.58 E9.65826
G1 X33.049 Y100.889 E9.6977
G1 X32.737 Y100.164 E9.73707
G1 X32.5 Y99.411 E9.77646
G1 X32.341 Y98.637 E9.81588
G1 X32.26 Y97.852 E9.85525
G1 X32.25 Y97.45 E9.87531
G1 X32.25 Y24.349 E13.52234
G1 X32.29 Y23.56 E13.56175
G1 X32.409 Y22.78 E13.60112
G1 X32.607 Y22.015 E13.64054
G1 X32.881 Y21.275 E13.67991
G1 X33.229 Y20.566 E13.71931
G0 F3600 X33.628 Y20.673
G1 F1800 X34.044 Y20.026 E13.75769
G1 X34.525 Y19.426 E13.79605
G1 X35.066 Y18.879 E13.83443
G1 X35.661 Y18.391 E13.87283
G1 X36.303 Y17.968 E13.91118
G1 X36.986 Y17.613 E13.94959
G1 X37.701 Y17.332 E13.98791
G1 X38.443 Y17.126 E14.02633
G1 X39.201 Y16.998 E14.06468
G1 X40.05 Y16.949 E14.10711
G1 X79.95 Y16.95 E16.09773
G1 X80.718 Y16.99 E16.1361
G1 X81.478 Y17.109 E16.17448
G1 X82.221 Y17.307 E16.21284
G1 X82.94 Y17.581 E16.25123
G1 X83.627 Y17.928 E16.28962
G1 X84.273 Y18.344 E16.32796
G1 X84.873 Y18.826 E16.36636
G1 X85.42 Y19.366 E16.4047
G1 X85.908 Y19.961 E16.44309
G1 X86.331 Y20.603 E16.48145
G1 X86.686 Y21.286 E16.51985
G1 X86.967 Y22.002 E16.55823
G1 X87.173 Y22.743 E16.5966
G1 X87.301 Y23.501 E16.63495
G1 X87.35 Y24.35 E16.67738
G1 X87.35 Y97.45 E20.32435
G1 X87.31 Y98.218 E20.36272
G1 X87.191 Y98.978 E20.4011
G1 X86.993 Y99.721 E20.43946
G1 X86.719 Y100.44 E20.47785
G1 X86.372 Y101.126 E20.5162
G1 X85.956 Y101.773 E20.55458
G1 X85.475 Y102.373 E20.59294
G1 X84.934 Y102.92 E20.63133
G1 X84.339 Y103.408 E20.66972
G1 X83.697 Y103.831 E20.70807
G1 X83.014 Y104.186 E20.74648
G1 X82.299 Y104.467 E20.7848
G1 X81.557 Y104.673 E20.82322
G1 X80.799 Y104.801 E20.86158
G1 X79.95 Y104.85 E20.904
G1 X40.05 Y104.85 E22.89462
G1 X39.282 Y104.81 E22.93299
G1 X38.522 Y104.691 E22.97137
G1 X37.779 Y104.493 E23.00973
G1 X37.06 Y104.219 E23.04812
G1 X36.374 Y103.872 E23.08647
G1 X35.727 Y103.456 E23.12485
G1 X35.127 Y102.975 E23.16321
G1 X34.58 Y102.434 E23.2016
G1 X34.092 Y101.839 E23.23999
G1 X33.669 Y101.197 E23.27834
G1 X33.314 Y100.514 E23.31675
G1 X33.033 Y99.799 E23.35507
G1 X32.827 Y99.057 E23.39349
G1 X32.699 Y98.299 E23.43185
G1 X32.65 Y97.45 E23.47427
G1 X32.65 Y24.349 E27.1213
G1 X32.69 Y23.581 E27.15966
G1 X32.809 Y22.821 E27.19804
G1 X33.007 Y22.078 E27.2364
G1 X33.281 Y21.359 E27.27479
G1 X33.628 Y20.673 E27.31315
G0 F3600 X34.027 Y20.783
G1 F1800 X34.442 Y20.16 E27.35049
G1 X34.921 Y19.586 E27.38779
G1 X35.458 Y19.065 E27.42512
G1 X36.048 Y18.606 E27.46241
G1 X36.684 Y18.211 E27.49976
G1 X37.358 Y17.887 E27.53707
G1 X38.063 Y17.637 E27.57439
G1 X38.791 Y17.463 E27.61174
G1 X39.533 Y17.368 E27.64906
G1 X40.05 Y17.349 E27.67487
G1 X79.95 Y17.35 E29.66549
G1 X80.697 Y17.39 E29.70281
G1 X81.436 Y17.509 E29.74015
G1 X82.157 Y17.707 E29.77745
G1 X82.853 Y17.981 E29.81477
G1 X83.517 Y18.327 E29.85213
G1 X84.139 Y18.742 E29.88943
G1 X84.714 Y19.221 E29.92677
G1 X85.234 Y19.758 E29.96406
G1 X85.693 Y20.348 E30.00135
G1 X86.088 Y20.984 E30.03871
G1 X86.412 Y21.658 E30.07602
G1 X86.662 Y22.363 E30.11333
G1 X86.836 Y23.091 E30.15068
G1 X86.931 Y23.833 E30.188
G1 X86.95 Y24.35 E30.21381
G1 X86.95 Y97.45 E33.86078
G1 X86.91 Y98.197 E33.8981
G1 X86.791 Y98.935 E33.9354
G1 X86.593 Y99.657 E33.97275
G1 X86.32 Y100.353 E34.01005
G1 X85.973 Y101.016 E34.04738
G1 X85.558 Y101.639 E34.08473
G1 X85.079 Y102.213 E34.12203
G1 X84.542 Y102.734 E34.15935
G1 X83.952 Y103.193 E34.19665
G1 X83.316 Y103.588 E34.234
G1 X82.642 Y103.912 E34.27131
G1 X81.937 Y104.162 E34.30863
G1 X81.209 Y104.336 E34.34597
G1 X80.467 Y104.431 E34.38329
G1 X79.95 Y104.45 E34.4091
G1 X40.05 Y104.45 E36.39972
G1 X39.303 Y104.41 E36.43704
G1 X38.565 Y104.291 E36.47434
G1 X37.843 Y104.093 E36.51169
G1 X37.147 Y103.82 E36.54899
G1 X36.484 Y103.473 E36.58632
G1 X35.861 Y103.058 E36.62367
G1 X35.287 Y102.579 E36.66097
G1 X34.766 Y102.042 E36.69829
G1 X34.307 Y101.452 E36.73559
G1 X33.912 Y100.816 E36.77294
G1 X33.588 Y100.142 E36.81025
G1 X33.338 Y99.437 E36.84757
G1 X33.164 Y98.709 E36.88491
G1 X33.069 Y97.967 E36.92223
G1 X33.05 Y97.45 E36.94804
G1 X33.05 Y24.349 E40.59506
G1 X33.09 Y23.602 E40.63239
G1 X33.209 Y22.864 E40.66968
G1 X33.407 Y22.142 E40.70703
G1 X33.68 Y21.446 E40.74433
G1 X34.027 Y20.783 E40.78166
G0 F3600 X34.425 Y20.896
G1 F1800 X34.839 Y20.299 E40.81791
G1 X35.315 Y19.751 E40.85412
G1 X35.849 Y19.258 E40.89038
G1 X36.434 Y18.828 E40.9266
G1 X37.063 Y18.464 E40.96286
G1 X37.728 Y18.171 E40.99912
G1 X38.421 Y17.953 E41.03536
G1 X39.133 Y17.813 E41.07156
G1 X40.05 Y17.749 E41.11742
G1 X79.95 Y17.75 E43.10804
G1 X80.675 Y17.79 E43.14427
G1 X81.392 Y17.909 E43.18053
G1 X82.091 Y18.107 E43.21677
G1 X82.764 Y18.38 E43.25301
G1 X83.403 Y18.725 E43.28924
G1 X84 Y19.139 E43.32548
G1 X84.548 Y19.615 E43.36169
G1 X85.041 Y20.149 E43.39795
G1 X85.471 Y20.734 E43.43418
G1 X85.835 Y21.363 E43.47043
G1 X86.128 Y22.028 E43.50669
G1 X86.346 Y22.721 E43.54293
G1 X86.486 Y23.433 E43.57913
G1 X86.55 Y24.35 E43.62499
G1 X86.55 Y97.45 E47.27197
G1 X86.51 Y98.175 E47.30819
G1 X86.391 Y98.892 E47.34445
G1 X86.193 Y99.591 E47.3807
G1 X85.92 Y100.264 E47.41693
G1 X85.575 Y100.903 E47.45316
G1 X85.161 Y101.5 E47.48941
G1 X84.685 Y102.048 E47.52562
G1 X84.151 Y102.541 E47.56188
G1 X83.566 Y102.971 E47.5981
G1 X82.937 Y103.335 E47.63436
G1 X82.272 Y103.628 E47.67061
G1 X81.579 Y103.846 E47.70686
G1 X80.867 Y103.986 E47.74306
G1 X79.95 Y104.05 E47.78892
G1 X40.05 Y104.05 E49.77954
G1 X39.325 Y104.01 E49.81576
G1 X38.608 Y103.891 E49.85203
G1 X37.909 Y103.693 E49.88827
G1 X37.236 Y103.42 E49.9245
G1 X36.597 Y103.075 E49.96073
G1 X36 Y102.661 E49.99698
G1 X35.452 Y102.185 E50.03319
G1 X34.959 Y101.651 E50.06945
G1 X34.529 Y101.066 E50.10567
G1 X34.165 Y100.437 E50.14193
G1 X33.872 Y99.772 E50.17818
G1 X33.654 Y99.079 E50.21443
G1 X33.514 Y98.367 E50.25063
G1 X33.45 Y97.45 E50.29649
G1 X33.45 Y24.349 E53.94352
G1 X33.49 Y23.624 E53.97974
G1 X33.609 Y22.907 E54.016
G1 X33.807 Y22.208 E54.05225
G1 X34.08 Y21.535 E54.08848
G1 X34.425 Y20.896 E54.12471
G0 F3600 X34.824 Y21.014
G1 F1800 X35.235 Y20.443 E54.15981
G1 X35.709 Y19.922 E54.19495
G1 X36.239 Y19.458 E54.23009
G1 X36.818 Y19.058 E54.2652
G1 X37.439 Y18.726 E54.30033
G1 X38.093 Y18.466 E54.33545
G1 X38.773 Y18.282 E54.37059
G1 X39.469 Y18.176 E54.40571
G1 X40.05 Y18.149 E54.43473
G1 X79.95 Y18.15 E56.42535
G1 X80.653 Y18.19 E56.46048
G1 X81.347 Y18.309 E56.49561
G1 X82.023 Y18.507 E56.53075
G1 X82.672 Y18.779 E56.56586
G1 X83.286 Y19.124 E56.601
G1 X83.857 Y19.536 E56.63613
G1 X84.377 Y20.009 E56.6712
G1 X84.841 Y20.539 E56.70634
G1 X85.241 Y21.118 E56.74145
G1 X85.573 Y21.739 E56.77658
G1 X85.833 Y22.393 E56.81169
G1 X86.017 Y23.073 E56.84684
G1 X86.123 Y23.769 E56.88196
G1 X86.15 Y24.35 E56.91098
G1 X86.15 Y97.45 E60.55795
G1 X86.11 Y98.153 E60.59308
G1 X85.991 Y98.847 E60.62821
G1 X85.793 Y99.522 E60.66331
G1 X85.521 Y100.171 E60.69841
G1 X85.176 Y100.785 E60.73355
G1 X84.765 Y101.356 E60.76865
G1 X84.291 Y101.877 E60.80379
G1 X83.761 Y102.341 E60.83893
G1 X83.182 Y102.741 E60.87404
G1 X82.561 Y103.073 E60.90918
G1 X81.907 Y103.333 E60.94429
G1 X81.227 Y103.517 E60.97943
G1 X80.531 Y103.623 E61.01456
G1 X79.95 Y103.65 E61.04357
G1 X40.05 Y103.65 E63.03419
G1 X39.347 Y103.61 E63.06932
G1 X38.653 Y103.491 E63.10445
G1 X37.978 Y103.293 E63.13955
G1 X37.329 Y103.021 E63.17465
G1 X36.715 Y102.676 E63.20979
G1 X36.144 Y102.265 E63.24489
G1 X35.623 Y101.791 E63.28003
G1 X35.159 Y101.261 E63.31517
G1 X34.759 Y100.682 E63.35028
G1 X34.427 Y100.061 E63.38542
G1 X34.167 Y99.407 E63.42053
G1 X33.983 Y98.727 E63.45567
G1 X33.877 Y98.031 E63.4908
G1 X33.85 Y97.45 E63.51981
G1 X33.85 Y24.349 E67.16684
G1 X33.89 Y23.646 E67.20197
G1 X34.009 Y22.952 E67.2371
G1 X34.207 Y22.277 E67.27219
G1 X34.479 Y21.628 E67.3073
G1 X34.824 Y21.014 E67.34244
G0 F3600 X35.222 Y21.135
G1 F1800 X35.632 Y20.591 E67.37642
G1 X36.103 Y20.1 E67.41037
G1 X36.628 Y19.666 E67.44435
G1 X37.2 Y19.297 E67.47831
G1 X37.812 Y18.998 E67.51229
G1 X38.454 Y18.773 E67.54623
G1 X39.119 Y18.624 E67.58023
G1 X40.05 Y18.549 E67.62683
G1 X79.95 Y18.55 E69.61745
G1 X80.63 Y18.59 E69.65143
G1 X81.3 Y18.709 E69.68538
G1 X81.952 Y18.906 E69.71936
G1 X82.576 Y19.179 E69.75334
G1 X83.164 Y19.522 E69.7873
G1 X83.708 Y19.932 E69.82129
G1 X84.2 Y20.403 E69.85527
G1 X84.633 Y20.928 E69.88922
G1 X85.002 Y21.5 E69.92318
G1 X85.301 Y22.112 E69.95716
G1 X85.526 Y22.754 E69.9911
G1 X85.675 Y23.419 E70.0251
G1 X85.75 Y24.35 E70.0717
G1 X85.75 Y97.45 E73.71867
G1 X85.71 Y98.13 E73.75266
G1 X85.591 Y98.8 E73.78661
G1 X85.394 Y99.452 E73.82059
G1 X85.122 Y100.076 E73.85455
G1 X84.778 Y100.664 E73.88854
G1 X84.368 Y101.208 E73.92252
G1 X83.897 Y101.699 E73.95647
G1 X83.372 Y102.133 E73.99045
G1 X82.8 Y102.502 E74.02441
G1 X82.188 Y102.801 E74.05839
G1 X81.546 Y103.026 E74.09233
G1 X80.881 Y103.175 E74.12633
G1 X79.95 Y103.25 E74.17293
G1 X40.05 Y103.25 E76.16355
G1 X39.37 Y103.21 E76.19753
G1 X38.7 Y103.091 E76.23148
G1 X38.048 Y102.894 E76.26546
G1 X37.424 Y102.622 E76.29942
G1 X36.836 Y102.278 E76.33341
G1 X36.292 Y101.868 E76.36739
G1 X35.801 Y101.397 E76.40134
G1 X35.367 Y100.872 E76.43532
G1 X34.998 Y100.3 E76.46928
G1 X34.699 Y99.688 E76.50326
G1 X34.474 Y99.046 E76.5372
G1 X34.325 Y98.381 E76.5712
G1 X34.25 Y97.45 E76.6178
G1 X34.25 Y24.349 E80.26483
G1 X34.29 Y23.669 E80.29881
G1 X34.409 Y22.999 E80.33276
G1 X34.606 Y22.347 E80.36674
G1 X34.878 Y21.723 E80.4007
G1 X35.222 Y21.135 E80.43469
G0 F3600 X35.62 Y21.261
G1 F1800 X36.028 Y20.746 E80.46747
G1 X36.495 Y20.284 E80.50024
G1 X37.015 Y19.883 E80.533
G1 X37.579 Y19.547 E80.56575
G1 X38.181 Y19.283 E80.59855
G1 X38.81 Y19.093 E80.63133
G1 X39.457 Y18.982 E80.66408
G1 X40.05 Y18.949 E80.69371
G1 X79.95 Y18.95 E82.68433
G1 X80.606 Y18.99 E82.71712
G1 X81.252 Y19.109 E82.74989
G1 X81.879 Y19.306 E82.78268
G1 X82.477 Y19.578 E82.81546
G1 X83.038 Y19.92 E82.84823
G1 X83.553 Y20.328 E82.88101
G1 X84.015 Y20.795 E82.91379
G1 X84.416 Y21.315 E82.94655
G1 X84.752 Y21.88 E82.97934
G1 X85.016 Y22.481 E83.01209
G1 X85.206 Y23.11 E83.04487
G1 X85.317 Y23.757 E83.07763
G1 X85.35 Y24.35 E83.10726
G1 X85.35 Y97.45 E86.75423
G1 X85.31 Y98.106 E86.78702
G1 X85.191 Y98.752 E86.81979
G1 X84.994 Y99.379 E86.85258
G1 X84.722 Y99.977 E86.88535
G1 X84.38 Y100.538 E86.91813
G1 X83.972 Y101.053 E86.95091
G1 X83.505 Y101.515 E86.98369
G1 X82.985 Y101.916 E87.01645
G1 X82.421 Y102.252 E87.0492
G1 X81.819 Y102.516 E87.08199
G1 X81.19 Y102.706 E87.11478
G1 X80.543 Y102.817 E87.14753
G1 X79.95 Y102.85 E87.17716
G1 X40.05 Y102.85 E89.16778
G1 X39.394 Y102.81 E89.20057
G1 X38.748 Y102.691 E89.23334
G1 X38.121 Y102.494 E89.26613
G1 X37.523 Y102.222 E89.2989
G1 X36.962 Y101.88 E89.33168
G1 X36.447 Y101.472 E89.36446
G1 X35.985 Y101.005 E89.39723
G1 X35.584 Y100.485 E89.42999
G1 X35.248 Y99.921 E89.46275
G1 X34.984 Y99.319 E89.49554
G1 X34.794 Y98.69 E89.52832
G1 X34.683 Y98.043 E89.56107
G1 X34.65 Y97.45 E89.5907
G1 X34.65 Y24.349 E93.23773
G1 X34.69 Y23.693 E93.27052
G1 X34.809 Y23.047 E93.30329
G1 X35.006 Y22.42 E93.33608
G1 X35.278 Y21.822 E93.36885
G1 X35.62 Y21.261 E93.40163
G0 F3600 X36.017 Y21.393
G1 F1800 X36.423 Y20.908 E93.43319
G1 X36.886 Y20.478 E93.46471
G1 X37.4 Y20.109 E93.49628
G1 X37.956 Y19.809 E93.5278
G1 X38.545 Y19.581 E93.55931
G1 X39.159 Y19.429 E93.59087
G1 X40.05 Y19.349 E93.6355
G1 X79.95 Y19.35 E95.62612
G1 X80.581 Y19.39 E95.65766
G1 X81.202 Y19.509 E95.68921
G1 X81.803 Y19.706 E95.72076
G1 X82.374 Y19.977 E95.75229
G1 X82.906 Y20.317 E95.78379
G1 X83.391 Y20.723 E95.81535
G1 X83.822 Y21.186 E95.84691
G1 X84.19 Y21.7 E95.87844
G1 X84.49 Y22.256 E95.90996
G1 X84.718 Y22.845 E95.94147
G1 X84.87 Y23.459 E95.97303
G1 X84.95 Y24.35 E96.01766
G1 X84.95 Y97.45 E99.66464
G1 X84.91 Y98.081 E99.69618
G1 X84.791 Y98.702 E99.72772
G1 X84.594 Y99.302 E99.75923
G1 X84.323 Y99.874 E99.79081
G1 X83.983 Y100.406 E99.82231
G1 X83.577 Y100.891 E99.85386
G1 X83.114 Y101.321 E99.88539
G1 X82.6 Y101.69 E99.91696
G1 X82.044 Y101.99 E99.94847
G1 X81.455 Y102.218 E99.97998
G1 X80.841 Y102.37 E100.01154
G1 X79.95 Y102.45 E100.05617
G1 X40.05 Y102.45 E102.04679
G1 X39.419 Y102.41 E102.07834
G1 X38.798 Y102.291 E102.10988
G1 X38.198 Y102.094 E102.14139
G1 X37.626 Y101.823 E102.17297
G1 X37.094 Y101.483 E102.20446
G1 X36.609 Y101.077 E102.23602
G1 X36.179 Y100.614 E102.26755
G1 X35.81 Y100.1 E102.29911
G1 X35.51 Y99.544 E102.33063
G1 X35.282 Y98.955 E102.36214
G1 X35.13 Y98.341 E102.3937
G1 X35.05 Y97.45 E102.43833
G1 X35.05 Y24.349 E106.08535
G1 X35.09 Y23.718 E106.1169
G1 X35.209 Y23.097 E106.14844
G1 X35.406 Y22.497 E106.17995
G1 X35.677 Y21.925 E106.21153
G1 X36.017 Y21.393 E106.24303
G0 F3600 X36.415 Y21.53
G1 F1800 X36.817 Y21.077 E106.27324
G1 X37.275 Y20.68 E106.30348
G1 X37.782 Y20.347 E106.33374
G1 X38.328 Y20.083 E106.364
G1 X38.904 Y19.894 E106.39425
G1 X39.5 Y19.782 E106.4245
G1 X40.05 Y19.749 E106.45199
G1 X79.95 Y19.75 E108.44261
G1 X80.555 Y19.79 E108.47286
G1 X81.15 Y19.909 E108.50313
G1 X81.723 Y20.106 E108.53336
G1 X82.266 Y20.376 E108.56361
G1 X82.769 Y20.715 E108.59388
G1 X83.222 Y21.117 E108.62409
G1 X83.619 Y21.575 E108.65433
G1 X83.952 Y22.082 E108.68459
G1 X84.216 Y22.628 E108.71485
G1 X84.405 Y23.204 E108.7451
G1 X84.517 Y23.8 E108.77535
G1 X84.55 Y24.35 E108.80284
G1 X84.55 Y97.45 E112.44981
G1 X84.51 Y98.055 E112.48006
G1 X84.391 Y98.649 E112.51029
G1 X84.195 Y99.223 E112.54055
G1 X83.924 Y99.766 E112.57082
G1 X83.585 Y100.269 E112.60109
G1 X83.183 Y100.722 E112.6313
G1 X82.725 Y101.119 E112.66154
G1 X82.218 Y101.452 E112.6918
G1 X81.672 Y101.716 E112.72206
G1 X81.096 Y101.905 E112.7523
G1 X80.5 Y102.017 E112.78256
G1 X79.95 Y102.05 E112.81005
G1 X40.05 Y102.05 E114.80067
G1 X39.445 Y102.01 E114.83092
G1 X38.851 Y101.891 E114.86114
G1 X38.277 Y101.695 E114.8914
G1 X37.734 Y101.424 E114.92168
G1 X37.231 Y101.085 E114.95194
G1 X36.778 Y100.683 E114.98216
G1 X36.381 Y100.225 E115.0124
G1 X36.048 Y99.718 E115.04266
G1 X35.784 Y99.172 E115.07291
G1 X35.595 Y98.596 E115.10316
G1 X35.483 Y98 E115.13341
G1 X35.45 Y97.45 E115.1609
G1 X35.45 Y24.349 E118.80793
G1 X35.49 Y23.744 E118.83818
G1 X35.609 Y23.15 E118.8684
G1 X35.805 Y22.576 E118.89866
G1 X36.076 Y22.033 E118.92894
G1 X36.415 Y21.53 E118.9592
G0 F3600 X36.811 Y21.675
G1 F1800 X37.21 Y21.255 E118.9881
G1 X37.663 Y20.893 E119.01703
G1 X38.161 Y20.598 E119.04591
