;FLAVOR:RepRap
;TIME:4446
;Filament used: 4.78509m
;Layer height: 0.2
;Generated with Cura_SteamEngine 2.4.0
M190 S50
M104 S205
M109 S205
G28 ;Home
G1 Z15.0 F6000 ;Move the platform down 15mm
;Prime the extruder
G92 E0
G1 F200 E3
G92 E0
;LAYER_COUNT:74
;LAYER:0
M107
G1 F1500 E-6.5
G0 F3600 X34.13 Y31.772 Z0.3
;TYPE:SKIRT
G1 F1500 E0
G1 F1800 X34.673 Y31.199 E0.03938
G1 X35.272 Y30.684 E0.0788
G1 X35.92 Y30.233 E0.11818
G1 X36.611 Y29.849 E0.15762
G1 X37.336 Y29.537 E0.197
G1 X38.089 Y29.3 E0.23638
G1 X38.863 Y29.141 E0.27581
G1 X39.648 Y29.06 E0.31518
G1 X40.05 Y29.05 E0.33524
G1 X79.95 Y29.049 E2.32586
G1 X80.738 Y29.089 E2.36522
G1 X81.519 Y29.208 E2.40464
G1 X82.284 Y29.406 E2.44406
G1 X83.024 Y29.68 E2.48343
G1 X83.733 Y30.028 E2.52283
G1 X84.404 Y30.445 E2.56225
G1 X85.028 Y30.929 E2.60164
G1 X85.601 Y31.472 E2.64103
G1 X86.115 Y32.071 E2.68041
G1 X86.567 Y32.719 E2.71982
G1 X86.951 Y33.409 E2.75922
G1 X87.263 Y34.135 E2.79864
G1 X87.5 Y34.888 E2.83803
G1 X87.659 Y35.662 E2.87745
G1 X87.74 Y36.447 E2.91682
G1 X87.75 Y36.849 E2.93688
G1 X87.75 Y83.15 E5.24685
G1 X87.71 Y83.939 E5.28626
G1 X87.591 Y84.719 E5.32563
G1 X87.393 Y85.484 E5.36505
G1 X87.119 Y86.224 E5.40442
G1 X86.771 Y86.933 E5.44382
G1 X86.353 Y87.604 E5.48326
G1 X85.87 Y88.228 E5.52263
G1 X85.327 Y88.801 E5.56202
G1 X84.728 Y89.316 E5.60143
G1 X84.08 Y89.767 E5.64081
G1 X83.389 Y90.151 E5.68025
G1 X82.664 Y90.463 E5.71963
G1 X81.911 Y90.7 E5.75902
G1 X81.137 Y90.859 E5.79844
G1 X80.352 Y90.94 E5.83781
G1 X79.95 Y90.95 E5.85787
G1 X40.05 Y90.951 E7.84849
G1 X39.262 Y90.911 E7.88785
G1 X38.481 Y90.792 E7.92727
G1 X37.716 Y90.594 E7.96669
G1 X36.976 Y90.32 E8.00606
G1 X36.267 Y89.972 E8.04546
G1 X35.596 Y89.555 E8.08488
G1 X34.972 Y89.071 E8.12428
G1 X34.399 Y88.528 E8.16366
G1 X33.885 Y87.929 E8.20304
G1 X33.433 Y87.281 E8.24246
G1 X33.049 Y86.591 E8.28185
G1 X32.737 Y85.865 E8.32127
G1 X32.5 Y85.112 E8.36066
G1 X32.341 Y84.338 E8.40008
G1 X32.26 Y83.553 E8.43945
G1 X32.25 Y83.151 E8.45951
G1 X32.25 Y36.85 E10.76948
G1 X32.29 Y36.061 E10.80889
G1 X32.409 Y35.281 E10.84826
G1 X32.607 Y34.516 E10.88768
G1 X32.881 Y33.776 E10.92705
G1 X33.229 Y33.067 E10.96645
G1 X33.647 Y32.396 E11.00589
G1 X34.13 Y31.772 E11.04526
G0 F3600 X34.525 Y31.927
G1 F1800 X35.066 Y31.38 E11.08365
G1 X35.661 Y30.892 E11.12204
G1 X36.303 Y30.469 E11.16039
G1 X36.986 Y30.114 E11.1988
G1 X37.701 Y29.833 E11.23712
G1 X38.443 Y29.627 E11.27554
G1 X39.201 Y29.499 E11.3139
G1 X40.05 Y29.45 E11.35632
G1 X79.95 Y29.449 E13.34694
G1 X80.718 Y29.489 E13.38531
G1 X81.478 Y29.608 E13.42369
G1 X82.221 Y29.806 E13.46205
G1 X82.94 Y30.08 E13.50044
G1 X83.626 Y30.427 E13.53879
G1 X84.273 Y30.843 E13.57717
G1 X84.873 Y31.324 E13.61553
G1 X85.42 Y31.865 E13.65392
G1 X85.908 Y32.46 E13.69231
G1 X86.331 Y33.102 E13.73066
G1 X86.686 Y33.785 E13.76907
G1 X86.967 Y34.5 E13.80739
G1 X87.173 Y35.241 E13.84576
G1 X87.301 Y36 E13.88417
G1 X87.35 Y36.849 E13.92659
G1 X87.35 Y83.15 E16.23656
G1 X87.31 Y83.918 E16.27493
G1 X87.191 Y84.678 E16.31331
G1 X86.993 Y85.421 E16.35167
G1 X86.719 Y86.14 E16.39006
G1 X86.372 Y86.826 E16.42841
G1 X85.956 Y87.473 E16.46678
G1 X85.475 Y88.073 E16.50515
G1 X84.934 Y88.62 E16.54353
G1 X84.339 Y89.108 E16.58192
G1 X83.697 Y89.531 E16.62028
G1 X83.014 Y89.886 E16.65868
G1 X82.299 Y90.167 E16.69701
G1 X81.557 Y90.373 E16.73543
G1 X80.799 Y90.501 E16.77378
G1 X79.95 Y90.55 E16.81621
G1 X40.05 Y90.551 E18.80683
G1 X39.282 Y90.511 E18.8452
G1 X38.522 Y90.392 E18.88358
G1 X37.779 Y90.194 E18.92194
G1 X37.06 Y89.92 E18.96032
G1 X36.374 Y89.573 E18.99868
G1 X35.727 Y89.157 E19.03705
G1 X35.127 Y88.676 E19.07542
G1 X34.58 Y88.135 E19.1138
G1 X34.092 Y87.54 E19.15219
G1 X33.669 Y86.898 E19.19055
G1 X33.314 Y86.215 E19.22895
G1 X33.033 Y85.5 E19.26728
G1 X32.827 Y84.759 E19.30565
G1 X32.699 Y84 E19.34405
G1 X32.65 Y83.151 E19.38648
G1 X32.65 Y36.85 E21.69645
G1 X32.69 Y36.082 E21.73481
G1 X32.809 Y35.322 E21.77319
G1 X33.007 Y34.579 E21.81156
G1 X33.281 Y33.86 E21.84994
G1 X33.628 Y33.174 E21.8883
G1 X34.044 Y32.527 E21.92667
G1 X34.525 Y31.927 E21.96504
G0 F3600 X34.921 Y32.087
G1 F1800 X35.458 Y31.566 E22.00237
G1 X36.048 Y31.107 E22.03966
G1 X36.684 Y30.712 E22.07701
G1 X37.358 Y30.388 E22.11432
G1 X38.063 Y30.138 E22.15164
G1 X38.791 Y29.964 E22.18898
G1 X39.533 Y29.869 E22.2263
G1 X40.05 Y29.85 E22.25211
G1 X79.95 Y29.849 E24.24273
G1 X80.697 Y29.889 E24.28005
G1 X81.435 Y30.008 E24.31735
G1 X82.157 Y30.206 E24.3547
G1 X82.853 Y30.479 E24.392
G1 X83.516 Y30.826 E24.42933
G1 X84.139 Y31.241 E24.46668
G1 X84.713 Y31.72 E24.50398
G1 X85.233 Y32.257 E24.54127
G1 X85.693 Y32.847 E24.57859
G1 X86.088 Y33.483 E24.61595
G1 X86.412 Y34.157 E24.65326
G1 X86.662 Y34.862 E24.69057
G1 X86.836 Y35.59 E24.72792
G1 X86.931 Y36.332 E24.76524
G1 X86.95 Y36.849 E24.79105
G1 X86.95 Y83.15 E27.10102
G1 X86.91 Y83.897 E27.13834
G1 X86.791 Y84.635 E27.17563
G1 X86.593 Y85.357 E27.21298
G1 X86.32 Y86.053 E27.25028
G1 X85.973 Y86.716 E27.28761
G1 X85.558 Y87.339 E27.32496
G1 X85.079 Y87.913 E27.36226
G1 X84.542 Y88.434 E27.39959
G1 X83.952 Y88.893 E27.43688
G1 X83.316 Y89.288 E27.47423
G1 X82.642 Y89.612 E27.51154
G1 X81.937 Y89.862 E27.54886
G1 X81.209 Y90.036 E27.5862
G1 X80.467 Y90.131 E27.62352
G1 X79.95 Y90.15 E27.64934
G1 X40.05 Y90.151 E29.63995
G1 X39.303 Y90.111 E29.67728
G1 X38.565 Y89.992 E29.71457
G1 X37.843 Y89.794 E29.75192
G1 X37.147 Y89.521 E29.78922
G1 X36.484 Y89.174 E29.82655
G1 X35.861 Y88.759 E29.8639
G1 X35.287 Y88.28 E29.9012
G1 X34.767 Y87.743 E29.93849
G1 X34.307 Y87.153 E29.97582
G1 X33.912 Y86.517 E30.01317
G1 X33.588 Y85.843 E30.05048
G1 X33.338 Y85.138 E30.0878
G1 X33.164 Y84.41 E30.12514
G1 X33.069 Y83.668 E30.16246
G1 X33.05 Y83.151 E30.18827
G1 X33.05 Y36.85 E32.49824
G1 X33.09 Y36.103 E32.53556
G1 X33.209 Y35.365 E32.57285
G1 X33.407 Y34.643 E32.6102
G1 X33.68 Y33.947 E32.6475
G1 X34.027 Y33.284 E32.68484
G1 X34.442 Y32.661 E32.72218
G1 X34.921 Y32.087 E32.75948
G0 F3600 X35.315 Y32.252
G1 F1800 X35.849 Y31.759 E32.79574
G1 X36.434 Y31.329 E32.83196
G1 X37.063 Y30.965 E32.86822
G1 X37.728 Y30.672 E32.90447
G1 X38.421 Y30.454 E32.94072
G1 X39.133 Y30.314 E32.97692
G1 X40.05 Y30.25 E33.02278
G1 X79.95 Y30.249 E35.0134
G1 X80.675 Y30.289 E35.04962
G1 X81.392 Y30.408 E35.08588
G1 X82.091 Y30.606 E35.12213
G1 X82.764 Y30.879 E35.15836
G1 X83.403 Y31.224 E35.19459
G1 X84 Y31.638 E35.23084
G1 X84.548 Y32.114 E35.26705
G1 X85.04 Y32.648 E35.30328
G1 X85.471 Y33.233 E35.33953
G1 X85.835 Y33.862 E35.37579
G1 X86.128 Y34.526 E35.41199
G1 X86.346 Y35.219 E35.44824
G1 X86.486 Y35.932 E35.48449
G1 X86.55 Y36.849 E35.53035
G1 X86.55 Y83.15 E37.84032
G1 X86.51 Y83.875 E37.87654
G1 X86.391 Y84.592 E37.9128
G1 X86.193 Y85.291 E37.94905
G1 X85.92 Y85.964 E37.98528
G1 X85.575 Y86.603 E38.02151
G1 X85.161 Y87.2 E38.05776
G1 X84.685 Y87.748 E38.09397
G1 X84.151 Y88.241 E38.13023
G1 X83.566 Y88.671 E38.16645
G1 X82.937 Y89.035 E38.20271
G1 X82.272 Y89.328 E38.23896
G1 X81.579 Y89.546 E38.27521
G1 X80.867 Y89.686 E38.31141
G1 X79.95 Y89.75 E38.35727
G1 X40.05 Y89.751 E40.34789
G1 X39.325 Y89.711 E40.38411
G1 X38.608 Y89.592 E40.42037
G1 X37.909 Y89.394 E40.45662
G1 X37.236 Y89.121 E40.49285
G1 X36.597 Y88.776 E40.52908
G1 X36 Y88.362 E40.56533
G1 X35.452 Y87.886 E40.60154
G1 X34.96 Y87.352 E40.63777
G1 X34.529 Y86.767 E40.67402
G1 X34.165 Y86.138 E40.71027
G1 X33.872 Y85.474 E40.74648
G1 X33.654 Y84.781 E40.78273
G1 X33.514 Y84.068 E40.81898
G1 X33.45 Y83.151 E40.86484
G1 X33.45 Y36.85 E43.17481
G1 X33.49 Y36.125 E43.21103
G1 X33.609 Y35.408 E43.24729
G1 X33.807 Y34.709 E43.28354
G1 X34.08 Y34.036 E43.31977
G1 X34.425 Y33.397 E43.356
G1 X34.839 Y32.8 E43.39225
G1 X35.315 Y32.252 E43.42846
G0 F3600 X35.709 Y32.423
G1 F1800 X36.239 Y31.959 E43.4636
G1 X36.818 Y31.559 E43.49871
G1 X37.439 Y31.227 E43.53384
G1 X38.093 Y30.967 E43.56896
G1 X38.773 Y30.783 E43.6041
G1 X39.469 Y30.677 E43.63922
G1 X40.05 Y30.65 E43.66824
G1 X79.95 Y30.649 E45.65886
G1 X80.653 Y30.689 E45.69399
G1 X81.346 Y30.808 E45.72907
G1 X82.022 Y31.006 E45.76421
G1 X82.671 Y31.278 E45.79932
G1 X83.285 Y31.623 E45.83446
G1 X83.856 Y32.034 E45.86956
G1 X84.377 Y32.508 E45.9047
G1 X84.84 Y33.038 E45.93981
G1 X85.241 Y33.617 E45.97495
G1 X85.573 Y34.238 E46.01008
G1 X85.833 Y34.892 E46.04519
G1 X86.017 Y35.572 E46.08033
G1 X86.123 Y36.268 E46.11546
G1 X86.15 Y36.849 E46.14448
G1 X86.15 Y83.15 E48.45444
G1 X86.11 Y83.853 E48.48957
G1 X85.991 Y84.547 E48.5247
G1 X85.793 Y85.222 E48.5598
G1 X85.521 Y85.871 E48.5949
G1 X85.176 Y86.485 E48.63004
G1 X84.765 Y87.056 E48.66514
G1 X84.291 Y87.577 E48.70028
G1 X83.761 Y88.041 E48.73542
G1 X83.182 Y88.441 E48.77053
G1 X82.561 Y88.773 E48.80566
G1 X81.907 Y89.033 E48.84078
G1 X81.227 Y89.217 E48.87592
G1 X80.531 Y89.323 E48.91105
G1 X79.95 Y89.35 E48.94006
G1 X40.05 Y89.351 E50.93068
G1 X39.347 Y89.311 E50.96581
G1 X38.654 Y89.192 E51.00089
G1 X37.978 Y88.994 E51.03603
G1 X37.329 Y88.722 E51.07114
G1 X36.715 Y88.377 E51.10628
G1 X36.144 Y87.966 E51.14138
G1 X35.623 Y87.492 E51.17652
G1 X35.16 Y86.962 E51.21163
G1 X34.759 Y86.383 E51.24677
G1 X34.427 Y85.762 E51.2819
G1 X34.167 Y85.108 E51.31701
G1 X33.983 Y84.428 E51.35216
G1 X33.877 Y83.732 E51.38728
G1 X33.85 Y83.151 E51.4163
G1 X33.85 Y36.85 E53.72626
G1 X33.89 Y36.147 E53.76139
G1 X34.009 Y35.453 E53.79652
G1 X34.207 Y34.778 E53.83162
G1 X34.479 Y34.129 E53.86673
G1 X34.824 Y33.515 E53.90186
G1 X35.235 Y32.944 E53.93696
G1 X35.709 Y32.423 E53.9721
G0 F3600 X36.103 Y32.601
G1 F1800 X36.628 Y32.167 E54.00609
G1 X37.2 Y31.798 E54.04005
G1 X37.812 Y31.499 E54.07403
G1 X38.454 Y31.274 E54.10797
G1 X39.119 Y31.125 E54.14197
G1 X40.05 Y31.05 E54.18856
G1 X79.95 Y31.049 E56.17918
G1 X80.63 Y31.089 E56.21317
G1 X81.3 Y31.208 E56.24712
G1 X81.952 Y31.405 E56.2811
G1 X82.576 Y31.677 E56.31506
G1 X83.164 Y32.021 E56.34905
G1 X83.707 Y32.431 E56.38299
G1 X84.199 Y32.901 E56.41694
G1 X84.633 Y33.427 E56.45096
G1 X85.001 Y33.999 E56.48489
G1 X85.301 Y34.611 E56.5189
G1 X85.526 Y35.253 E56.55284
G1 X85.675 Y35.918 E56.58683
G1 X85.75 Y36.849 E56.63343
G1 X85.75 Y83.15 E58.9434
G1 X85.71 Y83.83 E58.97738
G1 X85.591 Y84.5 E59.01133
G1 X85.394 Y85.152 E59.04531
G1 X85.122 Y85.776 E59.07927
G1 X84.778 Y86.364 E59.11326
G1 X84.368 Y86.908 E59.14725
G1 X83.897 Y87.399 E59.18119
G1 X83.372 Y87.833 E59.21517
G1 X82.8 Y88.202 E59.24913
G1 X82.188 Y88.501 E59.28312
G1 X81.546 Y88.726 E59.31706
G1 X80.881 Y88.875 E59.35106
G1 X79.95 Y88.95 E59.39765
G1 X40.05 Y88.951 E61.38827
G1 X39.37 Y88.911 E61.42226
G1 X38.7 Y88.792 E61.45621
G1 X38.048 Y88.595 E61.49019
G1 X37.424 Y88.323 E61.52415
G1 X36.836 Y87.979 E61.55813
G1 X36.293 Y87.569 E61.59208
G1 X35.801 Y87.099 E61.62603
G1 X35.367 Y86.573 E61.66005
G1 X34.999 Y86.001 E61.69398
G1 X34.699 Y85.389 E61.72798
G1 X34.474 Y84.747 E61.76192
G1 X34.325 Y84.082 E61.79592
G1 X34.25 Y83.151 E61.84252
G1 X34.25 Y36.85 E64.15249
G1 X34.29 Y36.17 E64.18647
G1 X34.409 Y35.5 E64.22042
G1 X34.606 Y34.848 E64.2544
G1 X34.878 Y34.224 E64.28836
G1 X35.222 Y33.636 E64.32235
G1 X35.632 Y33.092 E64.35634
G1 X36.103 Y32.601 E64.39028
G0 F3600 X36.495 Y32.785
G1 F1800 X37.015 Y32.384 E64.42304
G1 X37.579 Y32.048 E64.45579
G1 X38.181 Y31.784 E64.48859
G1 X38.81 Y31.594 E64.52137
G1 X39.457 Y31.483 E64.55412
G1 X40.05 Y31.45 E64.58375
G1 X79.95 Y31.449 E66.57437
G1 X80.606 Y31.489 E66.60716
G1 X81.252 Y31.608 E66.63993
G1 X81.878 Y31.805 E66.67267
G1 X82.477 Y32.077 E66.70549
G1 X83.038 Y32.419 E66.73827
G1 X83.553 Y32.826 E66.77102
G1 X84.014 Y33.294 E66.80379
G1 X84.416 Y33.814 E66.83659
G1 X84.752 Y34.378 E66.86934
G1 X85.016 Y34.98 E66.90213
G1 X85.206 Y35.609 E66.93491
G1 X85.317 Y36.256 E66.96767
G1 X85.35 Y36.849 E66.9973
G1 X85.35 Y83.15 E69.30726
G1 X85.31 Y83.806 E69.34005
G1 X85.191 Y84.452 E69.37282
G1 X84.994 Y85.079 E69.40561
G1 X84.722 Y85.677 E69.43839
G1 X84.38 Y86.238 E69.47117
G1 X83.972 Y86.753 E69.50395
G1 X83.505 Y87.215 E69.53672
G1 X82.985 Y87.616 E69.56948
G1 X82.421 Y87.952 E69.60223
G1 X81.819 Y88.216 E69.63503
G1 X81.19 Y88.406 E69.66781
G1 X80.543 Y88.517 E69.70056
G1 X79.95 Y88.55 E69.73019
G1 X40.05 Y88.551 E71.72081
G1 X39.394 Y88.511 E71.7536
G1 X38.748 Y88.392 E71.78637
G1 X38.122 Y88.195 E71.81911
G1 X37.523 Y87.923 E71.85193
G1 X36.962 Y87.581 E71.88471
G1 X36.447 Y87.174 E71.91746
G1 X35.986 Y86.706 E71.95023
G1 X35.584 Y86.186 E71.98302
G1 X35.248 Y85.622 E72.01578
G1 X34.984 Y85.02 E72.04857
G1 X34.794 Y84.391 E72.08135
G1 X34.683 Y83.744 E72.1141
G1 X34.65 Y83.151 E72.14373
G1 X34.65 Y36.85 E74.4537
G1 X34.69 Y36.194 E74.48649
G1 X34.809 Y35.548 E74.51926
G1 X35.006 Y34.921 E74.55205
G1 X35.278 Y34.323 E74.58483
G1 X35.62 Y33.762 E74.6176
G1 X36.028 Y33.247 E74.65038
G1 X36.495 Y32.785 E74.68316
G0 F3600 X36.886 Y32.979
G1 F1800 X37.4 Y32.61 E74.71473
G1 X37.956 Y32.31 E74.74624
G1 X38.545 Y32.082 E74.77775
G1 X39.159 Y31.93 E74.80931
G1 X40.05 Y31.85 E74.85394
G1 X79.95 Y31.849 E76.84456
G1 X80.581 Y31.889 E76.87611
G1 X81.202 Y32.008 E76.90765
G1 X81.802 Y32.205 E76.93916
G1 X82.374 Y32.476 E76.97074
G1 X82.906 Y32.816 E77.00223
G1 X83.391 Y33.222 E77.03379
G1 X83.821 Y33.685 E77.06531
G1 X84.19 Y34.198 E77.09684
G1 X84.49 Y34.755 E77.1284
G1 X84.718 Y35.344 E77.15992
G1 X84.87 Y35.958 E77.19147
G1 X84.95 Y36.849 E77.2361
G1 X84.95 Y83.15 E79.54607
G1 X84.91 Y83.781 E79.57761
G1 X84.791 Y84.402 E79.60916
G1 X84.594 Y85.002 E79.64067
G1 X84.323 Y85.574 E79.67224
G1 X83.983 Y86.106 E79.70374
G1 X83.577 Y86.591 E79.7353
G1 X83.114 Y87.021 E79.76682
G1 X82.6 Y87.39 E79.79839
G1 X82.044 Y87.69 E79.82991
G1 X81.455 Y87.918 E79.86142
G1 X80.841 Y88.07 E79.89298
G1 X79.95 Y88.15 E79.93761
G1 X40.05 Y88.151 E81.92823
G1 X39.419 Y88.111 E81.95977
G1 X38.798 Y87.992 E81.99132
G1 X38.198 Y87.795 E82.02282
G1 X37.626 Y87.524 E82.0544
G1 X37.094 Y87.184 E82.0859
G1 X36.609 Y86.778 E82.11746
G1 X36.179 Y86.315 E82.14898
G1 X35.81 Y85.802 E82.18051
G1 X35.51 Y85.245 E82.21207
G1 X35.282 Y84.656 E82.24358
G1 X35.13 Y84.042 E82.27514
G1 X35.05 Y83.151 E82.31977
G1 X35.05 Y36.85 E84.62973
G1 X35.09 Y36.219 E84.66128
G1 X35.209 Y35.598 E84.69282
G1 X35.406 Y34.998 E84.72433
G1 X35.677 Y34.426 E84.75591
G1 X36.017 Y33.894 E84.78741
G1 X36.423 Y33.409 E84.81896
G1 X36.886 Y32.979 E84.85049
G0 F3600 X37.275 Y33.181
G1 F1800 X37.782 Y32.848 E84.88075
G1 X38.328 Y32.584 E84.91101
G1 X38.904 Y32.395 E84.94125
G1 X39.5 Y32.283 E84.97151
G1 X40.05 Y32.25 E84.999
G1 X79.95 Y32.249 E86.98961
G1 X80.555 Y32.289 E87.01986
G1 X81.149 Y32.408 E87.05009
G1 X81.723 Y32.604 E87.08035
G1 X82.266 Y32.874 E87.1106
G1 X82.768 Y33.214 E87.14085
G1 X83.222 Y33.616 E87.1711
G1 X83.619 Y34.074 E87.20134
G1 X83.952 Y34.581 E87.23161
G1 X84.215 Y35.127 E87.26184
G1 X84.405 Y35.703 E87.2921
G1 X84.517 Y36.299 E87.32236
G1 X84.55 Y36.849 E87.34984
G1 X84.55 Y83.15 E89.65981
G1 X84.51 Y83.755 E89.69006
G1 X84.391 Y84.349 E89.72028
G1 X84.195 Y84.923 E89.75054
G1 X83.924 Y85.466 E89.78082
G1 X83.585 Y85.969 E89.81108
G1 X83.183 Y86.422 E89.8413
G1 X82.725 Y86.819 E89.87154
G1 X82.218 Y87.152 E89.9018
G1 X81.672 Y87.416 E89.93206
G1 X81.096 Y87.605 E89.9623
G1 X80.5 Y87.717 E89.99256
G1 X79.95 Y87.75 E90.02005
G1 X40.05 Y87.751 E92.01067
G1 X39.445 Y87.711 E92.04091
G1 X38.851 Y87.592 E92.07114
G1 X38.277 Y87.396 E92.1014
G1 X37.734 Y87.126 E92.13165
G1 X37.232 Y86.786 E92.1619
G1 X36.778 Y86.384 E92.19216
G1 X36.381 Y85.926 E92.22239
G1 X36.048 Y85.419 E92.25266
G1 X35.785 Y84.873 E92.28289
G1 X35.595 Y84.297 E92.31315
G1 X35.483 Y83.701 E92.34341
G1 X35.45 Y83.151 E92.3709
G1 X35.45 Y36.85 E94.68086
G1 X35.49 Y36.245 E94.71111
G1 X35.609 Y35.651 E94.74134
G1 X35.805 Y35.077 E94.7716
G1 X36.076 Y34.534 E94.80187
G1 X36.415 Y34.031 E94.83213
G1 X36.817 Y33.578 E94.86235
G1 X37.275 Y33.181 E94.89259
G0 F3600 X37.663 Y33.394
G1 F1800 X38.161 Y33.099 E94.92147
G1 X38.695 Y32.874 E94.95038
G1 X39.255 Y32.726 E94.97927
G1 X40.05 Y32.65 E95.01912
G1 X79.95 Y32.649 E97.00974
G1 X80.528 Y32.689 E97.03864
G1 X81.095 Y32.808 E97.06755
G1 X81.64 Y33.004 E97.09644
G1 X82.153 Y33.273 E97.12534
G1 X82.624 Y33.61 E97.15423
