;FLAVOR:RepRap
;TIME:4177
;Filament used: 4.48057m
;Layer height: 0.2
;Generated with Cura_SteamEngine 2.4.0
M190 S50
M104 S205
M109 S205
G28 ;Home
G1 Z15.0 F6000 ;Move the platform down 15mm
;Prime the extruder
G92 E0
G1 F200 E3
G92 E0
;LAYER_COUNT:74
;LAYER:0
M107
G1 F1500 E-6.5
G0 F3600 X34.674 Y33.7 Z0.3
;TYPE:SKIRT
G1 F1500 E0
G1 F1800 X35.273 Y33.185 E0.03941
G1 X35.921 Y32.734 E0.0788
G1 X36.612 Y32.35 E0.11824
G1 X37.337 Y32.038 E0.15762
G1 X38.09 Y31.801 E0.197
G1 X38.864 Y31.642 E0.23642
G1 X39.649 Y31.561 E0.27579
G1 X40.051 Y31.551 E0.29586
G1 X79.95 Y31.551 E2.28642
G1 X80.739 Y31.591 E2.32584
G1 X81.519 Y31.71 E2.3652
G1 X82.284 Y31.908 E2.40463
G1 X83.024 Y32.182 E2.444
G1 X83.733 Y32.53 E2.4834
G1 X84.404 Y32.948 E2.52284
G1 X85.028 Y33.431 E2.56221
G1 X85.601 Y33.974 E2.60159
G1 X86.116 Y34.573 E2.641
G1 X86.567 Y35.221 E2.68039
G1 X86.951 Y35.912 E2.71983
G1 X87.263 Y36.637 E2.75921
G1 X87.5 Y37.39 E2.79859
G1 X87.659 Y38.164 E2.83801
G1 X87.74 Y38.949 E2.87738
G1 X87.75 Y39.351 E2.89745
G1 X87.75 Y82.449 E5.04761
G1 X87.71 Y83.238 E5.08703
G1 X87.591 Y84.018 E5.12639
G1 X87.393 Y84.783 E5.16582
G1 X87.119 Y85.523 E5.20519
G1 X86.771 Y86.232 E5.24459
G1 X86.353 Y86.903 E5.28403
G1 X85.87 Y87.527 E5.3234
G1 X85.327 Y88.1 E5.36278
G1 X84.728 Y88.615 E5.40219
G1 X84.08 Y89.066 E5.44158
G1 X83.389 Y89.45 E5.48102
G1 X82.664 Y89.762 E5.5204
G1 X81.911 Y89.999 E5.55978
G1 X81.137 Y90.158 E5.5992
G1 X80.352 Y90.239 E5.63857
G1 X79.95 Y90.249 E5.65864
G1 X40.051 Y90.249 E7.64921
G1 X39.262 Y90.209 E7.68862
G1 X38.482 Y90.09 E7.72798
G1 X37.717 Y89.892 E7.76741
G1 X36.977 Y89.618 E7.80678
G1 X36.268 Y89.27 E7.84618
G1 X35.597 Y88.852 E7.88562
G1 X34.973 Y88.369 E7.92499
G1 X34.4 Y87.826 E7.96437
G1 X33.885 Y87.227 E8.00378
G1 X33.434 Y86.579 E8.04317
G1 X33.05 Y85.888 E8.08261
G1 X32.738 Y85.163 E8.12199
G1 X32.501 Y84.41 E8.16137
G1 X32.342 Y83.636 E8.20079
G1 X32.261 Y82.851 E8.24017
G1 X32.251 Y82.449 E8.26023
G1 X32.251 Y39.351 E10.4104
G1 X32.291 Y38.562 E10.44981
G1 X32.41 Y37.782 E10.48917
G1 X32.608 Y37.017 E10.5286
G1 X32.882 Y36.277 E10.56797
G1 X33.23 Y35.568 E10.60737
G1 X33.648 Y34.897 E10.64681
G1 X34.131 Y34.273 E10.68618
G1 X34.674 Y33.7 E10.72556
G0 F3600 X35.067 Y33.881
G1 F1800 X35.662 Y33.393 E10.76395
G1 X36.304 Y32.97 E10.80231
G1 X36.987 Y32.615 E10.84071
G1 X37.702 Y32.334 E10.87904
G1 X38.444 Y32.128 E10.91746
G1 X39.202 Y32 E10.95581
G1 X40.051 Y31.951 E10.99824
G1 X79.95 Y31.951 E12.98881
G1 X80.718 Y31.991 E13.02718
G1 X81.478 Y32.11 E13.06555
G1 X82.221 Y32.308 E13.10392
G1 X82.94 Y32.582 E13.1423
G1 X83.626 Y32.929 E13.18066
G1 X84.273 Y33.345 E13.21903
G1 X84.873 Y33.826 E13.2574
G1 X85.42 Y34.367 E13.29578
G1 X85.908 Y34.962 E13.33417
G1 X86.331 Y35.604 E13.37253
G1 X86.686 Y36.287 E13.41093
G1 X86.967 Y37.002 E13.44926
G1 X87.173 Y37.744 E13.48768
G1 X87.301 Y38.502 E13.52603
G1 X87.35 Y39.351 E13.56846
G1 X87.35 Y82.449 E15.71863
G1 X87.31 Y83.217 E15.75699
G1 X87.191 Y83.977 E15.79537
G1 X86.993 Y84.72 E15.83374
G1 X86.719 Y85.439 E15.87212
G1 X86.372 Y86.125 E15.91048
G1 X85.956 Y86.772 E15.94885
G1 X85.475 Y87.372 E15.98722
G1 X84.934 Y87.919 E16.0256
G1 X84.339 Y88.407 E16.06399
G1 X83.697 Y88.83 E16.10235
G1 X83.014 Y89.185 E16.14075
G1 X82.299 Y89.466 E16.17908
G1 X81.557 Y89.672 E16.2175
G1 X80.799 Y89.8 E16.25585
G1 X79.95 Y89.849 E16.29828
G1 X40.051 Y89.849 E18.28885
G1 X39.283 Y89.809 E18.32721
G1 X38.523 Y89.69 E18.36559
G1 X37.78 Y89.492 E18.40396
G1 X37.061 Y89.218 E18.44234
G1 X36.375 Y88.871 E18.4807
G1 X35.728 Y88.455 E18.51907
G1 X35.128 Y87.974 E18.55744
G1 X34.581 Y87.433 E18.59582
G1 X34.093 Y86.838 E18.63421
G1 X33.67 Y86.196 E18.67257
G1 X33.315 Y85.513 E18.71097
G1 X33.034 Y84.798 E18.7493
G1 X32.828 Y84.056 E18.78772
G1 X32.7 Y83.298 E18.82607
G1 X32.651 Y82.449 E18.8685
G1 X32.651 Y39.351 E21.01867
G1 X32.691 Y38.583 E21.05703
G1 X32.81 Y37.823 E21.09541
G1 X33.008 Y37.08 E21.13377
G1 X33.282 Y36.361 E21.17216
G1 X33.629 Y35.675 E21.21052
G1 X34.045 Y35.028 E21.24889
G1 X34.526 Y34.428 E21.28726
G1 X35.067 Y33.881 E21.32564
G0 F3600 X35.459 Y34.067
G1 F1800 X36.049 Y33.608 E21.36293
G1 X36.685 Y33.213 E21.40028
G1 X37.359 Y32.889 E21.43759
G1 X38.064 Y32.639 E21.47491
G1 X38.792 Y32.465 E21.51226
G1 X39.534 Y32.37 E21.54958
G1 X40.051 Y32.351 E21.57539
G1 X79.95 Y32.351 E23.56596
G1 X80.697 Y32.391 E23.60328
G1 X81.435 Y32.51 E23.64057
G1 X82.157 Y32.708 E23.67792
G1 X82.853 Y32.981 E23.71522
G1 X83.516 Y33.328 E23.75256
G1 X84.139 Y33.743 E23.7899
G1 X84.713 Y34.222 E23.8272
G1 X85.234 Y34.759 E23.86453
G1 X85.693 Y35.349 E23.90182
G1 X86.088 Y35.985 E23.93917
G1 X86.412 Y36.659 E23.97648
G1 X86.662 Y37.364 E24.0138
G1 X86.836 Y38.092 E24.05114
G1 X86.931 Y38.834 E24.08847
G1 X86.95 Y39.351 E24.11428
G1 X86.95 Y82.449 E26.26444
G1 X86.91 Y83.196 E26.30177
G1 X86.791 Y83.934 E26.33906
G1 X86.593 Y84.656 E26.37641
G1 X86.32 Y85.352 E26.41371
G1 X85.973 Y86.015 E26.45104
G1 X85.558 Y86.638 E26.48839
G1 X85.079 Y87.212 E26.52569
G1 X84.542 Y87.733 E26.56302
G1 X83.952 Y88.192 E26.60031
G1 X83.316 Y88.587 E26.63766
G1 X82.642 Y88.911 E26.67497
G1 X81.937 Y89.161 E26.71229
G1 X81.209 Y89.335 E26.74963
G1 X80.467 Y89.43 E26.78695
G1 X79.95 Y89.449 E26.81276
G1 X40.051 Y89.449 E28.80333
G1 X39.304 Y89.409 E28.84065
G1 X38.566 Y89.29 E28.87795
G1 X37.844 Y89.092 E28.9153
G1 X37.148 Y88.819 E28.9526
G1 X36.485 Y88.472 E28.98993
G1 X35.862 Y88.057 E29.02728
G1 X35.288 Y87.578 E29.06458
G1 X34.767 Y87.041 E29.10191
G1 X34.308 Y86.451 E29.1392
G1 X33.913 Y85.815 E29.17655
G1 X33.589 Y85.141 E29.21386
G1 X33.339 Y84.436 E29.25118
G1 X33.165 Y83.708 E29.28852
G1 X33.07 Y82.966 E29.32584
G1 X33.051 Y82.449 E29.35165
G1 X33.051 Y39.351 E31.50182
G1 X33.091 Y38.604 E31.53914
G1 X33.21 Y37.866 E31.57644
G1 X33.408 Y37.144 E31.61379
G1 X33.681 Y36.448 E31.65109
G1 X34.028 Y35.785 E31.68842
G1 X34.443 Y35.162 E31.72577
G1 X34.922 Y34.588 E31.76307
G1 X35.459 Y34.067 E31.80039
G0 F3600 X35.85 Y34.26
G1 F1800 X36.435 Y33.83 E31.83662
G1 X37.064 Y33.466 E31.87287
G1 X37.729 Y33.173 E31.90913
G1 X38.422 Y32.955 E31.94537
G1 X39.134 Y32.815 E31.98157
G1 X40.051 Y32.751 E32.02743
G1 X79.95 Y32.751 E34.018
G1 X80.675 Y32.791 E34.05423
G1 X81.392 Y32.91 E34.09049
G1 X82.091 Y33.108 E34.12673
G1 X82.764 Y33.381 E34.16297
G1 X83.403 Y33.726 E34.1992
G1 X84 Y34.14 E34.23544
G1 X84.548 Y34.616 E34.27166
G1 X85.041 Y35.15 E34.30792
G1 X85.471 Y35.735 E34.34414
G1 X85.835 Y36.364 E34.38039
G1 X86.128 Y37.029 E34.41665
G1 X86.346 Y37.722 E34.45289
G1 X86.486 Y38.434 E34.48909
G1 X86.55 Y39.351 E34.53496
G1 X86.55 Y82.449 E36.68512
G1 X86.51 Y83.174 E36.72135
G1 X86.391 Y83.891 E36.75761
G1 X86.193 Y84.59 E36.79385
G1 X85.92 Y85.263 E36.83009
G1 X85.575 Y85.902 E36.86632
G1 X85.161 Y86.499 E36.90256
G1 X84.685 Y87.047 E36.93878
G1 X84.151 Y87.54 E36.97504
G1 X83.566 Y87.97 E37.01126
G1 X82.937 Y88.334 E37.04751
G1 X82.272 Y88.627 E37.08377
G1 X81.579 Y88.845 E37.12001
G1 X80.867 Y88.985 E37.15621
G1 X79.95 Y89.049 E37.20208
G1 X40.051 Y89.049 E39.19264
G1 X39.326 Y89.009 E39.22887
G1 X38.609 Y88.89 E39.26513
G1 X37.91 Y88.692 E39.30138
G1 X37.237 Y88.419 E39.33761
G1 X36.598 Y88.074 E39.37384
G1 X36.001 Y87.66 E39.41008
G1 X35.453 Y87.184 E39.4463
G1 X34.96 Y86.65 E39.48256
G1 X34.53 Y86.065 E39.51878
G1 X34.166 Y85.436 E39.55504
G1 X33.873 Y84.771 E39.59129
G1 X33.655 Y84.078 E39.62753
G1 X33.515 Y83.366 E39.66374
G1 X33.451 Y82.449 E39.7096
G1 X33.451 Y39.351 E41.85976
G1 X33.491 Y38.626 E41.89599
G1 X33.61 Y37.909 E41.93225
G1 X33.808 Y37.21 E41.9685
G1 X34.081 Y36.537 E42.00473
G1 X34.426 Y35.898 E42.04096
G1 X34.84 Y35.301 E42.0772
G1 X35.316 Y34.753 E42.11342
G1 X35.85 Y34.26 E42.14968
G0 F3600 X36.24 Y34.46
G1 F1800 X36.819 Y34.06 E42.18479
G1 X37.44 Y33.728 E42.21992
G1 X38.094 Y33.468 E42.25503
G1 X38.774 Y33.284 E42.29018
G1 X39.47 Y33.178 E42.3253
G1 X40.051 Y33.151 E42.35432
G1 X79.95 Y33.151 E44.34489
G1 X80.653 Y33.191 E44.38002
G1 X81.347 Y33.31 E44.41514
G1 X82.022 Y33.508 E44.45024
G1 X82.671 Y33.78 E44.48535
G1 X83.285 Y34.125 E44.52048
G1 X83.856 Y34.536 E44.55558
G1 X84.377 Y35.01 E44.59072
G1 X84.841 Y35.54 E44.62587
G1 X85.241 Y36.119 E44.66098
G1 X85.573 Y36.74 E44.69611
G1 X85.833 Y37.394 E44.73122
G1 X86.017 Y38.074 E44.76637
G1 X86.123 Y38.77 E44.80149
G1 X86.15 Y39.351 E44.83051
G1 X86.15 Y82.449 E46.98068
G1 X86.11 Y83.152 E47.0158
G1 X85.991 Y83.846 E47.05093
G1 X85.793 Y84.521 E47.08603
G1 X85.521 Y85.17 E47.12114
G1 X85.176 Y85.784 E47.15627
G1 X84.765 Y86.355 E47.19137
G1 X84.291 Y86.876 E47.22651
G1 X83.761 Y87.34 E47.26166
G1 X83.182 Y87.74 E47.29677
G1 X82.561 Y88.072 E47.3319
G1 X81.907 Y88.332 E47.36701
G1 X81.227 Y88.516 E47.40215
G1 X80.531 Y88.622 E47.43728
G1 X79.95 Y88.649 E47.4663
G1 X40.051 Y88.649 E49.45687
G1 X39.348 Y88.609 E49.49199
G1 X38.654 Y88.49 E49.52712
G1 X37.979 Y88.292 E49.56222
G1 X37.33 Y88.02 E49.59733
G1 X36.716 Y87.675 E49.63246
G1 X36.145 Y87.264 E49.66756
G1 X35.624 Y86.79 E49.7027
G1 X35.16 Y86.26 E49.73785
G1 X34.76 Y85.681 E49.77296
G1 X34.428 Y85.06 E49.80809
G1 X34.168 Y84.406 E49.8432
G1 X33.984 Y83.726 E49.87834
G1 X33.878 Y83.03 E49.91347
G1 X33.851 Y82.449 E49.94249
G1 X33.851 Y39.351 E52.09265
G1 X33.891 Y38.648 E52.12778
G1 X34.01 Y37.954 E52.16291
G1 X34.208 Y37.279 E52.19801
G1 X34.48 Y36.63 E52.23312
G1 X34.825 Y36.016 E52.26825
G1 X35.236 Y35.445 E52.30335
G1 X35.71 Y34.924 E52.33849
G1 X36.24 Y34.46 E52.37364
G0 F3600 X36.629 Y34.668
G1 F1800 X37.201 Y34.299 E52.4076
G1 X37.813 Y34 E52.44158
G1 X38.455 Y33.775 E52.47552
G1 X39.12 Y33.626 E52.50952
G1 X40.051 Y33.551 E52.55611
G1 X79.95 Y33.551 E54.54668
G1 X80.63 Y33.591 E54.58067
G1 X81.3 Y33.71 E54.61462
G1 X81.952 Y33.907 E54.6486
G1 X82.576 Y34.179 E54.68256
G1 X83.164 Y34.523 E54.71655
G1 X83.708 Y34.933 E54.75053
G1 X84.199 Y35.404 E54.78448
G1 X84.633 Y35.929 E54.81846
G1 X85.002 Y36.501 E54.85242
G1 X85.301 Y37.113 E54.8864
G1 X85.526 Y37.755 E54.92034
G1 X85.675 Y38.42 E54.95434
G1 X85.75 Y39.351 E55.00094
G1 X85.75 Y82.449 E57.15111
G1 X85.71 Y83.129 E57.18509
G1 X85.591 Y83.799 E57.21904
G1 X85.394 Y84.451 E57.25302
G1 X85.122 Y85.075 E57.28698
G1 X84.778 Y85.663 E57.32097
G1 X84.368 Y86.207 E57.35495
G1 X83.897 Y86.698 E57.3889
G1 X83.372 Y87.132 E57.42288
G1 X82.8 Y87.501 E57.45684
G1 X82.188 Y87.8 E57.49082
G1 X81.546 Y88.025 E57.52476
G1 X80.881 Y88.174 E57.55876
G1 X79.95 Y88.249 E57.60536
G1 X40.051 Y88.249 E59.59593
G1 X39.371 Y88.209 E59.62991
G1 X38.701 Y88.09 E59.66386
G1 X38.049 Y87.893 E59.69784
G1 X37.425 Y87.621 E59.7318
G1 X36.837 Y87.277 E59.76579
G1 X36.293 Y86.867 E59.79978
G1 X35.802 Y86.396 E59.83372
G1 X35.368 Y85.871 E59.8677
G1 X34.999 Y85.299 E59.90166
G1 X34.7 Y84.687 E59.93565
G1 X34.475 Y84.045 E59.96959
G1 X34.326 Y83.38 E60.00359
G1 X34.251 Y82.449 E60.05018
G1 X34.251 Y39.351 E62.20035
G1 X34.291 Y38.671 E62.23434
G1 X34.41 Y38.001 E62.26829
G1 X34.607 Y37.349 E62.30227
G1 X34.879 Y36.725 E62.33623
G1 X35.223 Y36.137 E62.37021
G1 X35.633 Y35.593 E62.4042
G1 X36.104 Y35.102 E62.43814
G1 X36.629 Y34.668 E62.47213
G0 F3600 X37.016 Y34.885
G1 F1800 X37.58 Y34.549 E62.50488
G1 X38.182 Y34.285 E62.53767
G1 X38.811 Y34.095 E62.57046
G1 X39.458 Y33.984 E62.60321
G1 X40.051 Y33.951 E62.63284
G1 X79.95 Y33.951 E64.62341
G1 X80.606 Y33.991 E64.6562
G1 X81.252 Y34.11 E64.68897
G1 X81.879 Y34.307 E64.72176
G1 X82.477 Y34.579 E64.75453
G1 X83.038 Y34.921 E64.78731
G1 X83.553 Y35.329 E64.82009
G1 X84.015 Y35.796 E64.85286
G1 X84.416 Y36.316 E64.88562
G1 X84.752 Y36.88 E64.91838
G1 X85.016 Y37.482 E64.95117
G1 X85.206 Y38.111 E64.98395
G1 X85.317 Y38.758 E65.0167
G1 X85.35 Y39.351 E65.04633
G1 X85.35 Y82.449 E67.1965
G1 X85.31 Y83.105 E67.22929
G1 X85.191 Y83.751 E67.26206
G1 X84.994 Y84.378 E67.29485
G1 X84.722 Y84.976 E67.32763
G1 X84.38 Y85.537 E67.36041
G1 X83.972 Y86.052 E67.39319
G1 X83.505 Y86.514 E67.42596
G1 X82.985 Y86.915 E67.45872
G1 X82.421 Y87.251 E67.49147
G1 X81.819 Y87.515 E67.52427
G1 X81.19 Y87.705 E67.55705
G1 X80.543 Y87.816 E67.5898
G1 X79.95 Y87.849 E67.61943
G1 X40.051 Y87.849 E69.61
G1 X39.395 Y87.809 E69.64279
G1 X38.749 Y87.69 E69.67556
G1 X38.122 Y87.493 E69.70835
G1 X37.524 Y87.221 E69.74112
G1 X36.963 Y86.879 E69.7739
G1 X36.448 Y86.471 E69.80668
G1 X35.986 Y86.004 E69.83946
G1 X35.585 Y85.484 E69.87222
G1 X35.249 Y84.92 E69.90497
G1 X34.985 Y84.318 E69.93776
G1 X34.795 Y83.689 E69.97055
G1 X34.684 Y83.042 E70.0033
G1 X34.651 Y82.449 E70.03293
G1 X34.651 Y39.351 E72.1831
G1 X34.691 Y38.695 E72.21588
G1 X34.81 Y38.049 E72.24866
G1 X35.007 Y37.422 E72.28144
G1 X35.279 Y36.824 E72.31422
G1 X35.621 Y36.263 E72.347
G1 X36.029 Y35.748 E72.37978
G1 X36.496 Y35.286 E72.41255
G1 X37.016 Y34.885 E72.44531
G0 F3600 X37.401 Y35.111
G1 F1800 X37.957 Y34.811 E72.47683
G1 X38.546 Y34.583 E72.50834
G1 X39.16 Y34.431 E72.5399
G1 X40.051 Y34.351 E72.58453
G1 X79.95 Y34.351 E74.5751
G1 X80.581 Y34.391 E74.60664
G1 X81.202 Y34.51 E74.63819
G1 X81.802 Y34.707 E74.6697
G1 X82.374 Y34.978 E74.70127
G1 X82.906 Y35.318 E74.73277
G1 X83.391 Y35.724 E74.76433
G1 X83.821 Y36.187 E74.79585
G1 X84.19 Y36.701 E74.82742
G1 X84.49 Y37.257 E74.85894
G1 X84.718 Y37.846 E74.89045
G1 X84.87 Y38.46 E74.92201
G1 X84.95 Y39.351 E74.96664
G1 X84.95 Y82.449 E77.11681
G1 X84.91 Y83.08 E77.14835
G1 X84.791 Y83.701 E77.17989
G1 X84.594 Y84.301 E77.2114
G1 X84.323 Y84.873 E77.24298
G1 X83.983 Y85.405 E77.27448
G1 X83.577 Y85.89 E77.30603
G1 X83.114 Y86.32 E77.33756
G1 X82.6 Y86.689 E77.36913
G1 X82.044 Y86.989 E77.40064
G1 X81.455 Y87.217 E77.43215
G1 X80.841 Y87.369 E77.46371
G1 X79.95 Y87.449 E77.50834
G1 X40.051 Y87.449 E79.49891
G1 X39.42 Y87.409 E79.53046
G1 X38.799 Y87.29 E79.562
G1 X38.199 Y87.093 E79.59351
G1 X37.627 Y86.822 E79.62509
G1 X37.095 Y86.482 E79.65659
G1 X36.61 Y86.076 E79.68814
G1 X36.18 Y85.613 E79.71967
G1 X35.811 Y85.099 E79.75123
G1 X35.511 Y84.543 E79.78275
G1 X35.283 Y83.954 E79.81426
G1 X35.131 Y83.34 E79.84582
G1 X35.051 Y82.449 E79.89045
G1 X35.051 Y39.351 E82.04062
G1 X35.091 Y38.72 E82.07216
G1 X35.21 Y38.099 E82.10371
G1 X35.407 Y37.499 E82.13521
G1 X35.678 Y36.927 E82.16679
G1 X36.018 Y36.395 E82.19829
G1 X36.424 Y35.91 E82.22985
G1 X36.887 Y35.48 E82.26137
G1 X37.401 Y35.111 E82.29294
G0 F3600 X37.783 Y35.349
G1 F1800 X38.329 Y35.085 E82.3232
G1 X38.905 Y34.896 E82.35344
G1 X39.501 Y34.784 E82.3837
G1 X40.051 Y34.751 E82.41118
G1 X79.95 Y34.751 E84.40175
G1 X80.555 Y34.791 E84.432
G1 X81.149 Y34.91 E84.46223
G1 X81.723 Y35.106 E84.49249
G1 X82.266 Y35.377 E84.52276
G1 X82.769 Y35.716 E84.55303
G1 X83.222 Y36.118 E84.58324
G1 X83.619 Y36.576 E84.61348
G1 X83.952 Y37.083 E84.64374
G1 X84.216 Y37.629 E84.674
G1 X84.405 Y38.205 E84.70424
G1 X84.517 Y38.801 E84.7345
G1 X84.55 Y39.351 E84.76199
G1 X84.55 Y82.449 E86.91216
G1 X84.51 Y83.054 E86.94241
G1 X84.391 Y83.648 E86.97263
G1 X84.195 Y84.222 E87.00289
G1 X83.924 Y84.765 E87.03317
G1 X83.585 Y85.268 E87.06343
G1 X83.183 Y85.721 E87.09364
G1 X82.725 Y86.118 E87.12388
G1 X82.218 Y86.451 E87.15415
G1 X81.672 Y86.715 E87.1844
G1 X81.096 Y86.904 E87.21465
G1 X80.5 Y87.016 E87.2449
G1 X79.95 Y87.049 E87.27239
G1 X40.051 Y87.049 E89.26296
G1 X39.446 Y87.009 E89.29321
G1 X38.852 Y86.89 E89.32343
G1 X38.278 Y86.694 E89.35369
G1 X37.735 Y86.423 E89.38397
G1 X37.232 Y86.084 E89.41423
G1 X36.779 Y85.682 E89.44445
G1 X36.382 Y85.224 E89.47469
G1 X36.049 Y84.717 E89.50495
G1 X35.785 Y84.171 E89.53521
G1 X35.596 Y83.595 E89.56545
G1 X35.484 Y82.999 E89.59571
G1 X35.451 Y82.449 E89.6232
G1 X35.451 Y39.351 E91.77336
G1 X35.491 Y38.746 E91.80361
G1 X35.61 Y38.152 E91.83384
G1 X35.806 Y37.578 E91.8641
G1 X36.077 Y37.035 E91.89437
G1 X36.416 Y36.532 E91.92464
G1 X36.818 Y36.079 E91.95485
G1 X37.276 Y35.682 E91.98509
G1 X37.783 Y35.349 E92.01535
G0 F3600 X38.162 Y35.6
G1 F1800 X38.696 Y35.375 E92.04426
G1 X39.256 Y35.227 E92.07316
G1 X40.051 Y35.151 E92.113
G1 X79.95 Y35.151 E94.10357
G1 X80.528 Y35.191 E94.13248
G1 X81.095 Y35.31 E94.16138
G1 X81.64 Y35.506 E94.19028
G1 X82.153 Y35.775 E94.21918
G1 X82.624 Y36.112 E94.24807
G1 X83.044 Y36.511 E94.27697
