;FLAVOR:RepRap
;TIME:5045
;Filament used: 5.71178m
;Layer height: 0.2
;Generated with Cura_SteamEngine 2.4.0
M190 S50
M104 S205
M109 S205
G28 ;Home
G1 Z15.0 F6000 ;Move the platform down 15mm
;Prime the extruder
G92 E0
G1 F200 E3
G92 E0
;LAYER_COUNT:37
;LAYER:0
M107
G1 F1500 E-6.5
G0 F3600 X29.979 Y18.216 Z0.3
;TYPE:SKIRT
G1 F1500 E0
G1 F1800 X30.397 Y17.545 E0.03944
G1 X30.88 Y16.921 E0.07881
G1 X31.285 Y16.484 E0.10853
G1 X31.484 Y16.285 E0.12257
G1 X32.07 Y15.755 E0.16199
G1 X32.706 Y15.288 E0.20136
G1 X33.386 Y14.887 E0.24074
G1 X34.104 Y14.557 E0.28017
G1 X34.851 Y14.302 E0.31955
G1 X35.62 Y14.123 E0.35894
G1 X36.404 Y14.023 E0.39837
G1 X36.999 Y14 E0.42808
G1 X83.001 Y13.999 E2.72313
G1 X83.79 Y14.039 E2.76254
G1 X84.57 Y14.158 E2.8019
G1 X85.335 Y14.356 E2.84133
G1 X86.075 Y14.63 E2.8807
G1 X86.784 Y14.978 E2.9201
G1 X87.455 Y15.395 E2.95951
G1 X88.079 Y15.879 E2.99891
G1 X88.516 Y16.284 E3.02864
G1 X88.715 Y16.483 E3.04268
G1 X89.245 Y17.069 E3.0821
G1 X89.712 Y17.705 E3.12146
G1 X90.113 Y18.385 E3.16085
G1 X90.443 Y19.103 E3.20027
G1 X90.698 Y19.85 E3.23965
G1 X90.877 Y20.619 E3.27904
G1 X90.977 Y21.403 E3.31847
G1 X91 Y21.998 E3.34818
G1 X91.001 Y98.001 E7.13998
G1 X90.961 Y98.79 E7.1794
G1 X90.842 Y99.57 E7.21876
G1 X90.644 Y100.335 E7.25819
G1 X90.37 Y101.075 E7.29755
G1 X90.022 Y101.784 E7.33696
G1 X89.605 Y102.455 E7.37637
G1 X89.121 Y103.079 E7.41577
G1 X88.675 Y103.558 E7.44842
G1 X88.473 Y103.757 E7.46257
G1 X87.883 Y104.282 E7.50197
G1 X87.243 Y104.744 E7.54135
G1 X86.56 Y105.14 E7.58074
G1 X85.84 Y105.464 E7.62013
G1 X85.091 Y105.714 E7.65952
G1 X84.32 Y105.887 E7.69895
G1 X83.536 Y105.981 E7.73834
G1 X82.999 Y106 E7.76515
G1 X36.999 Y106.001 E10.0601
G1 X36.21 Y105.961 E10.09951
G1 X35.43 Y105.842 E10.13888
G1 X34.665 Y105.644 E10.1783
G1 X33.925 Y105.37 E10.21767
G1 X33.216 Y105.022 E10.25707
G1 X32.545 Y104.605 E10.29649
G1 X31.921 Y104.121 E10.33588
G1 X31.442 Y103.675 E10.36854
G1 X31.243 Y103.473 E10.38268
G1 X30.718 Y102.883 E10.42208
G1 X30.256 Y102.243 E10.46146
G1 X29.86 Y101.56 E10.50085
G1 X29.536 Y100.84 E10.54024
G1 X29.286 Y100.091 E10.57964
G1 X29.113 Y99.32 E10.61906
G1 X29.019 Y98.536 E10.65845
G1 X29 Y97.999 E10.68526
G1 X29 Y21.999 E14.47692
G1 X29.04 Y21.21 E14.51633
G1 X29.159 Y20.43 E14.55569
G1 X29.357 Y19.665 E14.59512
G1 X29.631 Y18.925 E14.63449
G1 X29.979 Y18.216 E14.67389
G0 F3600 X30.378 Y18.323
G1 F1800 X30.794 Y17.676 E14.71227
G1 X31.275 Y17.076 E14.75063
G1 X31.567 Y16.766 E14.77188
G1 X31.766 Y16.567 E14.78592
G1 X32.338 Y16.053 E14.82428
G1 X32.96 Y15.6 E14.86267
G1 X33.625 Y15.214 E14.90103
G1 X34.327 Y14.899 E14.93942
G1 X35.058 Y14.659 E14.97781
G1 X35.809 Y14.496 E15.01615
G1 X36.574 Y14.412 E15.05454
G1 X36.999 Y14.4 E15.07575
G1 X83.001 Y14.399 E17.3708
G1 X83.769 Y14.439 E17.40917
G1 X84.529 Y14.558 E17.44755
G1 X85.272 Y14.756 E17.48591
G1 X85.991 Y15.03 E17.5243
G1 X86.677 Y15.377 E17.56265
G1 X87.324 Y15.793 E17.60103
G1 X87.924 Y16.274 E17.63939
G1 X88.234 Y16.566 E17.66064
G1 X88.433 Y16.765 E17.67468
G1 X88.947 Y17.337 E17.71305
G1 X89.4 Y17.959 E17.75144
G1 X89.786 Y18.624 E17.7898
G1 X90.101 Y19.326 E17.82818
G1 X90.341 Y20.057 E17.86657
G1 X90.504 Y20.808 E17.90491
G1 X90.588 Y21.573 E17.9433
G1 X90.6 Y21.998 E17.96452
G1 X90.601 Y98.001 E21.75632
G1 X90.561 Y98.769 E21.79469
G1 X90.442 Y99.529 E21.83307
G1 X90.244 Y100.272 E21.87143
G1 X89.97 Y100.991 E21.90982
G1 X89.623 Y101.677 E21.94817
G1 X89.207 Y102.324 E21.98655
G1 X88.726 Y102.924 E22.02491
G1 X88.394 Y103.273 E22.04894
G1 X88.192 Y103.472 E22.06309
G1 X87.617 Y103.982 E22.10144
G1 X86.992 Y104.43 E22.1398
G1 X86.324 Y104.811 E22.17817
G1 X85.619 Y105.12 E22.21657
G1 X84.887 Y105.355 E22.25492
G1 X84.134 Y105.512 E22.2933
G1 X82.999 Y105.6 E22.3501
G1 X36.999 Y105.601 E24.64504
G1 X36.231 Y105.561 E24.68341
G1 X35.471 Y105.442 E24.72179
G1 X34.728 Y105.244 E24.76015
G1 X34.009 Y104.97 E24.79854
G1 X33.323 Y104.623 E24.83689
G1 X32.676 Y104.207 E24.87527
G1 X32.076 Y103.726 E24.91364
G1 X31.727 Y103.394 E24.93767
G1 X31.528 Y103.192 E24.95181
G1 X31.018 Y102.617 E24.99016
G1 X30.57 Y101.992 E25.02852
G1 X30.189 Y101.324 E25.06689
G1 X29.88 Y100.619 E25.10529
G1 X29.645 Y99.887 E25.14365
G1 X29.488 Y99.134 E25.18202
G1 X29.4 Y97.999 E25.23882
G1 X29.4 Y21.999 E29.03047
G1 X29.44 Y21.231 E29.06884
G1 X29.559 Y20.471 E29.10722
G1 X29.757 Y19.728 E29.14558
G1 X30.031 Y19.009 E29.18397
G1 X30.378 Y18.323 E29.22232
G0 F3600 X30.777 Y18.433
G1 F1800 X31.192 Y17.81 E29.25967
G1 X31.85 Y17.049 E29.30986
G1 X32.049 Y16.85 E29.3239
G1 X32.606 Y16.35 E29.36124
G1 X33.212 Y15.913 E29.39852
G1 X33.862 Y15.542 E29.43586
G1 X34.548 Y15.243 E29.47319
G1 X35.262 Y15.019 E29.51052
G1 X35.995 Y14.872 E29.54782
G1 X36.999 Y14.8 E29.59804
G1 X83.001 Y14.799 E31.89309
G1 X83.748 Y14.839 E31.93041
G1 X84.486 Y14.958 E31.96771
G1 X85.208 Y15.156 E32.00506
G1 X85.904 Y15.429 E32.04236
G1 X86.567 Y15.776 E32.07969
G1 X87.19 Y16.191 E32.11704
G1 X87.951 Y16.849 E32.16723
G1 X88.15 Y17.048 E32.18127
G1 X88.65 Y17.605 E32.21861
G1 X89.087 Y18.211 E32.25588
G1 X89.458 Y18.861 E32.29322
G1 X89.757 Y19.547 E32.33056
G1 X89.981 Y20.261 E32.36789
G1 X90.128 Y20.994 E32.40519
G1 X90.2 Y21.998 E32.45541
G1 X90.201 Y98.001 E36.24721
G1 X90.161 Y98.748 E36.28453
G1 X90.042 Y99.486 E36.32183
G1 X89.844 Y100.208 E36.35918
G1 X89.571 Y100.904 E36.39648
G1 X89.224 Y101.567 E36.43381
G1 X88.809 Y102.19 E36.47116
G1 X88.114 Y102.988 E36.52395
G1 X87.912 Y103.187 E36.5381
G1 X87.351 Y103.682 E36.57543
G1 X86.741 Y104.116 E36.61278
G1 X86.089 Y104.481 E36.65005
G1 X85.401 Y104.775 E36.68738
G1 X84.686 Y104.994 E36.72469
G1 X83.951 Y105.135 E36.76203
G1 X82.999 Y105.2 E36.80963
G1 X36.999 Y105.201 E39.10458
G1 X36.252 Y105.161 E39.1419
G1 X35.514 Y105.042 E39.1792
G1 X34.792 Y104.844 E39.21655
G1 X34.096 Y104.571 E39.25385
G1 X33.433 Y104.224 E39.29118
G1 X32.81 Y103.809 E39.32853
G1 X32.012 Y103.114 E39.38132
G1 X31.813 Y102.912 E39.39547
G1 X31.318 Y102.351 E39.43279
G1 X30.884 Y101.741 E39.47014
G1 X30.519 Y101.089 E39.50742
G1 X30.225 Y100.401 E39.54475
G1 X30.006 Y99.686 E39.58206
G1 X29.865 Y98.951 E39.6194
G1 X29.8 Y97.999 E39.667
G1 X29.8 Y21.999 E43.45866
G1 X29.84 Y21.252 E43.49598
G1 X29.959 Y20.514 E43.53327
G1 X30.157 Y19.792 E43.57062
G1 X30.43 Y19.096 E43.60792
G1 X30.777 Y18.433 E43.64526
G0 F3600 X31.175 Y18.546
G1 F1800 X31.589 Y17.949 E43.6815
G1 X32.133 Y17.332 E43.72254
G1 X32.332 Y17.133 E43.73658
G1 X32.873 Y16.649 E43.7728
G1 X33.464 Y16.226 E43.80906
G1 X34.098 Y15.872 E43.84528
G1 X34.767 Y15.589 E43.88152
G1 X35.463 Y15.381 E43.91776
G1 X36.178 Y15.251 E43.95402
G1 X36.999 Y15.2 E43.99506
G1 X83.001 Y15.199 E46.29011
G1 X83.726 Y15.239 E46.32633
G1 X84.443 Y15.358 E46.36259
G1 X85.142 Y15.556 E46.39884
G1 X85.815 Y15.829 E46.43507
G1 X86.454 Y16.174 E46.4713
G1 X87.051 Y16.588 E46.50755
G1 X87.668 Y17.132 E46.54859
G1 X87.867 Y17.331 E46.56263
G1 X88.351 Y17.872 E46.59884
G1 X88.774 Y18.463 E46.6351
G1 X89.128 Y19.097 E46.67133
G1 X89.411 Y19.766 E46.70757
G1 X89.619 Y20.462 E46.74381
G1 X89.749 Y21.177 E46.78006
G1 X89.8 Y21.998 E46.8211
G1 X89.801 Y98.001 E50.61291
G1 X89.761 Y98.726 E50.64913
G1 X89.642 Y99.443 E50.68539
G1 X89.444 Y100.142 E50.72164
G1 X89.171 Y100.815 E50.75787
G1 X88.826 Y101.454 E50.7941
G1 X88.412 Y102.051 E50.83035
G1 X87.833 Y102.703 E50.87385
G1 X87.631 Y102.902 E50.888
G1 X87.086 Y103.382 E50.92423
G1 X86.492 Y103.8 E50.96047
G1 X85.855 Y104.15 E50.99673
G1 X85.184 Y104.428 E51.03296
G1 X84.487 Y104.63 E51.06917
G1 X83.771 Y104.755 E51.10543
G1 X82.999 Y104.8 E51.14401
G1 X36.999 Y104.801 E53.43896
G1 X36.274 Y104.761 E53.47519
G1 X35.557 Y104.642 E53.51145
G1 X34.858 Y104.444 E53.54769
G1 X34.185 Y104.171 E53.58393
G1 X33.546 Y103.826 E53.62015
G1 X32.949 Y103.412 E53.6564
G1 X32.297 Y102.833 E53.6999
G1 X32.098 Y102.631 E53.71405
G1 X31.618 Y102.086 E53.75028
G1 X31.2 Y101.492 E53.78652
G1 X30.85 Y100.855 E53.82278
G1 X30.572 Y100.184 E53.85902
G1 X30.37 Y99.487 E53.89522
G1 X30.245 Y98.771 E53.93148
G1 X30.2 Y97.999 E53.97006
G1 X30.2 Y21.999 E57.76172
G1 X30.24 Y21.274 E57.79794
G1 X30.359 Y20.557 E57.8342
G1 X30.557 Y19.858 E57.87045
G1 X30.83 Y19.185 E57.90668
G1 X31.175 Y18.546 E57.94291
G0 F3600 X31.574 Y18.664
G1 F1800 X31.985 Y18.093 E57.97801
G1 X32.416 Y17.615 E58.01012
G1 X32.615 Y17.416 E58.02416
G1 X33.14 Y16.947 E58.05928
G1 X33.715 Y16.541 E58.0944
G1 X34.333 Y16.203 E58.12954
G1 X34.984 Y15.936 E58.16465
G1 X35.662 Y15.746 E58.19978
G1 X36.357 Y15.633 E58.23491
G1 X36.999 Y15.6 E58.26698
G1 X83.001 Y15.599 E60.56203
G1 X83.704 Y15.639 E60.59716
G1 X84.398 Y15.758 E60.63229
G1 X85.073 Y15.956 E60.66738
G1 X85.722 Y16.228 E60.70249
G1 X86.336 Y16.573 E60.73762
G1 X86.907 Y16.984 E60.77272
G1 X87.385 Y17.415 E60.80483
G1 X87.584 Y17.614 E60.81887
G1 X88.053 Y18.139 E60.854
G1 X88.459 Y18.714 E60.88911
G1 X88.797 Y19.332 E60.92426
G1 X89.064 Y19.983 E60.95936
G1 X89.254 Y20.661 E60.99449
G1 X89.367 Y21.356 E61.02962
G1 X89.4 Y21.998 E61.06169
G1 X89.401 Y98.001 E64.85349
G1 X89.361 Y98.704 E64.88862
G1 X89.242 Y99.398 E64.92375
G1 X89.044 Y100.073 E64.95885
G1 X88.772 Y100.722 E64.99396
G1 X88.427 Y101.336 E65.02909
G1 X88.016 Y101.907 E65.06419
G1 X87.552 Y102.418 E65.09863
G1 X87.35 Y102.617 E65.11277
G1 X86.821 Y103.082 E65.14791
G1 X86.243 Y103.483 E65.18301
G1 X85.624 Y103.817 E65.2181
G1 X84.97 Y104.078 E65.25323
G1 X84.291 Y104.264 E65.28835
G1 X83.595 Y104.371 E65.32349
G1 X82.999 Y104.4 E65.35326
G1 X36.999 Y104.401 E67.64821
G1 X36.296 Y104.361 E67.68333
G1 X35.602 Y104.242 E67.71846
G1 X34.927 Y104.044 E67.75356
G1 X34.278 Y103.772 E67.78867
G1 X33.664 Y103.427 E67.8238
G1 X33.093 Y103.016 E67.8589
G1 X32.582 Y102.552 E67.89334
G1 X32.383 Y102.35 E67.90749
G1 X31.918 Y101.821 E67.94262
G1 X31.517 Y101.243 E67.97772
G1 X31.183 Y100.624 E68.01281
G1 X30.922 Y99.97 E68.04794
G1 X30.736 Y99.291 E68.08307
G1 X30.629 Y98.595 E68.1182
G1 X30.6 Y97.999 E68.14797
G1 X30.6 Y21.999 E71.93962
G1 X30.64 Y21.296 E71.97475
G1 X30.759 Y20.602 E72.00988
G1 X30.957 Y19.927 E72.04498
G1 X31.229 Y19.278 E72.08008
G1 X31.574 Y18.664 E72.11522
G0 F3600 X31.972 Y18.785
G1 F1800 X32.382 Y18.241 E72.14921
G1 X32.699 Y17.898 E72.17251
G1 X32.898 Y17.699 E72.18655
G1 X33.407 Y17.246 E72.22054
G1 X33.965 Y16.857 E72.25448
G1 X34.565 Y16.535 E72.28845
G1 X35.199 Y16.286 E72.32243
G1 X35.858 Y16.113 E72.35642
G1 X36.532 Y16.019 E72.39038
G1 X36.999 Y16 E72.41369
G1 X83.001 Y15.999 E74.70874
G1 X83.681 Y16.039 E74.74273
G1 X84.351 Y16.158 E74.77668
G1 X85.003 Y16.355 E74.81066
G1 X85.627 Y16.627 E74.84462
G1 X86.215 Y16.971 E74.8786
G1 X86.758 Y17.381 E74.91255
G1 X87.102 Y17.698 E74.93589
G1 X87.301 Y17.897 E74.94993
G1 X87.754 Y18.406 E74.98392
G1 X88.143 Y18.964 E75.01786
G1 X88.465 Y19.564 E75.05183
G1 X88.714 Y20.198 E75.08581
G1 X88.887 Y20.857 E75.11981
G1 X88.981 Y21.531 E75.15376
G1 X89 Y21.998 E75.17707
G1 X89.001 Y98.001 E78.96888
G1 X88.961 Y98.681 E79.00286
G1 X88.842 Y99.351 E79.03681
G1 X88.645 Y100.003 E79.07079
G1 X88.373 Y100.627 E79.10475
G1 X88.029 Y101.215 E79.13874
G1 X87.619 Y101.759 E79.17273
G1 X87.271 Y102.133 E79.19821
G1 X87.069 Y102.332 E79.21236
G1 X86.557 Y102.78 E79.2463
G1 X85.996 Y103.166 E79.28028
G1 X85.393 Y103.483 E79.31426
G1 X84.758 Y103.727 E79.3482
G1 X84.098 Y103.895 E79.38218
G1 X83.423 Y103.984 E79.41615
G1 X82.999 Y104 E79.43732
G1 X36.999 Y104.001 E81.73226
G1 X36.319 Y103.961 E81.76625
G1 X35.649 Y103.842 E81.8002
G1 X34.997 Y103.645 E81.83418
G1 X34.373 Y103.373 E81.86814
G1 X33.785 Y103.029 E81.90213
G1 X33.242 Y102.619 E81.93607
G1 X32.867 Y102.271 E81.9616
G1 X32.668 Y102.069 E81.97574
G1 X32.22 Y101.557 E82.00968
G1 X31.834 Y100.996 E82.04366
G1 X31.517 Y100.393 E82.07765
G1 X31.273 Y99.758 E82.11158
G1 X31.105 Y99.098 E82.14556
G1 X31.016 Y98.423 E82.17953
G1 X31 Y97.999 E82.2007
G1 X31 Y21.999 E85.99235
G1 X31.04 Y21.319 E86.02634
G1 X31.159 Y20.649 E86.06029
G1 X31.356 Y19.997 E86.09427
G1 X31.628 Y19.373 E86.12823
G1 X31.972 Y18.785 E86.16221
G0 F3600 X32.37 Y18.911
G1 F1800 X32.982 Y18.181 E86.20974
G1 X33.181 Y17.982 E86.22378
G1 X33.673 Y17.546 E86.25658
G1 X34.214 Y17.174 E86.28933
G1 X34.796 Y16.87 E86.32209
G1 X35.411 Y16.639 E86.35487
G1 X36.05 Y16.484 E86.38767
G1 X36.999 Y16.4 E86.4352
G1 X83.001 Y16.399 E88.73025
G1 X83.657 Y16.439 E88.76304
G1 X84.303 Y16.558 E88.79581
G1 X84.929 Y16.755 E88.82855
G1 X85.528 Y17.027 E88.86137
G1 X86.089 Y17.369 E88.89415
G1 X86.819 Y17.981 E88.94168
G1 X87.018 Y18.18 E88.95572
G1 X87.454 Y18.672 E88.98852
G1 X87.826 Y19.213 E89.02127
G1 X88.13 Y19.795 E89.05403
G1 X88.361 Y20.41 E89.08681
G1 X88.516 Y21.049 E89.11961
G1 X88.6 Y21.998 E89.16714
G1 X88.601 Y98.001 E92.95895
G1 X88.561 Y98.657 E92.99174
G1 X88.442 Y99.303 E93.02451
G1 X88.245 Y99.929 E93.05725
G1 X87.973 Y100.528 E93.09007
G1 X87.631 Y101.089 E93.12285
G1 X87.224 Y101.604 E93.1556
G1 X86.991 Y101.848 E93.17243
G1 X86.789 Y102.047 E93.18657
G1 X86.294 Y102.479 E93.21935
G1 X85.75 Y102.847 E93.25212
G1 X85.165 Y103.147 E93.28492
G1 X84.548 Y103.373 E93.3177
G1 X83.909 Y103.523 E93.35045
G1 X82.999 Y103.6 E93.39601
G1 X36.999 Y103.601 E95.69096
G1 X36.343 Y103.561 E95.72375
G1 X35.697 Y103.442 E95.75652
G1 X35.071 Y103.245 E95.78926
G1 X34.472 Y102.973 E95.82208
G1 X33.911 Y102.631 E95.85486
G1 X33.396 Y102.224 E95.88761
G1 X33.152 Y101.991 E95.90444
G1 X32.953 Y101.789 E95.91859
G1 X32.521 Y101.294 E95.95137
G1 X32.153 Y100.75 E95.98413
G1 X31.853 Y100.165 E96.01693
G1 X31.627 Y99.548 E96.04972
G1 X31.477 Y98.909 E96.08246
G1 X31.4 Y97.999 E96.12802
G1 X31.4 Y21.999 E99.91968
G1 X31.44 Y21.343 E99.95247
G1 X31.559 Y20.697 E99.98524
G1 X31.756 Y20.07 E100.01803
G1 X32.028 Y19.472 E100.0508
G1 X32.37 Y18.911 E100.08358
G0 F3600 X32.767 Y19.043
G1 F1800 X33.264 Y18.463 E100.12169
G1 X33.463 Y18.264 E100.13573
G1 X33.938 Y17.847 E100.16726
G1 X34.461 Y17.492 E100.1988
G1 X35.025 Y17.206 E100.23035
G1 X35.62 Y16.994 E100.26186
G1 X36.238 Y16.858 E100.29343
G1 X36.999 Y16.8 E100.33151
G1 X83.001 Y16.799 E102.62656
G1 X83.632 Y16.839 E102.6581
G1 X84.253 Y16.958 E102.68965
G1 X84.853 Y17.155 E102.72115
G1 X85.425 Y17.426 E102.75273
G1 X85.957 Y17.766 E102.78423
G1 X86.537 Y18.263 E102.82234
G1 X86.736 Y18.462 E102.83638
G1 X87.153 Y18.937 E102.86791
G1 X87.508 Y19.46 E102.89945
G1 X87.794 Y20.024 E102.931
G1 X88.006 Y20.619 E102.96251
G1 X88.142 Y21.237 E102.99408
G1 X88.2 Y21.998 E103.03216
G1 X88.201 Y98.001 E106.82396
G1 X88.161 Y98.632 E106.8555
G1 X88.042 Y99.253 E106.88705
G1 X87.845 Y99.853 E106.91856
G1 X87.574 Y100.425 E106.95013
G1 X87.234 Y100.957 E106.98163
G1 X86.71 Y101.563 E107.0216
G1 X86.508 Y101.762 E107.03575
G1 X86.031 Y102.176 E107.06726
G1 X85.505 Y102.527 E107.09881
G1 X84.939 Y102.808 E107.13033
G1 X84.342 Y103.016 E107.16187
G1 X83.723 Y103.147 E107.19344
G1 X82.999 Y103.2 E107.22966
G1 X36.999 Y103.201 E109.52461
G1 X36.368 Y103.161 E109.55615
G1 X35.747 Y103.042 E109.5877
G1 X35.147 Y102.845 E109.6192
G1 X34.575 Y102.574 E109.65078
G1 X34.043 Y102.234 E109.68228
G1 X33.437 Y101.71 E109.72225
G1 X33.238 Y101.508 E109.7364
G1 X32.824 Y101.031 E109.76791
G1 X32.473 Y100.505 E109.79945
G1 X32.192 Y99.939 E109.83098
G1 X31.984 Y99.342 E109.86252
G1 X31.853 Y98.723 E109.89409
G1 X31.8 Y97.999 E109.9303
G1 X31.8 Y21.999 E113.72196
G1 X31.84 Y21.368 E113.7535
G1 X31.959 Y20.747 E113.78505
G1 X32.156 Y20.147 E113.81656
G1 X32.427 Y19.575 E113.84813
G1 X32.767 Y19.043 E113.87963
G0 F3600 X33.165 Y19.18
G1 F1800 X33.547 Y18.746 E113.90848
G1 X33.746 Y18.547 E113.92252
G1 X34.202 Y18.148 E113.95275
G1 X34.707 Y17.812 E113.98301
G1 X35.251 Y17.545 E114.01324
G1 X35.826 Y17.352 E114.0435
G1 X36.421 Y17.236 E114.07375
G1 X36.999 Y17.2 E114.10264
G1 X83.001 Y17.199 E116.39769
G1 X83.606 Y17.239 E116.42794
G1 X84.2 Y17.358 E116.45816
G1 X84.774 Y17.554 E116.48842
G1 X85.317 Y17.824 E116.51868
G1 X85.819 Y18.164 E116.54892
G1 X86.254 Y18.546 E116.57781
G1 X86.453 Y18.745 E116.59185
G1 X86.852 Y19.201 E116.62208
G1 X87.188 Y19.706 E116.65234
G1 X87.455 Y20.25 E116.68257
