;FLAVOR:RepRap
;TIME:3212
;Filament used: 3.68073m
;Layer height: 0.2
;Generated with Cura_SteamEngine 2.4.0
M190 S50
M104 S205
M109 S205
G28 ;Home
G1 Z15.0 F6000 ;Move the platform down 15mm
;Prime the extruder
G92 E0
G1 F200 E3
G92 E0
;LAYER_COUNT:95
;LAYER:0
M107
G1 F1500 E-6.5
G0 F3600 X32.226 Y29.643 Z0.3
;TYPE:SKIRT
G1 F1500 E0
G1 F1800 X32.428 Y29.444 E0.01415
G1 X33.018 Y28.919 E0.05355
G1 X33.658 Y28.457 E0.09293
G1 X34.341 Y28.061 E0.13232
G1 X35.061 Y27.737 E0.17171
G1 X35.81 Y27.487 E0.2111
G1 X36.581 Y27.314 E0.25052
G1 X37.365 Y27.22 E0.28992
G1 X37.902 Y27.201 E0.31672
G1 X82.101 Y27.201 E2.52182
G1 X82.89 Y27.241 E2.56124
G1 X83.67 Y27.36 E2.6006
G1 X84.435 Y27.558 E2.64002
G1 X85.175 Y27.832 E2.67939
G1 X85.884 Y28.18 E2.7188
G1 X86.555 Y28.598 E2.75824
G1 X87.179 Y29.081 E2.7976
G1 X87.658 Y29.527 E2.83026
G1 X87.857 Y29.729 E2.8444
G1 X88.382 Y30.319 E2.8838
G1 X88.844 Y30.959 E2.92318
G1 X89.24 Y31.642 E2.96257
G1 X89.564 Y32.362 E3.00196
G1 X89.814 Y33.111 E3.04136
G1 X89.987 Y33.882 E3.08078
G1 X90.081 Y34.666 E3.12017
G1 X90.1 Y35.203 E3.14698
G1 X90.1 Y84.799 E5.62134
G1 X90.06 Y85.588 E5.66075
G1 X89.941 Y86.368 E5.70011
G1 X89.743 Y87.133 E5.73954
G1 X89.469 Y87.873 E5.77891
G1 X89.121 Y88.582 E5.81831
G1 X88.703 Y89.253 E5.85775
G1 X88.22 Y89.877 E5.89712
G1 X87.815 Y90.314 E5.92684
G1 X87.614 Y90.515 E5.94102
G1 X87.028 Y91.045 E5.98044
G1 X86.392 Y91.512 E6.01981
G1 X85.712 Y91.913 E6.05919
G1 X84.994 Y92.243 E6.09862
G1 X84.247 Y92.498 E6.138
G1 X83.478 Y92.677 E6.17739
G1 X82.694 Y92.777 E6.21682
G1 X82.099 Y92.8 E6.24653
G1 X37.902 Y92.8 E8.45152
G1 X37.113 Y92.76 E8.49094
G1 X36.333 Y92.641 E8.5303
G1 X35.568 Y92.443 E8.56973
G1 X34.828 Y92.169 E8.60909
G1 X34.119 Y91.821 E8.6485
G1 X33.448 Y91.403 E8.68794
G1 X32.824 Y90.92 E8.72731
G1 X32.428 Y90.557 E8.75411
G1 X32.226 Y90.358 E8.76825
G1 X31.692 Y89.776 E8.80766
G1 X31.22 Y89.143 E8.84705
G1 X30.814 Y88.465 E8.88648
G1 X30.479 Y87.75 E8.92587
G1 X30.218 Y87.005 E8.96526
G1 X30.033 Y86.237 E9.00467
G1 X29.927 Y85.455 E9.04404
G1 X29.9 Y84.801 E9.07669
G1 X29.9 Y35.2 E11.5513
G1 X29.94 Y34.411 E11.59071
G1 X30.059 Y33.631 E11.63008
G1 X30.257 Y32.866 E11.6695
G1 X30.531 Y32.126 E11.70887
G1 X30.879 Y31.417 E11.74827
G1 X31.297 Y30.746 E11.78771
G1 X31.78 Y30.122 E11.82708
G1 X32.226 Y29.643 E11.85973
G0 F3600 X32.507 Y29.928
G1 F1800 X32.709 Y29.729 E11.87388
G1 X33.284 Y29.219 E11.91223
G1 X33.909 Y28.771 E11.95059
G1 X34.577 Y28.39 E11.98896
G1 X35.282 Y28.081 E12.02736
G1 X36.014 Y27.846 E12.06571
G1 X36.767 Y27.689 E12.10409
G1 X37.902 Y27.601 E12.16088
G1 X82.101 Y27.601 E14.36598
G1 X82.869 Y27.641 E14.40435
G1 X83.629 Y27.76 E14.44273
G1 X84.372 Y27.958 E14.48109
G1 X85.091 Y28.232 E14.51948
G1 X85.777 Y28.579 E14.55783
G1 X86.424 Y28.995 E14.59621
G1 X87.024 Y29.476 E14.63457
G1 X87.373 Y29.808 E14.6586
G1 X87.572 Y30.01 E14.67275
G1 X88.082 Y30.585 E14.7111
G1 X88.53 Y31.21 E14.74946
G1 X88.911 Y31.878 E14.78783
G1 X89.22 Y32.583 E14.82623
G1 X89.455 Y33.315 E14.86458
G1 X89.612 Y34.068 E14.90296
G1 X89.7 Y35.203 E14.95976
G1 X89.7 Y84.799 E17.43411
G1 X89.66 Y85.567 E17.47248
G1 X89.541 Y86.327 E17.51086
G1 X89.343 Y87.07 E17.54922
G1 X89.069 Y87.789 E17.58761
G1 X88.722 Y88.475 E17.62596
G1 X88.306 Y89.122 E17.66433
G1 X87.825 Y89.722 E17.7027
G1 X87.533 Y90.032 E17.72395
G1 X87.332 Y90.233 E17.73813
G1 X86.76 Y90.747 E17.77649
G1 X86.138 Y91.2 E17.81488
G1 X85.473 Y91.586 E17.85325
G1 X84.771 Y91.901 E17.89163
G1 X84.04 Y92.141 E17.93002
G1 X83.289 Y92.304 E17.96836
G1 X82.524 Y92.388 E18.00675
G1 X82.099 Y92.4 E18.02796
G1 X37.902 Y92.4 E20.23296
G1 X37.134 Y92.36 E20.27133
G1 X36.374 Y92.241 E20.30971
G1 X35.631 Y92.043 E20.34807
G1 X34.912 Y91.769 E20.38646
G1 X34.226 Y91.422 E20.42481
G1 X33.579 Y91.006 E20.46319
G1 X32.709 Y90.272 E20.51998
G1 X32.507 Y90.073 E20.53412
G1 X31.988 Y89.505 E20.57251
G1 X31.53 Y88.887 E20.61088
G1 X31.139 Y88.224 E20.64929
G1 X30.819 Y87.525 E20.68764
G1 X30.574 Y86.796 E20.72601
G1 X30.405 Y86.045 E20.76441
G1 X30.316 Y85.281 E20.80279
G1 X30.3 Y84.801 E20.82675
G1 X30.3 Y35.2 E23.30135
G1 X30.34 Y34.432 E23.33972
G1 X30.459 Y33.672 E23.3781
G1 X30.657 Y32.929 E23.41646
G1 X30.931 Y32.21 E23.45485
G1 X31.278 Y31.524 E23.4932
G1 X31.694 Y30.877 E23.53158
G1 X32.175 Y30.277 E23.56994
G1 X32.507 Y29.928 E23.59397
G0 F3600 X32.989 Y30.014
G1 F1800 X33.55 Y29.519 E23.6313
G1 X34.16 Y29.085 E23.66865
G1 X34.812 Y28.72 E23.70593
G1 X35.5 Y28.426 E23.74325
G1 X36.215 Y28.207 E23.78056
G1 X36.95 Y28.066 E23.8179
G1 X37.902 Y28.001 E23.86551
G1 X82.101 Y28.001 E26.0706
G1 X82.848 Y28.041 E26.10792
G1 X83.586 Y28.16 E26.14522
G1 X84.308 Y28.358 E26.18257
G1 X85.004 Y28.631 E26.21987
G1 X85.667 Y28.978 E26.2572
G1 X86.29 Y29.393 E26.29455
G1 X87.088 Y30.088 E26.34734
G1 X87.287 Y30.29 E26.36149
G1 X87.782 Y30.851 E26.39882
G1 X88.216 Y31.461 E26.43617
G1 X88.581 Y32.113 E26.47344
G1 X88.875 Y32.801 E26.51077
G1 X89.094 Y33.516 E26.54808
G1 X89.235 Y34.251 E26.58542
G1 X89.3 Y35.203 E26.63302
G1 X89.3 Y84.799 E29.10738
G1 X89.26 Y85.546 E29.1447
G1 X89.141 Y86.284 E29.18199
G1 X88.943 Y87.006 E29.21934
G1 X88.67 Y87.702 E29.25664
G1 X88.323 Y88.365 E29.29398
G1 X87.908 Y88.988 E29.33132
G1 X87.25 Y89.749 E29.38151
G1 X87.049 Y89.95 E29.3957
G1 X86.492 Y90.45 E29.43304
G1 X85.886 Y90.887 E29.47031
G1 X85.236 Y91.258 E29.50765
G1 X84.55 Y91.557 E29.54499
G1 X83.836 Y91.781 E29.58232
G1 X83.103 Y91.928 E29.61962
G1 X82.099 Y92 E29.66984
G1 X37.902 Y92 E31.87483
G1 X37.155 Y91.96 E31.91215
G1 X36.417 Y91.841 E31.94945
G1 X35.695 Y91.643 E31.9868
G1 X34.999 Y91.37 E32.0241
G1 X34.336 Y91.023 E32.06143
G1 X33.713 Y90.608 E32.09878
G1 X32.989 Y89.987 E32.14637
G1 X32.787 Y89.788 E32.16051
G1 X32.283 Y89.235 E32.19784
G1 X31.841 Y88.632 E32.23514
G1 X31.466 Y87.984 E32.27249
G1 X31.162 Y87.301 E32.30979
G1 X30.932 Y86.589 E32.34712
G1 X30.78 Y85.857 E32.38442
G1 X30.7 Y84.801 E32.43725
G1 X30.7 Y35.2 E34.91186
G1 X30.74 Y34.453 E34.94918
G1 X30.859 Y33.715 E34.98647
G1 X31.057 Y32.993 E35.02382
G1 X31.33 Y32.297 E35.06112
G1 X31.677 Y31.634 E35.09846
G1 X32.092 Y31.011 E35.1358
G1 X32.787 Y30.213 E35.1886
G1 X32.989 Y30.014 E35.20275
G0 F3600 X33.27 Y30.299
G1 F1800 X33.815 Y29.819 E35.23898
G1 X34.409 Y29.401 E35.27521
G1 X35.046 Y29.051 E35.31148
G1 X35.717 Y28.773 E35.34771
G1 X36.414 Y28.571 E35.38392
G1 X37.13 Y28.446 E35.42018
G1 X37.902 Y28.401 E35.45876
G1 X82.101 Y28.401 E37.66386
G1 X82.826 Y28.441 E37.70008
G1 X83.543 Y28.56 E37.73634
G1 X84.242 Y28.758 E37.77259
G1 X84.915 Y29.031 E37.80882
G1 X85.554 Y29.376 E37.84505
G1 X86.151 Y29.79 E37.88129
G1 X86.803 Y30.369 E37.9248
G1 X87.002 Y30.571 E37.93894
G1 X87.482 Y31.116 E37.97518
G1 X87.9 Y31.71 E38.01141
G1 X88.25 Y32.347 E38.04768
G1 X88.528 Y33.018 E38.08391
G1 X88.73 Y33.715 E38.12012
G1 X88.855 Y34.431 E38.15638
G1 X88.9 Y35.203 E38.19496
G1 X88.9 Y84.799 E40.66931
G1 X88.86 Y85.524 E40.70554
G1 X88.741 Y86.241 E40.7418
G1 X88.543 Y86.94 E40.77804
G1 X88.27 Y87.613 E40.81428
G1 X87.925 Y88.252 E40.85051
G1 X87.511 Y88.849 E40.88675
G1 X86.967 Y89.466 E40.92779
G1 X86.766 Y89.667 E40.94197
G1 X86.225 Y90.151 E40.97819
G1 X85.634 Y90.574 E41.01445
G1 X85 Y90.928 E41.05067
G1 X84.331 Y91.211 E41.08691
G1 X83.635 Y91.419 E41.12315
G1 X82.92 Y91.549 E41.15941
G1 X82.099 Y91.6 E41.20045
G1 X37.902 Y91.6 E43.40545
G1 X37.177 Y91.56 E43.44167
G1 X36.46 Y91.441 E43.47793
G1 X35.761 Y91.243 E43.51418
G1 X35.088 Y90.97 E43.55041
G1 X34.449 Y90.625 E43.58664
G1 X33.852 Y90.211 E43.62289
G1 X33.27 Y89.702 E43.66146
G1 X33.068 Y89.503 E43.67561
G1 X32.58 Y88.965 E43.71184
G1 X32.153 Y88.377 E43.7481
G1 X31.794 Y87.746 E43.78432
G1 X31.506 Y87.079 E43.82056
G1 X31.293 Y86.385 E43.85678
G1 X31.158 Y85.671 E43.89304
G1 X31.1 Y84.801 E43.93654
G1 X31.1 Y35.2 E46.41114
G1 X31.14 Y34.475 E46.44737
G1 X31.259 Y33.758 E46.48363
G1 X31.457 Y33.059 E46.51987
G1 X31.73 Y32.386 E46.55611
G1 X32.075 Y31.747 E46.59233
G1 X32.489 Y31.15 E46.62858
G1 X33.068 Y30.498 E46.67208
G1 X33.27 Y30.299 E46.68623
G0 F3600 X33.551 Y30.584
G1 F1800 X34.08 Y30.119 E46.72137
G1 X34.658 Y29.718 E46.75647
G1 X35.277 Y29.384 E46.79156
G1 X35.931 Y29.123 E46.82669
G1 X36.61 Y28.937 E46.86181
G1 X37.306 Y28.83 E46.89694
G1 X37.902 Y28.801 E46.92671
G1 X82.101 Y28.801 E49.13181
G1 X82.804 Y28.841 E49.16694
G1 X83.498 Y28.96 E49.20207
G1 X84.173 Y29.158 E49.23716
G1 X84.822 Y29.43 E49.27227
G1 X85.436 Y29.775 E49.30741
G1 X86.007 Y30.186 E49.34251
G1 X86.518 Y30.65 E49.37694
G1 X86.717 Y30.852 E49.39109
G1 X87.182 Y31.381 E49.42623
G1 X87.583 Y31.959 E49.46132
G1 X87.917 Y32.578 E49.49641
G1 X88.178 Y33.232 E49.53155
G1 X88.364 Y33.911 E49.56667
G1 X88.471 Y34.607 E49.6018
G1 X88.5 Y35.203 E49.63157
G1 X88.5 Y84.799 E52.10592
G1 X88.46 Y85.502 E52.14105
G1 X88.341 Y86.196 E52.17618
G1 X88.143 Y86.871 E52.21128
G1 X87.871 Y87.52 E52.24639
G1 X87.526 Y88.134 E52.28152
G1 X87.115 Y88.705 E52.31662
G1 X86.684 Y89.183 E52.34873
G1 X86.483 Y89.384 E52.36291
G1 X85.958 Y89.853 E52.39804
G1 X85.383 Y90.259 E52.43315
G1 X84.765 Y90.597 E52.46829
G1 X84.114 Y90.864 E52.5034
G1 X83.436 Y91.054 E52.53853
G1 X82.741 Y91.167 E52.57366
G1 X82.099 Y91.2 E52.60573
G1 X37.902 Y91.2 E54.81073
G1 X37.199 Y91.16 E54.84586
G1 X36.505 Y91.041 E54.88098
G1 X35.83 Y90.843 E54.91608
G1 X35.181 Y90.571 E54.95119
G1 X34.567 Y90.226 E54.98632
G1 X33.996 Y89.815 E55.02142
G1 X33.551 Y89.417 E55.05121
G1 X33.349 Y89.218 E55.06536
G1 X32.876 Y88.696 E55.1005
G1 X32.466 Y88.124 E55.13561
G1 X32.123 Y87.509 E55.17074
G1 X31.852 Y86.86 E55.20583
G1 X31.656 Y86.183 E55.24099
G1 X31.538 Y85.489 E55.27611
G1 X31.5 Y84.801 E55.31049
G1 X31.5 Y35.2 E57.78509
G1 X31.54 Y34.497 E57.82022
G1 X31.659 Y33.803 E57.85535
G1 X31.857 Y33.128 E57.89045
G1 X32.129 Y32.479 E57.92555
G1 X32.474 Y31.865 E57.96069
G1 X32.885 Y31.294 E57.99579
G1 X33.349 Y30.783 E58.03023
G1 X33.551 Y30.584 E58.04437
G0 F3600 X33.63 Y31.068
G1 F1800 X33.832 Y30.869 E58.05852
G1 X34.344 Y30.421 E58.09246
G1 X34.905 Y30.035 E58.12644
G1 X35.508 Y29.718 E58.16042
G1 X36.143 Y29.474 E58.19436
G1 X36.803 Y29.306 E58.22834
G1 X37.478 Y29.217 E58.26231
G1 X37.902 Y29.201 E58.28348
G1 X82.101 Y29.201 E60.48857
G1 X82.781 Y29.241 E60.52256
G1 X83.451 Y29.36 E60.55651
G1 X84.103 Y29.557 E60.59049
G1 X84.727 Y29.829 E60.62445
G1 X85.315 Y30.173 E60.65843
G1 X85.859 Y30.583 E60.69242
G1 X86.233 Y30.931 E60.71791
G1 X86.432 Y31.133 E60.73205
G1 X86.88 Y31.645 E60.766
G1 X87.266 Y32.206 E60.79997
G1 X87.583 Y32.809 E60.83396
G1 X87.827 Y33.444 E60.8679
G1 X87.995 Y34.104 E60.90187
G1 X88.084 Y34.779 E60.93584
G1 X88.1 Y35.203 E60.95701
G1 X88.1 Y84.799 E63.43136
G1 X88.06 Y85.479 E63.46535
G1 X87.941 Y86.149 E63.4993
G1 X87.744 Y86.801 E63.53328
G1 X87.472 Y87.425 E63.56724
G1 X87.128 Y88.013 E63.60122
G1 X86.718 Y88.557 E63.63521
G1 X86.401 Y88.9 E63.65851
G1 X86.2 Y89.101 E63.67269
G1 X85.691 Y89.554 E63.70669
G1 X85.133 Y89.943 E63.74062
G1 X84.533 Y90.265 E63.7746
G1 X83.899 Y90.514 E63.80858
G1 X83.24 Y90.687 E63.84257
G1 X82.566 Y90.781 E63.87652
G1 X82.099 Y90.8 E63.89984
G1 X37.902 Y90.8 E66.10484
G1 X37.222 Y90.76 E66.13882
G1 X36.552 Y90.641 E66.17277
G1 X35.9 Y90.444 E66.20675
G1 X35.276 Y90.172 E66.24071
G1 X34.688 Y89.828 E66.2747
G1 X34.144 Y89.418 E66.30868
G1 X33.832 Y89.132 E66.3298
G1 X33.63 Y88.933 E66.34395
G1 X33.173 Y88.427 E66.37796
G1 X32.78 Y87.872 E66.41189
G1 X32.454 Y87.274 E66.44587
G1 X32.2 Y86.642 E66.47985
G1 X32.022 Y85.985 E66.51381
G1 X31.923 Y85.311 E66.5478
G1 X31.9 Y84.801 E66.57327
G1 X31.9 Y35.2 E69.04787
G1 X31.94 Y34.52 E69.08186
G1 X32.059 Y33.85 E69.11581
G1 X32.256 Y33.198 E69.14979
G1 X32.528 Y32.574 E69.18375
G1 X32.872 Y31.986 E69.21773
G1 X33.282 Y31.442 E69.25172
G1 X33.63 Y31.068 E69.27721
G0 F3600 X33.91 Y31.353
G1 F1800 X34.112 Y31.154 E69.29135
G1 X34.607 Y30.722 E69.32413
G1 X35.151 Y30.354 E69.3569
G1 X35.736 Y30.054 E69.3897
G1 X36.353 Y29.828 E69.42248
G1 X36.992 Y29.678 E69.45523
G1 X37.902 Y29.601 E69.50079
G1 X82.101 Y29.601 E71.70589
G1 X82.757 Y29.641 E71.73867
G1 X83.403 Y29.76 E71.77145
G1 X84.03 Y29.957 E71.80423
G1 X84.628 Y30.229 E71.83701
G1 X85.189 Y30.571 E71.86979
G1 X85.704 Y30.979 E71.90257
G1 X85.948 Y31.211 E71.91937
G1 X86.147 Y31.413 E71.93351
G1 X86.579 Y31.908 E71.96629
G1 X86.947 Y32.452 E71.99906
G1 X87.247 Y33.037 E72.03186
G1 X87.473 Y33.654 E72.06464
G1 X87.623 Y34.293 E72.09739
G1 X87.7 Y35.203 E72.14295
G1 X87.7 Y84.799 E74.6173
G1 X87.66 Y85.455 E74.65009
G1 X87.541 Y86.101 E74.68286
G1 X87.344 Y86.728 E74.71565
G1 X87.072 Y87.326 E74.74843
G1 X86.73 Y87.887 E74.78121
G1 X86.118 Y88.617 E74.82873
G1 X85.917 Y88.818 E74.84291
G1 X85.425 Y89.254 E74.87571
G1 X84.884 Y89.626 E74.90847
G1 X84.302 Y89.93 E74.94123
G1 X83.687 Y90.161 E74.974
G1 X83.048 Y90.316 E75.00681
G1 X82.099 Y90.4 E75.05434
G1 X37.902 Y90.4 E77.25933
G1 X37.246 Y90.36 E77.29212
G1 X36.6 Y90.241 E77.32489
G1 X35.973 Y90.044 E77.35768
G1 X35.375 Y89.772 E77.39046
G1 X34.814 Y89.43 E77.42324
G1 X34.112 Y88.847 E77.46876
G1 X33.91 Y88.648 E77.48291
G1 X33.471 Y88.159 E77.51569
G1 X33.095 Y87.621 E77.54844
G1 X32.786 Y87.041 E77.58123
G1 X32.551 Y86.427 E77.61403
G1 X32.391 Y85.79 E77.64679
G1 X32.311 Y85.138 E77.67957
G1 X32.3 Y84.801 E77.69639
G1 X32.3 Y35.2 E80.17099
G1 X32.34 Y34.544 E80.20378
G1 X32.459 Y33.898 E80.23655
G1 X32.656 Y33.271 E80.26934
G1 X32.928 Y32.673 E80.30212
G1 X33.27 Y32.112 E80.3349
G1 X33.678 Y31.597 E80.36768
G1 X33.91 Y31.353 E80.38447
G0 F3600 X34.393 Y31.439
G1 F1800 X34.87 Y31.025 E80.41598
G1 X35.396 Y30.674 E80.44753
G1 X35.962 Y30.393 E80.47906
G1 X36.559 Y30.185 E80.5106
G1 X37.178 Y30.054 E80.54217
G1 X37.902 Y30.001 E80.57838
G1 X82.101 Y30.001 E82.78348
G1 X82.732 Y30.041 E82.81502
G1 X83.353 Y30.16 E82.84657
G1 X83.953 Y30.357 E82.87808
G1 X84.525 Y30.628 E82.90965
G1 X85.057 Y30.968 E82.94115
G1 X85.663 Y31.492 E82.98112
G1 X85.862 Y31.694 E82.99527
G1 X86.276 Y32.171 E83.02678
G1 X86.627 Y32.697 E83.05833
G1 X86.908 Y33.263 E83.08985
G1 X87.116 Y33.86 E83.12139
G1 X87.247 Y34.479 E83.15296
G1 X87.3 Y35.203 E83.18918
G1 X87.3 Y84.799 E85.66353
G1 X87.26 Y85.43 E85.69508
G1 X87.141 Y86.051 E85.72662
G1 X86.944 Y86.651 E85.75813
G1 X86.673 Y87.223 E85.78971
G1 X86.333 Y87.755 E85.8212
G1 X85.836 Y88.335 E85.85931
G1 X85.635 Y88.536 E85.87349
G1 X85.16 Y88.953 E85.90503
G1 X84.637 Y89.308 E85.93656
G1 X84.073 Y89.594 E85.96811
G1 X83.478 Y89.806 E85.99962
G1 X82.86 Y89.942 E86.03119
G1 X82.099 Y90 E86.06927
G1 X37.902 Y90 E88.27427
G1 X37.271 Y89.96 E88.30581
G1 X36.65 Y89.841 E88.33736
G1 X36.05 Y89.644 E88.36886
G1 X35.478 Y89.373 E88.40044
G1 X34.946 Y89.033 E88.43194
G1 X34.393 Y88.562 E88.46818
G1 X34.191 Y88.363 E88.48233
G1 X33.77 Y87.892 E88.51384
G1 X33.411 Y87.371 E88.54541
G1 X33.121 Y86.809 E88.57696
G1 X32.904 Y86.216 E88.60847
G1 X32.764 Y85.599 E88.64003
G1 X32.7 Y84.801 E88.67997
G1 X32.7 Y35.2 E91.15457
G1 X32.74 Y34.569 E91.18612
G1 X32.859 Y33.948 E91.21766
G1 X33.056 Y33.348 E91.24917
G1 X33.327 Y32.776 E91.28075
G1 X33.667 Y32.244 E91.31225
G1 X34.191 Y31.638 E91.35222
G1 X34.393 Y31.439 E91.36636
G0 F3600 X34.674 Y31.724
G1 F1800 X35.133 Y31.328 E91.39661
G1 X35.64 Y30.996 E91.42684
G1 X36.186 Y30.733 E91.45708
G1 X36.763 Y30.544 E91.48737
G1 X37.359 Y30.433 E91.51761
G1 X37.902 Y30.401 E91.54475
G1 X82.101 Y30.401 E93.74985
G1 X82.706 Y30.441 E93.7801
G1 X83.3 Y30.56 E93.81032
G1 X83.874 Y30.756 E93.84058
G1 X84.417 Y31.027 E93.87086
G1 X84.92 Y31.366 E93.90112
G1 X85.378 Y31.773 E93.93169
G1 X85.577 Y31.975 E93.94584
G1 X85.973 Y32.434 E93.97608
G1 X86.305 Y32.941 E94.00632
G1 X86.568 Y33.487 E94.03655
G1 X86.757 Y34.064 E94.06684
G1 X86.868 Y34.66 E94.09709
G1 X86.9 Y35.203 E94.12423
G1 X86.9 Y84.799 E96.59858
G1 X86.86 Y85.404 E96.62883
G1 X86.741 Y85.998 E96.65905
G1 X86.545 Y86.572 E96.68931
G1 X86.274 Y87.115 E96.71959
G1 X85.935 Y87.618 E96.74985
G1 X85.553 Y88.052 E96.7787
G1 X85.352 Y88.253 E96.79288
G1 X84.896 Y88.652 E96.82311
G1 X84.391 Y88.988 E96.85337
G1 X83.847 Y89.255 E96.8836
G1 X83.272 Y89.448 E96.91386
