;FLAVOR:RepRap
;TIME:7253
;Filament used: 7.78937m
;Layer height: 0.2
;Generated with Cura_SteamEngine 2.4.0
M190 S50
M104 S205
M109 S205
G28 ;Home
G1 Z15.0 F6000 ;Move the platform down 15mm
;Prime the extruder
G92 E0
G1 F200 E3
G92 E0
;LAYER_COUNT:74
;LAYER:0
M107
G1 F1500 E-6.5
G0 F3600 X20.92 Y33.434 Z0.3
;TYPE:SKIRT
G1 F1500 E0
G1 F1800 X21.611 Y33.05 E0.03944
G1 X22.336 Y32.738 E0.07882
G1 X23.089 Y32.501 E0.1182
G1 X23.863 Y32.342 E0.15762
G1 X24.648 Y32.261 E0.19699
G1 X25.05 Y32.251 E0.21706
G1 X94.949 Y32.251 E3.70433
G1 X95.738 Y32.291 E3.74375
G1 X96.518 Y32.41 E3.78311
G1 X97.283 Y32.608 E3.82253
G1 X98.023 Y32.882 E3.8619
G1 X98.732 Y33.23 E3.90131
G1 X99.403 Y33.648 E3.94075
G1 X100.027 Y34.131 E3.98011
G1 X100.6 Y34.674 E4.0195
G1 X101.115 Y35.273 E4.05891
G1 X101.566 Y35.921 E4.0983
G1 X101.95 Y36.612 E4.13774
G1 X102.262 Y37.337 E4.17711
G1 X102.499 Y38.09 E4.2165
G1 X102.658 Y38.864 E4.25592
G1 X102.739 Y39.649 E4.29529
G1 X102.749 Y40.051 E4.31535
G1 X102.749 Y79.949 E6.30587
G1 X102.709 Y80.738 E6.34529
G1 X102.59 Y81.518 E6.38465
G1 X102.392 Y82.283 E6.42408
G1 X102.118 Y83.023 E6.46344
G1 X101.77 Y83.732 E6.50285
G1 X101.352 Y84.403 E6.54229
G1 X100.869 Y85.027 E6.58166
G1 X100.326 Y85.6 E6.62104
G1 X99.727 Y86.115 E6.66045
G1 X99.079 Y86.566 E6.69984
G1 X98.388 Y86.95 E6.73928
G1 X97.663 Y87.262 E6.77866
G1 X96.91 Y87.499 E6.81804
G1 X96.136 Y87.658 E6.85746
G1 X95.351 Y87.739 E6.89683
G1 X94.949 Y87.749 E6.9169
G1 X25.05 Y87.749 E10.40417
G1 X24.261 Y87.709 E10.44358
G1 X23.481 Y87.59 E10.48295
G1 X22.716 Y87.392 E10.52237
G1 X21.976 Y87.118 E10.56174
G1 X21.267 Y86.77 E10.60114
G1 X20.596 Y86.352 E10.64058
G1 X19.972 Y85.869 E10.67995
G1 X19.399 Y85.326 E10.71934
G1 X18.884 Y84.727 E10.75875
G1 X18.433 Y84.079 E10.79814
G1 X18.049 Y83.388 E10.83758
G1 X17.737 Y82.663 E10.87695
G1 X17.5 Y81.91 E10.91634
G1 X17.341 Y81.136 E10.95576
G1 X17.26 Y80.351 E10.99513
G1 X17.25 Y79.949 E11.01519
G1 X17.25 Y40.051 E13.00571
G1 X17.29 Y39.262 E13.04513
G1 X17.409 Y38.482 E13.08449
G1 X17.607 Y37.717 E13.12391
G1 X17.881 Y36.977 E13.16328
G1 X18.229 Y36.268 E13.20269
G1 X18.647 Y35.597 E13.24213
G1 X19.13 Y34.973 E13.28149
G1 X19.673 Y34.4 E13.32088
G1 X20.272 Y33.885 E13.36029
G1 X20.92 Y33.434 E13.39968
G0 F3600 X21.303 Y33.67
G1 F1800 X21.986 Y33.315 E13.43808
G1 X22.701 Y33.034 E13.47641
G1 X23.443 Y32.828 E13.51483
G1 X24.201 Y32.7 E13.55318
G1 X25.05 Y32.651 E13.59561
G1 X94.949 Y32.651 E17.08288
G1 X95.717 Y32.691 E17.12125
G1 X96.477 Y32.81 E17.15963
G1 X97.22 Y33.008 E17.19799
G1 X97.939 Y33.282 E17.23638
G1 X98.625 Y33.629 E17.27473
G1 X99.272 Y34.045 E17.31311
G1 X99.872 Y34.526 E17.35147
G1 X100.419 Y35.067 E17.38985
G1 X100.907 Y35.662 E17.42825
G1 X101.33 Y36.304 E17.4666
G1 X101.685 Y36.987 E17.50501
G1 X101.966 Y37.702 E17.54333
G1 X102.172 Y38.444 E17.58175
G1 X102.3 Y39.202 E17.6201
G1 X102.349 Y40.051 E17.66253
G1 X102.349 Y79.949 E19.65305
G1 X102.309 Y80.717 E19.69142
G1 X102.19 Y81.477 E19.7298
G1 X101.992 Y82.22 E19.76816
G1 X101.718 Y82.939 E19.80655
G1 X101.371 Y83.625 E19.8449
G1 X100.955 Y84.272 E19.88328
G1 X100.474 Y84.872 E19.92164
G1 X99.933 Y85.419 E19.96002
G1 X99.338 Y85.907 E19.99842
G1 X98.696 Y86.33 E20.03677
G1 X98.013 Y86.685 E20.07518
G1 X97.298 Y86.966 E20.1135
G1 X96.556 Y87.172 E20.15192
G1 X95.798 Y87.3 E20.19027
G1 X94.949 Y87.349 E20.2327
G1 X25.05 Y87.349 E23.71998
G1 X24.282 Y87.309 E23.75834
G1 X23.522 Y87.19 E23.79672
G1 X22.779 Y86.992 E23.83508
G1 X22.06 Y86.718 E23.87347
G1 X21.374 Y86.371 E23.91183
G1 X20.727 Y85.955 E23.9502
G1 X20.127 Y85.474 E23.98857
G1 X19.58 Y84.933 E24.02695
G1 X19.092 Y84.338 E24.06534
G1 X18.669 Y83.696 E24.1037
G1 X18.314 Y83.013 E24.1421
G1 X18.033 Y82.298 E24.18043
G1 X17.827 Y81.556 E24.21885
G1 X17.699 Y80.798 E24.2572
G1 X17.65 Y79.949 E24.29963
G1 X17.65 Y40.051 E26.29015
G1 X17.69 Y39.283 E26.32851
G1 X17.809 Y38.523 E26.36689
G1 X18.007 Y37.78 E26.40525
G1 X18.281 Y37.061 E26.44364
G1 X18.628 Y36.375 E26.482
G1 X19.044 Y35.728 E26.52037
G1 X19.525 Y35.128 E26.55874
G1 X20.066 Y34.581 E26.59712
G1 X20.661 Y34.093 E26.63551
G1 X21.303 Y33.67 E26.67387
G0 F3600 X21.684 Y33.913
G1 F1800 X22.358 Y33.589 E26.71118
G1 X23.063 Y33.339 E26.7485
G1 X23.791 Y33.165 E26.78584
G1 X24.533 Y33.07 E26.82316
G1 X25.05 Y33.051 E26.84897
G1 X94.949 Y33.051 E30.33625
G1 X95.696 Y33.091 E30.37357
G1 X96.434 Y33.21 E30.41086
G1 X97.156 Y33.408 E30.44821
G1 X97.852 Y33.681 E30.48551
G1 X98.515 Y34.028 E30.52285
G1 X99.138 Y34.443 E30.56019
G1 X99.712 Y34.922 E30.59749
G1 X100.233 Y35.459 E30.63482
G1 X100.692 Y36.049 E30.67211
G1 X101.087 Y36.685 E30.70946
G1 X101.411 Y37.359 E30.74677
G1 X101.661 Y38.064 E30.78409
G1 X101.835 Y38.792 E30.82144
G1 X101.93 Y39.534 E30.85876
G1 X101.949 Y40.051 E30.88457
G1 X101.949 Y79.949 E32.87509
G1 X101.909 Y80.696 E32.91241
G1 X101.79 Y81.434 E32.9497
G1 X101.592 Y82.156 E32.98705
G1 X101.319 Y82.852 E33.02435
G1 X100.972 Y83.515 E33.06169
G1 X100.557 Y84.138 E33.09903
G1 X100.078 Y84.712 E33.13633
G1 X99.541 Y85.233 E33.17366
G1 X98.951 Y85.692 E33.21095
G1 X98.315 Y86.087 E33.2483
G1 X97.641 Y86.411 E33.28561
G1 X96.936 Y86.661 E33.32293
G1 X96.208 Y86.835 E33.36027
G1 X95.466 Y86.93 E33.3976
G1 X94.949 Y86.949 E33.42341
G1 X25.05 Y86.949 E36.91068
G1 X24.303 Y86.909 E36.948
G1 X23.565 Y86.79 E36.9853
G1 X22.843 Y86.592 E37.02265
G1 X22.147 Y86.319 E37.05995
G1 X21.484 Y85.972 E37.09728
G1 X20.861 Y85.557 E37.13463
G1 X20.287 Y85.078 E37.17193
G1 X19.766 Y84.541 E37.20925
G1 X19.307 Y83.951 E37.24655
G1 X18.912 Y83.315 E37.2839
G1 X18.588 Y82.641 E37.32121
G1 X18.338 Y81.936 E37.35853
G1 X18.164 Y81.208 E37.39587
G1 X18.069 Y80.466 E37.43319
G1 X18.05 Y79.949 E37.459
G1 X18.05 Y40.051 E39.44952
G1 X18.09 Y39.304 E39.48684
G1 X18.209 Y38.566 E39.52414
G1 X18.407 Y37.844 E39.56149
G1 X18.68 Y37.148 E39.59879
G1 X19.027 Y36.485 E39.63612
G1 X19.442 Y35.862 E39.67347
G1 X19.921 Y35.288 E39.71076
G1 X20.458 Y34.767 E39.74809
G1 X21.048 Y34.308 E39.78539
G1 X21.684 Y33.913 E39.82274
G0 F3600 X22.063 Y34.166
G1 F1800 X22.728 Y33.873 E39.85899
G1 X23.421 Y33.655 E39.89524
G1 X24.133 Y33.515 E39.93144
G1 X25.05 Y33.451 E39.9773
G1 X94.949 Y33.451 E43.46457
G1 X95.674 Y33.491 E43.5008
G1 X96.391 Y33.61 E43.53706
G1 X97.09 Y33.808 E43.57331
G1 X97.763 Y34.081 E43.60954
G1 X98.402 Y34.426 E43.64577
G1 X98.999 Y34.84 E43.68201
G1 X99.547 Y35.316 E43.71823
G1 X100.04 Y35.85 E43.75449
G1 X100.47 Y36.435 E43.79071
G1 X100.834 Y37.064 E43.82697
G1 X101.127 Y37.729 E43.86322
G1 X101.345 Y38.422 E43.89946
G1 X101.485 Y39.134 E43.93567
G1 X101.549 Y40.051 E43.98153
G1 X101.549 Y79.949 E45.97205
G1 X101.509 Y80.674 E46.00827
G1 X101.39 Y81.391 E46.04453
G1 X101.192 Y82.09 E46.08078
G1 X100.919 Y82.763 E46.11701
G1 X100.574 Y83.402 E46.15324
G1 X100.16 Y83.999 E46.18949
G1 X99.684 Y84.547 E46.2257
G1 X99.15 Y85.04 E46.26196
G1 X98.565 Y85.47 E46.29818
G1 X97.936 Y85.834 E46.33444
G1 X97.271 Y86.127 E46.37069
G1 X96.578 Y86.345 E46.40694
G1 X95.866 Y86.485 E46.44314
G1 X94.949 Y86.549 E46.489
G1 X25.05 Y86.549 E49.97627
G1 X24.325 Y86.509 E50.0125
G1 X23.608 Y86.39 E50.04876
G1 X22.909 Y86.192 E50.08501
G1 X22.236 Y85.919 E50.12124
G1 X21.597 Y85.574 E50.15747
G1 X21 Y85.16 E50.19371
G1 X20.452 Y84.684 E50.22993
G1 X19.959 Y84.15 E50.26619
G1 X19.529 Y83.565 E50.30241
G1 X19.165 Y82.936 E50.33866
G1 X18.872 Y82.271 E50.37492
G1 X18.654 Y81.578 E50.41116
G1 X18.514 Y80.866 E50.44737
G1 X18.45 Y79.949 E50.49323
G1 X18.45 Y40.051 E52.48375
G1 X18.49 Y39.326 E52.51997
G1 X18.609 Y38.609 E52.55623
G1 X18.807 Y37.91 E52.59248
G1 X19.08 Y37.237 E52.62871
G1 X19.425 Y36.598 E52.66494
G1 X19.839 Y36.001 E52.70119
G1 X20.315 Y35.453 E52.7374
G1 X20.849 Y34.96 E52.77366
G1 X21.434 Y34.53 E52.80988
G1 X22.063 Y34.166 E52.84614
G0 F3600 X22.439 Y34.428
G1 F1800 X23.093 Y34.168 E52.88125
G1 X23.773 Y33.984 E52.91639
G1 X24.469 Y33.878 E52.95152
G1 X25.05 Y33.851 E52.98054
G1 X94.949 Y33.851 E56.46781
G1 X95.652 Y33.891 E56.50294
G1 X96.346 Y34.01 E56.53807
G1 X97.021 Y34.208 E56.57316
G1 X97.67 Y34.48 E56.60827
G1 X98.284 Y34.825 E56.64341
G1 X98.855 Y35.236 E56.67851
G1 X99.376 Y35.71 E56.71365
G1 X99.84 Y36.24 E56.74879
G1 X100.24 Y36.819 E56.7839
G1 X100.572 Y37.44 E56.81903
G1 X100.832 Y38.094 E56.85414
G1 X101.016 Y38.774 E56.88929
G1 X101.122 Y39.47 E56.92441
G1 X101.149 Y40.051 E56.95343
G1 X101.149 Y79.949 E58.94395
G1 X101.109 Y80.652 E58.97908
G1 X100.99 Y81.346 E59.01421
G1 X100.792 Y82.021 E59.0493
G1 X100.52 Y82.67 E59.08441
G1 X100.175 Y83.284 E59.11955
G1 X99.764 Y83.855 E59.15465
G1 X99.29 Y84.376 E59.18979
G1 X98.76 Y84.84 E59.22493
G1 X98.181 Y85.24 E59.26004
G1 X97.56 Y85.572 E59.29517
G1 X96.906 Y85.832 E59.33029
G1 X96.226 Y86.016 E59.36543
G1 X95.53 Y86.122 E59.40055
G1 X94.949 Y86.149 E59.42957
G1 X25.05 Y86.149 E62.91685
G1 X24.347 Y86.109 E62.95198
G1 X23.653 Y85.99 E62.98711
G1 X22.978 Y85.792 E63.0222
G1 X22.329 Y85.52 E63.05731
G1 X21.715 Y85.175 E63.09245
G1 X21.144 Y84.764 E63.12754
G1 X20.623 Y84.29 E63.16269
G1 X20.159 Y83.76 E63.19783
G1 X19.759 Y83.181 E63.23294
G1 X19.427 Y82.56 E63.26807
G1 X19.167 Y81.906 E63.30318
G1 X18.983 Y81.226 E63.33833
G1 X18.877 Y80.53 E63.37345
G1 X18.85 Y79.949 E63.40247
G1 X18.85 Y40.051 E65.39299
G1 X18.89 Y39.348 E65.42812
G1 X19.009 Y38.654 E65.46325
G1 X19.207 Y37.979 E65.49834
G1 X19.479 Y37.33 E65.53345
G1 X19.824 Y36.716 E65.56859
G1 X20.235 Y36.145 E65.60369
G1 X20.709 Y35.624 E65.63883
G1 X21.239 Y35.16 E65.67397
G1 X21.818 Y34.76 E65.70908
G1 X22.439 Y34.428 E65.74421
G0 F3600 X22.812 Y34.7
G1 F1800 X23.454 Y34.475 E65.77815
G1 X24.119 Y34.326 E65.81215
G1 X25.05 Y34.251 E65.85875
G1 X94.949 Y34.251 E69.34602
G1 X95.629 Y34.291 E69.38001
G1 X96.299 Y34.41 E69.41396
G1 X96.951 Y34.607 E69.44794
G1 X97.575 Y34.879 E69.4819
G1 X98.163 Y35.223 E69.51588
G1 X98.707 Y35.633 E69.54987
G1 X99.198 Y36.104 E69.58381
G1 X99.632 Y36.629 E69.6178
G1 X100.001 Y37.201 E69.65176
G1 X100.3 Y37.813 E69.68574
G1 X100.525 Y38.455 E69.71968
G1 X100.674 Y39.12 E69.75368
G1 X100.749 Y40.051 E69.80028
G1 X100.749 Y79.949 E71.7908
G1 X100.709 Y80.629 E71.82478
G1 X100.59 Y81.299 E71.85873
G1 X100.393 Y81.951 E71.89271
G1 X100.121 Y82.575 E71.92667
G1 X99.777 Y83.163 E71.96066
G1 X99.367 Y83.707 E71.99464
G1 X98.896 Y84.198 E72.02859
G1 X98.371 Y84.632 E72.06257
G1 X97.799 Y85.001 E72.09653
G1 X97.187 Y85.3 E72.13051
G1 X96.545 Y85.525 E72.16445
G1 X95.88 Y85.674 E72.19845
G1 X94.949 Y85.749 E72.24505
G1 X25.05 Y85.749 E75.73233
G1 X24.37 Y85.709 E75.76631
G1 X23.7 Y85.59 E75.80026
G1 X23.048 Y85.393 E75.83424
G1 X22.424 Y85.121 E75.8682
G1 X21.836 Y84.777 E75.90219
G1 X21.292 Y84.367 E75.93617
G1 X20.801 Y83.896 E75.97012
G1 X20.367 Y83.371 E76.0041
G1 X19.998 Y82.799 E76.03806
G1 X19.699 Y82.187 E76.07204
G1 X19.474 Y81.545 E76.10598
G1 X19.325 Y80.88 E76.13998
G1 X19.25 Y79.949 E76.18658
G1 X19.25 Y40.051 E78.1771
G1 X19.29 Y39.371 E78.21108
G1 X19.409 Y38.701 E78.24503
G1 X19.606 Y38.049 E78.27901
G1 X19.878 Y37.425 E78.31297
G1 X20.222 Y36.837 E78.34696
G1 X20.632 Y36.293 E78.38095
G1 X21.103 Y35.802 E78.41489
G1 X21.628 Y35.368 E78.44887
G1 X22.2 Y34.999 E78.48283
G1 X22.812 Y34.7 E78.51682
G0 F3600 X23.181 Y34.985
G1 F1800 X23.81 Y34.795 E78.5496
G1 X24.457 Y34.684 E78.58235
G1 X25.05 Y34.651 E78.61198
G1 X94.949 Y34.651 E82.09925
G1 X95.605 Y34.691 E82.13204
G1 X96.251 Y34.81 E82.16481
G1 X96.878 Y35.007 E82.1976
G1 X97.476 Y35.279 E82.23038
G1 X98.037 Y35.621 E82.26316
G1 X98.552 Y36.029 E82.29594
G1 X99.014 Y36.496 E82.32871
G1 X99.415 Y37.016 E82.36147
G1 X99.751 Y37.58 E82.39422
G1 X100.015 Y38.182 E82.42702
G1 X100.205 Y38.811 E82.4598
G1 X100.316 Y39.458 E82.49255
G1 X100.349 Y40.051 E82.52218
G1 X100.349 Y79.949 E84.5127
G1 X100.309 Y80.605 E84.54549
G1 X100.19 Y81.251 E84.57826
G1 X99.993 Y81.878 E84.61105
G1 X99.721 Y82.476 E84.64383
G1 X99.379 Y83.037 E84.6766
G1 X98.971 Y83.552 E84.70938
G1 X98.504 Y84.014 E84.74216
G1 X97.984 Y84.415 E84.77492
G1 X97.42 Y84.751 E84.80767
G1 X96.818 Y85.015 E84.84047
G1 X96.189 Y85.205 E84.87325
G1 X95.542 Y85.316 E84.906
G1 X94.949 Y85.349 E84.93563
G1 X25.05 Y85.349 E88.4229
G1 X24.394 Y85.309 E88.45569
G1 X23.748 Y85.19 E88.48846
G1 X23.121 Y84.993 E88.52125
G1 X22.523 Y84.721 E88.55403
G1 X21.962 Y84.379 E88.58681
G1 X21.447 Y83.971 E88.61959
G1 X20.985 Y83.504 E88.65236
G1 X20.584 Y82.984 E88.68512
G1 X20.248 Y82.42 E88.71787
G1 X19.984 Y81.818 E88.75067
G1 X19.794 Y81.189 E88.78345
G1 X19.683 Y80.542 E88.8162
G1 X19.65 Y79.949 E88.84583
G1 X19.65 Y40.051 E90.83635
G1 X19.69 Y39.395 E90.86914
G1 X19.809 Y38.749 E90.90191
G1 X20.006 Y38.122 E90.9347
G1 X20.278 Y37.524 E90.96748
G1 X20.62 Y36.963 E91.00025
G1 X21.028 Y36.448 E91.03303
G1 X21.495 Y35.986 E91.06581
G1 X22.015 Y35.585 E91.09857
G1 X22.579 Y35.249 E91.13132
G1 X23.181 Y34.985 E91.16412
G0 F3600 X23.545 Y35.283
G1 F1800 X24.159 Y35.131 E91.19567
G1 X25.05 Y35.051 E91.2403
G1 X94.949 Y35.051 E94.72758
G1 X95.58 Y35.091 E94.75912
G1 X96.201 Y35.21 E94.79067
G1 X96.801 Y35.407 E94.82218
G1 X97.373 Y35.678 E94.85375
G1 X97.905 Y36.018 E94.88525
G1 X98.39 Y36.424 E94.91681
G1 X98.82 Y36.887 E94.94833
G1 X99.189 Y37.401 E94.9799
G1 X99.489 Y37.957 E95.01142
G1 X99.717 Y38.546 E95.04293
G1 X99.869 Y39.16 E95.07449
G1 X99.949 Y40.051 E95.11912
G1 X99.949 Y79.949 E97.10964
G1 X99.909 Y80.58 E97.14118
G1 X99.79 Y81.201 E97.17273
G1 X99.593 Y81.801 E97.20423
G1 X99.322 Y82.373 E97.23581
G1 X98.982 Y82.905 E97.26731
G1 X98.576 Y83.39 E97.29887
G1 X98.113 Y83.82 E97.33039
G1 X97.599 Y84.189 E97.36196
G1 X97.043 Y84.489 E97.39348
G1 X96.454 Y84.717 E97.42499
G1 X95.84 Y84.869 E97.45654
G1 X94.949 Y84.949 E97.50118
G1 X25.05 Y84.949 E100.98845
G1 X24.419 Y84.909 E101.01999
G1 X23.798 Y84.79 E101.05154
G1 X23.198 Y84.593 E101.08305
G1 X22.626 Y84.322 E101.11462
G1 X22.094 Y83.982 E101.14612
G1 X21.609 Y83.576 E101.17768
G1 X21.179 Y83.113 E101.2092
G1 X20.81 Y82.599 E101.24077
G1 X20.51 Y82.043 E101.27229
G1 X20.282 Y81.454 E101.3038
G1 X20.13 Y80.84 E101.33536
G1 X20.05 Y79.949 E101.37999
G1 X20.05 Y40.051 E103.37051
G1 X20.09 Y39.42 E103.40205
G1 X20.209 Y38.799 E103.4336
G1 X20.406 Y38.199 E103.4651
G1 X20.677 Y37.627 E103.49668
G1 X21.017 Y37.095 E103.52818
G1 X21.423 Y36.61 E103.55974
G1 X21.886 Y36.18 E103.59126
G1 X22.4 Y35.811 E103.62283
G1 X22.956 Y35.511 E103.65435
G1 X23.545 Y35.283 E103.68586
G0 F3600 X23.904 Y35.596
G1 F1800 X24.5 Y35.484 E103.71611
G1 X25.05 Y35.451 E103.7436
G1 X94.949 Y35.451 E107.23088
G1 X95.554 Y35.491 E107.26113
G1 X96.148 Y35.61 E107.29135
G1 X96.722 Y35.806 E107.32161
G1 X97.265 Y36.077 E107.35189
G1 X97.768 Y36.416 E107.38215
G1 X98.221 Y36.818 E107.41237
G1 X98.618 Y37.276 E107.4426
G1 X98.951 Y37.783 E107.47287
G1 X99.215 Y38.329 E107.50312
G1 X99.404 Y38.905 E107.53337
G1 X99.516 Y39.501 E107.56362
G1 X99.549 Y40.051 E107.59111
G1 X99.549 Y79.949 E109.58163
G1 X99.509 Y80.554 E109.61188
G1 X99.39 Y81.148 E109.6421
G1 X99.194 Y81.722 E109.67236
G1 X98.923 Y82.265 E109.70264
G1 X98.584 Y82.768 E109.7329
G1 X98.182 Y83.221 E109.76312
G1 X97.724 Y83.618 E109.79336
G1 X97.217 Y83.951 E109.82362
G1 X96.671 Y84.215 E109.85388
G1 X96.095 Y84.404 E109.88412
G1 X95.499 Y84.516 E109.91438
G1 X94.949 Y84.549 E109.94187
G1 X25.05 Y84.549 E113.42914
G1 X24.445 Y84.509 E113.45939
G1 X23.851 Y84.39 E113.48962
G1 X23.277 Y84.194 E113.51988
G1 X22.734 Y83.923 E113.55015
G1 X22.231 Y83.584 E113.58041
G1 X21.778 Y83.182 E113.61063
G1 X21.381 Y82.724 E113.64087
G1 X21.048 Y82.217 E113.67113
G1 X20.784 Y81.671 E113.70139
G1 X20.595 Y81.095 E113.73163
G1 X20.483 Y80.499 E113.76189
G1 X20.45 Y79.949 E113.78938
G1 X20.45 Y40.051 E115.7799
G1 X20.49 Y39.446 E115.81015
G1 X20.609 Y38.852 E115.84037
G1 X20.805 Y38.278 E115.87063
G1 X21.076 Y37.735 E115.90091
G1 X21.415 Y37.232 E115.93117
G1 X21.817 Y36.779 E115.96138
G1 X22.275 Y36.382 E115.99162
G1 X22.782 Y36.049 E116.02189
G1 X23.328 Y35.785 E116.05214
G1 X23.904 Y35.596 E116.08239
G0 F3600 X23.695 Y36.075
G1 F1800 X24.255 Y35.927 E116.11129
G1 X25.05 Y35.851 E116.15113
