;FLAVOR:RepRap
;TIME:5049
;Filament used: 5.71033m
;Layer height: 0.2
;Generated with Cura_SteamEngine 2.4.0
M190 S50
M104 S205
M109 S205
G28 ;Home
G1 Z15.0 F6000 ;Move the platform down 15mm
;Prime the extruder
G92 E0
G1 F200 E3
G92 E0
;LAYER_COUNT:37
;LAYER:0
M107
G1 F1500 E-6.5
G0 F3600 X29.979 Y18.216 Z0.3
;TYPE:SKIRT
G1 F1500 E0
G1 F1800 X30.397 Y17.545 E0.03944
G1 X30.88 Y16.921 E0.07881
G1 X31.326 Y16.442 E0.11146
G1 X31.527 Y16.244 E0.12554
G1 X32.117 Y15.719 E0.16494
G1 X32.757 Y15.257 E0.20432
G1 X33.441 Y14.861 E0.24375
G1 X34.16 Y14.537 E0.28309
G1 X34.91 Y14.287 E0.32254
G1 X35.68 Y14.114 E0.36191
G1 X36.464 Y14.019 E0.40131
G1 X37.001 Y14.001 E0.42812
G1 X83.001 Y14 E2.72307
G1 X83.79 Y14.04 E2.76248
G1 X84.57 Y14.159 E2.80184
G1 X85.335 Y14.357 E2.84127
G1 X86.075 Y14.631 E2.88064
G1 X86.784 Y14.979 E2.92004
G1 X87.455 Y15.396 E2.95945
G1 X88.079 Y15.88 E2.99885
G1 X88.558 Y16.326 E3.0315
G1 X88.757 Y16.528 E3.04565
G1 X89.282 Y17.118 E3.08505
G1 X89.744 Y17.758 E3.12443
G1 X90.14 Y18.441 E3.16382
G1 X90.464 Y19.161 E3.20321
G1 X90.714 Y19.91 E3.24261
G1 X90.887 Y20.681 E3.28203
G1 X90.981 Y21.465 E3.32142
G1 X91 Y22.002 E3.34823
G1 X91.001 Y98.001 E7.13983
G1 X90.961 Y98.79 E7.17925
G1 X90.842 Y99.57 E7.21861
G1 X90.644 Y100.335 E7.25804
G1 X90.37 Y101.075 E7.2974
G1 X90.022 Y101.784 E7.33681
G1 X89.605 Y102.455 E7.37622
G1 X89.121 Y103.079 E7.41562
G1 X88.675 Y103.558 E7.44827
G1 X88.473 Y103.757 E7.46242
G1 X87.883 Y104.282 E7.50182
G1 X87.243 Y104.744 E7.5412
G1 X86.56 Y105.14 E7.58059
G1 X85.84 Y105.464 E7.61998
G1 X85.091 Y105.714 E7.65937
G1 X84.32 Y105.887 E7.6988
G1 X83.536 Y105.981 E7.73819
G1 X82.999 Y106 E7.765
G1 X36.999 Y106.001 E10.05995
G1 X36.21 Y105.961 E10.09936
G1 X35.43 Y105.842 E10.13873
G1 X34.665 Y105.644 E10.17815
G1 X33.925 Y105.37 E10.21752
G1 X33.216 Y105.022 E10.25692
G1 X32.545 Y104.605 E10.29634
G1 X31.921 Y104.121 E10.33573
G1 X31.442 Y103.675 E10.36839
G1 X31.243 Y103.473 E10.38253
G1 X30.718 Y102.883 E10.42193
G1 X30.256 Y102.243 E10.46131
G1 X29.86 Y101.56 E10.5007
G1 X29.536 Y100.84 E10.54009
G1 X29.286 Y100.091 E10.57949
G1 X29.113 Y99.32 E10.61891
G1 X29.019 Y98.536 E10.6583
G1 X29 Y97.999 E10.68511
G1 X29 Y21.999 E14.47677
G1 X29.04 Y21.21 E14.51618
G1 X29.159 Y20.43 E14.55554
G1 X29.357 Y19.665 E14.59497
G1 X29.631 Y18.925 E14.63434
G1 X29.979 Y18.216 E14.67374
G0 F3600 X30.378 Y18.323
G1 F1800 X30.794 Y17.676 E14.71212
G1 X31.275 Y17.076 E14.75048
G1 X31.607 Y16.727 E14.77451
G1 X31.808 Y16.529 E14.78859
G1 X32.383 Y16.019 E14.82693
G1 X33.008 Y15.571 E14.8653
G1 X33.677 Y15.19 E14.90371
G1 X34.381 Y14.88 E14.94209
G1 X35.113 Y14.646 E14.98043
G1 X35.866 Y14.489 E15.0188
G1 X37.001 Y14.401 E15.0756
G1 X83.001 Y14.4 E17.37055
G1 X83.769 Y14.44 E17.40891
G1 X84.529 Y14.559 E17.44729
G1 X85.272 Y14.757 E17.48565
G1 X85.991 Y15.031 E17.52404
G1 X86.677 Y15.378 E17.56239
G1 X87.324 Y15.794 E17.60077
G1 X87.924 Y16.275 E17.63914
G1 X88.273 Y16.607 E17.66317
G1 X88.472 Y16.809 E17.67731
G1 X88.982 Y17.384 E17.71566
G1 X89.43 Y18.009 E17.75402
G1 X89.811 Y18.677 E17.79239
G1 X90.12 Y19.382 E17.83079
G1 X90.355 Y20.114 E17.86915
G1 X90.512 Y20.867 E17.90752
G1 X90.6 Y22.002 E17.96432
G1 X90.601 Y98.001 E21.75592
G1 X90.561 Y98.769 E21.79429
G1 X90.442 Y99.529 E21.83267
G1 X90.244 Y100.272 E21.87103
G1 X89.97 Y100.991 E21.90942
G1 X89.623 Y101.677 E21.94777
G1 X89.207 Y102.324 E21.98615
G1 X88.726 Y102.924 E22.02451
G1 X88.394 Y103.273 E22.04855
G1 X88.192 Y103.472 E22.06269
G1 X87.617 Y103.982 E22.10104
G1 X86.992 Y104.43 E22.1394
G1 X86.324 Y104.811 E22.17777
G1 X85.619 Y105.12 E22.21617
G1 X84.887 Y105.355 E22.25453
G1 X84.134 Y105.512 E22.2929
G1 X82.999 Y105.6 E22.3497
G1 X36.999 Y105.601 E24.64465
G1 X36.231 Y105.561 E24.68301
G1 X35.471 Y105.442 E24.72139
G1 X34.728 Y105.244 E24.75976
G1 X34.009 Y104.97 E24.79814
G1 X33.323 Y104.623 E24.8365
G1 X32.676 Y104.207 E24.87487
G1 X32.076 Y103.726 E24.91324
G1 X31.727 Y103.394 E24.93727
G1 X31.528 Y103.192 E24.95142
G1 X31.018 Y102.617 E24.98976
G1 X30.57 Y101.992 E25.02813
G1 X30.189 Y101.324 E25.06649
G1 X29.88 Y100.619 E25.10489
G1 X29.645 Y99.887 E25.14325
G1 X29.488 Y99.134 E25.18163
G1 X29.4 Y97.999 E25.23842
G1 X29.4 Y21.999 E29.03008
G1 X29.44 Y21.231 E29.06844
G1 X29.559 Y20.471 E29.10682
G1 X29.757 Y19.728 E29.14518
G1 X30.031 Y19.009 E29.18357
G1 X30.378 Y18.323 E29.22193
G0 F3600 X30.777 Y18.433
G1 F1800 X31.192 Y17.81 E29.25927
G1 X31.888 Y17.012 E29.3121
G1 X32.089 Y16.814 E29.32618
G1 X32.649 Y16.318 E29.3635
G1 X33.259 Y15.885 E29.40082
G1 X33.911 Y15.52 E29.4381
G1 X34.599 Y15.226 E29.47542
G1 X35.315 Y15.007 E29.51278
G1 X36.049 Y14.866 E29.55007
G1 X37.001 Y14.801 E29.59767
G1 X83.001 Y14.8 E31.89262
G1 X83.748 Y14.84 E31.92994
G1 X84.486 Y14.959 E31.96724
G1 X85.208 Y15.157 E32.00459
G1 X85.904 Y15.43 E32.04189
G1 X86.567 Y15.777 E32.07922
G1 X87.19 Y16.192 E32.11657
G1 X87.988 Y16.887 E32.16936
G1 X88.187 Y17.089 E32.18351
G1 X88.682 Y17.65 E32.22084
G1 X89.116 Y18.26 E32.25819
G1 X89.481 Y18.912 E32.29546
G1 X89.775 Y19.6 E32.33279
G1 X89.994 Y20.315 E32.3701
G1 X90.135 Y21.05 E32.40744
G1 X90.2 Y22.002 E32.45504
G1 X90.201 Y98.001 E36.24665
G1 X90.161 Y98.748 E36.28397
G1 X90.042 Y99.486 E36.32126
G1 X89.844 Y100.208 E36.35861
G1 X89.571 Y100.904 E36.39591
G1 X89.224 Y101.567 E36.43325
G1 X88.809 Y102.19 E36.47059
G1 X88.114 Y102.988 E36.52339
G1 X87.912 Y103.187 E36.53754
G1 X87.351 Y103.682 E36.57486
G1 X86.741 Y104.116 E36.61221
G1 X86.089 Y104.481 E36.64949
G1 X85.401 Y104.775 E36.68682
G1 X84.686 Y104.994 E36.72412
G1 X83.951 Y105.135 E36.76146
G1 X82.999 Y105.2 E36.80907
G1 X36.999 Y105.201 E39.10402
G1 X36.252 Y105.161 E39.14134
G1 X35.514 Y105.042 E39.17863
G1 X34.792 Y104.844 E39.21598
G1 X34.096 Y104.571 E39.25328
G1 X33.433 Y104.224 E39.29062
G1 X32.81 Y103.809 E39.32796
G1 X32.012 Y103.114 E39.38076
G1 X31.813 Y102.912 E39.3949
G1 X31.318 Y102.351 E39.43223
G1 X30.884 Y101.741 E39.46958
G1 X30.519 Y101.089 E39.50686
G1 X30.225 Y100.401 E39.54419
G1 X30.006 Y99.686 E39.58149
G1 X29.865 Y98.951 E39.61883
G1 X29.8 Y97.999 E39.66644
G1 X29.8 Y21.999 E43.45809
G1 X29.84 Y21.252 E43.49541
G1 X29.959 Y20.514 E43.53271
G1 X30.157 Y19.792 E43.57006
G1 X30.43 Y19.096 E43.60736
G1 X30.777 Y18.433 E43.64469
G0 F3600 X31.175 Y18.546
G1 F1800 X31.589 Y17.949 E43.68094
G1 X32.168 Y17.297 E43.72444
G1 X32.369 Y17.099 E43.73852
G1 X32.914 Y16.619 E43.77475
G1 X33.508 Y16.201 E43.81099
G1 X34.145 Y15.851 E43.84725
G1 X34.816 Y15.573 E43.88348
G1 X35.514 Y15.371 E43.91974
G1 X36.229 Y15.246 E43.95595
G1 X37.001 Y15.201 E43.99453
G1 X83.001 Y15.2 E46.28948
G1 X83.726 Y15.24 E46.3257
G1 X84.443 Y15.359 E46.36196
G1 X85.142 Y15.557 E46.39821
G1 X85.815 Y15.83 E46.43444
G1 X86.454 Y16.175 E46.47067
G1 X87.051 Y16.589 E46.50692
G1 X87.703 Y17.168 E46.55042
G1 X87.902 Y17.37 E46.56457
G1 X88.382 Y17.915 E46.6008
G1 X88.8 Y18.509 E46.63704
G1 X89.15 Y19.146 E46.6733
G1 X89.428 Y19.817 E46.70953
G1 X89.63 Y20.514 E46.74574
G1 X89.755 Y21.23 E46.782
G1 X89.8 Y22.002 E46.82058
G1 X89.801 Y98.001 E50.61219
G1 X89.761 Y98.726 E50.64841
G1 X89.642 Y99.443 E50.68467
G1 X89.444 Y100.142 E50.72092
G1 X89.171 Y100.815 E50.75715
G1 X88.826 Y101.454 E50.79338
G1 X88.412 Y102.051 E50.82963
G1 X87.833 Y102.703 E50.87313
G1 X87.631 Y102.902 E50.88728
G1 X87.086 Y103.382 E50.92351
G1 X86.492 Y103.8 E50.95974
G1 X85.855 Y104.15 E50.99601
G1 X85.184 Y104.428 E51.03224
G1 X84.487 Y104.63 E51.06845
G1 X83.771 Y104.755 E51.10471
G1 X82.999 Y104.8 E51.14329
G1 X36.999 Y104.801 E53.43824
G1 X36.274 Y104.761 E53.47446
G1 X35.557 Y104.642 E53.51072
G1 X34.858 Y104.444 E53.54697
G1 X34.185 Y104.171 E53.5832
G1 X33.546 Y103.826 E53.61943
G1 X32.949 Y103.412 E53.65568
G1 X32.297 Y102.833 E53.69918
G1 X32.098 Y102.631 E53.71333
G1 X31.618 Y102.086 E53.74956
G1 X31.2 Y101.492 E53.7858
G1 X30.85 Y100.855 E53.82206
G1 X30.572 Y100.184 E53.85829
G1 X30.37 Y99.487 E53.8945
G1 X30.245 Y98.771 E53.93076
G1 X30.2 Y97.999 E53.96934
G1 X30.2 Y21.999 E57.761
G1 X30.24 Y21.274 E57.79722
G1 X30.359 Y20.557 E57.83348
G1 X30.557 Y19.858 E57.86973
G1 X30.83 Y19.185 E57.90596
G1 X31.175 Y18.546 E57.94219
G0 F3600 X31.574 Y18.664
G1 F1800 X31.985 Y18.093 E57.97729
G1 X32.449 Y17.582 E58.01172
G1 X32.65 Y17.384 E58.0258
G1 X33.179 Y16.919 E58.06094
G1 X33.757 Y16.518 E58.09604
G1 X34.377 Y16.184 E58.13117
G1 X35.03 Y15.923 E58.16626
G1 X35.71 Y15.737 E58.20143
G1 X36.405 Y15.63 E58.23651
G1 X37.001 Y15.601 E58.26628
G1 X83.001 Y15.6 E60.56123
G1 X83.704 Y15.64 E60.59636
G1 X84.398 Y15.759 E60.63149
G1 X85.073 Y15.957 E60.66658
G1 X85.722 Y16.229 E60.70169
G1 X86.336 Y16.574 E60.73683
G1 X86.907 Y16.985 E60.77193
G1 X87.418 Y17.449 E60.80636
G1 X87.617 Y17.651 E60.82051
G1 X88.082 Y18.18 E60.85565
G1 X88.483 Y18.758 E60.89074
G1 X88.817 Y19.377 E60.92583
G1 X89.078 Y20.031 E60.96096
G1 X89.264 Y20.71 E60.99609
G1 X89.371 Y21.406 E61.03122
G1 X89.4 Y22.002 E61.06099
G1 X89.401 Y98.001 E64.85259
G1 X89.361 Y98.704 E64.88772
G1 X89.242 Y99.398 E64.92285
G1 X89.044 Y100.073 E64.95795
G1 X88.772 Y100.722 E64.99306
G1 X88.427 Y101.336 E65.02819
G1 X88.016 Y101.907 E65.06329
G1 X87.552 Y102.418 E65.09773
G1 X87.35 Y102.617 E65.11187
G1 X86.821 Y103.082 E65.14701
G1 X86.243 Y103.483 E65.18211
G1 X85.624 Y103.817 E65.2172
G1 X84.97 Y104.078 E65.25233
G1 X84.291 Y104.264 E65.28746
G1 X83.595 Y104.371 E65.32259
G1 X82.999 Y104.4 E65.35236
G1 X36.999 Y104.401 E67.64731
G1 X36.296 Y104.361 E67.68244
G1 X35.602 Y104.242 E67.71756
G1 X34.927 Y104.044 E67.75266
G1 X34.278 Y103.772 E67.78777
G1 X33.664 Y103.427 E67.8229
G1 X33.093 Y103.016 E67.858
G1 X32.582 Y102.552 E67.89244
G1 X32.383 Y102.35 E67.90659
G1 X31.918 Y101.821 E67.94172
G1 X31.517 Y101.243 E67.97682
G1 X31.183 Y100.624 E68.01191
G1 X30.922 Y99.97 E68.04704
G1 X30.736 Y99.291 E68.08217
G1 X30.629 Y98.595 E68.1173
G1 X30.6 Y97.999 E68.14707
G1 X30.6 Y21.999 E71.93872
G1 X30.64 Y21.296 E71.97385
G1 X30.759 Y20.602 E72.00898
G1 X30.957 Y19.927 E72.04408
G1 X31.229 Y19.278 E72.07918
G1 X31.574 Y18.664 E72.11432
G0 F3600 X31.972 Y18.785
G1 F1800 X32.382 Y18.241 E72.14831
G1 X32.73 Y17.867 E72.17379
G1 X32.931 Y17.669 E72.18787
G1 X33.443 Y17.221 E72.22181
G1 X34.004 Y16.835 E72.25578
G1 X34.607 Y16.518 E72.28977
G1 X35.243 Y16.274 E72.32376
G1 X35.902 Y16.106 E72.35769
G1 X36.577 Y16.016 E72.39166
G1 X37.001 Y16.001 E72.41283
G1 X83.001 Y16 E74.70778
G1 X83.681 Y16.04 E74.74176
G1 X84.351 Y16.159 E74.77571
G1 X85.003 Y16.356 E74.80969
G1 X85.627 Y16.628 E74.84365
G1 X86.215 Y16.972 E74.87764
G1 X86.758 Y17.382 E74.91158
G1 X87.133 Y17.73 E74.93711
G1 X87.332 Y17.932 E74.95125
G1 X87.78 Y18.444 E74.9852
G1 X88.166 Y19.005 E75.01917
G1 X88.483 Y19.608 E75.05316
G1 X88.727 Y20.243 E75.0871
G1 X88.895 Y20.903 E75.12107
G1 X88.984 Y21.578 E75.15504
G1 X89 Y22.002 E75.17621
G1 X89.001 Y98.001 E78.96781
G1 X88.961 Y98.681 E79.0018
G1 X88.842 Y99.351 E79.03575
G1 X88.645 Y100.003 E79.06973
G1 X88.373 Y100.627 E79.10369
G1 X88.029 Y101.215 E79.13768
G1 X87.619 Y101.759 E79.17166
G1 X87.271 Y102.133 E79.19715
G1 X87.069 Y102.332 E79.21129
G1 X86.557 Y102.78 E79.24524
G1 X85.996 Y103.166 E79.27921
G1 X85.393 Y103.483 E79.3132
G1 X84.758 Y103.727 E79.34714
G1 X84.098 Y103.895 E79.38111
G1 X83.423 Y103.984 E79.41508
G1 X82.999 Y104 E79.43625
G1 X36.999 Y104.001 E81.7312
G1 X36.319 Y103.961 E81.76518
G1 X35.649 Y103.842 E81.79913
G1 X34.997 Y103.645 E81.83311
G1 X34.373 Y103.373 E81.86707
G1 X33.785 Y103.029 E81.90106
G1 X33.242 Y102.619 E81.93501
G1 X32.867 Y102.271 E81.96053
G1 X32.668 Y102.069 E81.97468
G1 X32.22 Y101.557 E82.00862
G1 X31.834 Y100.996 E82.04259
G1 X31.517 Y100.393 E82.07658
G1 X31.273 Y99.758 E82.11052
G1 X31.105 Y99.098 E82.1445
G1 X31.016 Y98.423 E82.17846
G1 X31 Y97.999 E82.19963
G1 X31 Y21.999 E85.99129
G1 X31.04 Y21.319 E86.02527
G1 X31.159 Y20.649 E86.05922
G1 X31.356 Y19.997 E86.0932
G1 X31.628 Y19.373 E86.12716
G1 X31.972 Y18.785 E86.16115
G0 F3600 X32.37 Y18.911
G1 F1800 X32.778 Y18.396 E86.19393
G1 X33.01 Y18.152 E86.21073
G1 X33.211 Y17.954 E86.2248
G1 X33.707 Y17.522 E86.25762
G1 X34.251 Y17.154 E86.29038
G1 X34.835 Y16.854 E86.32314
G1 X35.452 Y16.628 E86.35592
G1 X36.092 Y16.478 E86.38872
G1 X37.001 Y16.401 E86.43423
G1 X83.001 Y16.4 E88.72918
G1 X83.657 Y16.44 E88.76197
G1 X84.303 Y16.559 E88.79474
G1 X84.929 Y16.756 E88.82748
G1 X85.528 Y17.028 E88.8603
G1 X86.089 Y17.37 E88.89308
G1 X86.604 Y17.777 E88.92583
G1 X86.848 Y18.01 E88.94266
G1 X87.047 Y18.212 E88.95681
G1 X87.479 Y18.707 E88.98959
G1 X87.847 Y19.251 E89.02235
G1 X88.147 Y19.836 E89.05515
G1 X88.373 Y20.453 E89.08793
G1 X88.523 Y21.092 E89.12068
G1 X88.6 Y22.002 E89.16624
G1 X88.601 Y98.001 E92.95785
G1 X88.561 Y98.657 E92.99064
G1 X88.442 Y99.303 E93.02341
G1 X88.245 Y99.929 E93.05615
G1 X87.973 Y100.528 E93.08897
G1 X87.631 Y101.089 E93.12175
G1 X87.224 Y101.604 E93.1545
G1 X86.991 Y101.848 E93.17133
G1 X86.789 Y102.047 E93.18548
G1 X86.294 Y102.479 E93.21826
G1 X85.75 Y102.847 E93.25102
G1 X85.165 Y103.147 E93.28382
G1 X84.548 Y103.373 E93.3166
G1 X83.909 Y103.523 E93.34935
G1 X82.999 Y103.6 E93.39491
G1 X36.999 Y103.601 E95.68986
G1 X36.343 Y103.561 E95.72265
G1 X35.697 Y103.442 E95.75542
G1 X35.071 Y103.245 E95.78816
G1 X34.472 Y102.973 E95.82098
G1 X33.911 Y102.631 E95.85376
G1 X33.396 Y102.224 E95.88651
G1 X33.152 Y101.991 E95.90334
G1 X32.953 Y101.789 E95.91749
G1 X32.521 Y101.294 E95.95027
G1 X32.153 Y100.75 E95.98304
G1 X31.853 Y100.165 E96.01584
G1 X31.627 Y99.548 E96.04862
G1 X31.477 Y98.909 E96.08136
G1 X31.4 Y97.999 E96.12693
G1 X31.4 Y21.999 E99.91858
G1 X31.44 Y21.343 E99.95137
G1 X31.559 Y20.697 E99.98414
G1 X31.756 Y20.07 E100.01693
G1 X32.028 Y19.472 E100.04971
G1 X32.37 Y18.911 E100.08249
G0 F3600 X32.767 Y19.043
G1 F1800 X33.291 Y18.437 E100.12245
G1 X33.492 Y18.239 E100.13653
G1 X33.97 Y17.825 E100.16808
G1 X34.496 Y17.474 E100.19963
G1 X35.062 Y17.192 E100.23118
G1 X35.659 Y16.985 E100.2627
G1 X36.277 Y16.854 E100.29422
G1 X37.001 Y16.801 E100.33043
G1 X83.001 Y16.8 E102.62538
G1 X83.632 Y16.84 E102.65693
G1 X84.253 Y16.959 E102.68847
G1 X84.853 Y17.156 E102.71998
G1 X85.425 Y17.427 E102.75156
G1 X85.957 Y17.767 E102.78306
G1 X86.563 Y18.291 E102.82302
G1 X86.762 Y18.493 E102.83717
G1 X87.176 Y18.97 E102.86868
G1 X87.527 Y19.496 E102.90023
G1 X87.808 Y20.062 E102.93176
G1 X88.016 Y20.659 E102.9633
G1 X88.147 Y21.278 E102.99486
G1 X88.2 Y22.002 E103.03108
G1 X88.201 Y98.001 E106.82269
G1 X88.161 Y98.632 E106.85423
G1 X88.042 Y99.253 E106.88578
G1 X87.845 Y99.853 E106.91728
G1 X87.574 Y100.425 E106.94886
G1 X87.234 Y100.957 E106.98036
G1 X86.71 Y101.563 E107.02033
G1 X86.508 Y101.762 E107.03447
G1 X86.031 Y102.176 E107.06599
G1 X85.505 Y102.527 E107.09753
G1 X84.939 Y102.808 E107.12906
G1 X84.342 Y103.016 E107.1606
G1 X83.723 Y103.147 E107.19217
G1 X82.999 Y103.2 E107.22838
G1 X36.999 Y103.201 E109.52333
G1 X36.368 Y103.161 E109.55488
G1 X35.747 Y103.042 E109.58642
G1 X35.147 Y102.845 E109.61793
G1 X34.575 Y102.574 E109.64951
G1 X34.043 Y102.234 E109.68101
G1 X33.437 Y101.71 E109.72097
G1 X33.238 Y101.508 E109.73512
G1 X32.824 Y101.031 E109.76663
G1 X32.473 Y100.505 E109.79818
G1 X32.192 Y99.939 E109.82971
G1 X31.984 Y99.342 E109.86125
G1 X31.853 Y98.723 E109.89281
G1 X31.8 Y97.999 E109.92903
G1 X31.8 Y21.999 E113.72069
G1 X31.84 Y21.368 E113.75223
G1 X31.959 Y20.747 E113.78378
G1 X32.156 Y20.147 E113.81528
G1 X32.427 Y19.575 E113.84686
G1 X32.767 Y19.043 E113.87836
G0 F3600 X33.165 Y19.18
G1 F1800 X33.572 Y18.722 E113.90893
G1 X33.773 Y18.524 E113.923
G1 X34.232 Y18.128 E113.95325
G1 X34.739 Y17.796 E113.98348
G1 X35.285 Y17.533 E114.01372
G1 X35.862 Y17.344 E114.04401
G1 X36.458 Y17.233 E114.07426
G1 X37.001 Y17.201 E114.10139
G1 X83.001 Y17.2 E116.39634
G1 X83.606 Y17.24 E116.42659
G1 X84.2 Y17.359 E116.45682
G1 X84.774 Y17.555 E116.48708
G1 X85.317 Y17.825 E116.51733
G1 X85.819 Y18.165 E116.54758
G1 X86.278 Y18.572 E116.57818
G1 X86.477 Y18.774 E116.59233
G1 X86.873 Y19.233 E116.62258
G1 X87.205 Y19.74 E116.65281
G1 X87.468 Y20.286 E116.68305
G1 X87.657 Y20.863 E116.71334
