;FLAVOR:RepRap
;TIME:2692
;Filament used: 3.15812m
;Layer height: 0.2
;Generated with Cura_SteamEngine master
M190 S60
M104 S195
M109 S195
G28 ;Home
G1 Z15.0 F6000 ;Move the platform down 15mm
;Prime the extruder
G92 E0
G1 F200 E3
G92 E0
;LAYER_COUNT:39
;LAYER:0
M107
G1 F1500 E-6.5
G0 F3600 X34.086 Y35.599 Z0.35
;TYPE:SKIRT
G1 F1500 E0
G1 F1800 X34.685 Y35.084 E0.04598
G1 X35.333 Y34.633 E0.09193
G1 X36.024 Y34.249 E0.13795
G1 X36.749 Y33.937 E0.18389
G1 X37.502 Y33.7 E0.22983
G1 X38.276 Y33.541 E0.27583
G1 X39.061 Y33.46 E0.32176
G1 X39.463 Y33.45 E0.34516
G1 X78.787 Y33.45 E2.63403
G1 X79.576 Y33.49 E2.68001
G1 X80.356 Y33.609 E2.72594
G1 X81.121 Y33.807 E2.77193
G1 X81.861 Y34.081 E2.81786
G1 X82.57 Y34.429 E2.86383
G1 X83.241 Y34.847 E2.90984
G1 X83.865 Y35.33 E2.95577
G1 X84.438 Y35.873 E3.00172
G1 X84.953 Y36.472 E3.0477
G1 X85.404 Y37.12 E3.09365
G1 X85.788 Y37.811 E3.13967
G1 X86.1 Y38.536 E3.18561
G1 X86.337 Y39.289 E3.23156
G1 X86.496 Y40.063 E3.27755
G1 X86.577 Y40.848 E3.32348
G1 X86.587 Y41.25 E3.34689
G1 X86.587 Y46.25 E3.63791
G1 X86.547 Y47.039 E3.6839
G1 X86.428 Y47.819 E3.72982
G1 X86.23 Y48.584 E3.77582
G1 X85.956 Y49.324 E3.82175
G1 X85.608 Y50.033 E3.86772
G1 X85.19 Y50.704 E3.91373
G1 X84.707 Y51.328 E3.95966
G1 X84.164 Y51.901 E4.00561
G1 X83.565 Y52.416 E4.05159
G1 X82.917 Y52.867 E4.09754
G1 X82.226 Y53.251 E4.14355
G1 X81.501 Y53.563 E4.18949
G1 X80.748 Y53.8 E4.23544
G1 X79.974 Y53.959 E4.28143
G1 X79.189 Y54.04 E4.32737
G1 X78.787 Y54.05 E4.35077
G1 X39.463 Y54.05 E6.63963
G1 X38.674 Y54.01 E6.68562
G1 X37.894 Y53.891 E6.73154
G1 X37.129 Y53.693 E6.77754
G1 X36.389 Y53.419 E6.82347
G1 X35.68 Y53.071 E6.86944
G1 X35.009 Y52.653 E6.91545
G1 X34.385 Y52.17 E6.96138
G1 X33.812 Y51.627 E7.00733
G1 X33.297 Y51.028 E7.05331
G1 X32.846 Y50.38 E7.09926
G1 X32.462 Y49.689 E7.14527
G1 X32.15 Y48.964 E7.19121
G1 X31.913 Y48.211 E7.23716
G1 X31.754 Y47.437 E7.28315
G1 X31.673 Y46.652 E7.32909
G1 X31.663 Y46.25 E7.35249
G1 X31.663 Y41.25 E7.64352
G1 X31.703 Y40.461 E7.6895
G1 X31.822 Y39.681 E7.73543
G1 X32.02 Y38.916 E7.78142
G1 X32.294 Y38.176 E7.82735
G1 X32.642 Y37.467 E7.87332
G1 X33.06 Y36.796 E7.91934
G1 X33.543 Y36.172 E7.96527
G1 X34.086 Y35.599 E8.01121
G0 F3600 X34.479 Y35.78
G1 F1800 X35.074 Y35.292 E8.056
G1 X35.716 Y34.869 E8.10075
G1 X36.399 Y34.514 E8.14556
G1 X37.114 Y34.233 E8.19027
G1 X37.856 Y34.027 E8.23509
G1 X38.614 Y33.899 E8.27984
G1 X39.463 Y33.85 E8.32934
G1 X78.787 Y33.85 E10.6182
G1 X79.555 Y33.89 E10.66296
G1 X80.315 Y34.009 E10.70774
G1 X81.058 Y34.207 E10.75249
G1 X81.777 Y34.481 E10.79728
G1 X82.463 Y34.828 E10.84202
G1 X83.11 Y35.244 E10.8868
G1 X83.71 Y35.725 E10.93156
G1 X84.257 Y36.266 E10.97634
G1 X84.745 Y36.861 E11.02113
G1 X85.168 Y37.503 E11.06588
G1 X85.523 Y38.186 E11.11068
G1 X85.804 Y38.901 E11.15539
G1 X86.01 Y39.643 E11.20022
G1 X86.138 Y40.401 E11.24496
G1 X86.187 Y41.25 E11.29446
G1 X86.187 Y46.25 E11.58549
G1 X86.147 Y47.018 E11.63025
G1 X86.028 Y47.778 E11.67502
G1 X85.83 Y48.521 E11.71978
G1 X85.556 Y49.24 E11.76456
G1 X85.209 Y49.926 E11.80931
G1 X84.793 Y50.573 E11.85408
G1 X84.312 Y51.173 E11.89884
G1 X83.771 Y51.72 E11.94362
G1 X83.176 Y52.208 E11.98841
G1 X82.534 Y52.631 E12.03316
G1 X81.851 Y52.986 E12.07796
G1 X81.136 Y53.267 E12.12268
G1 X80.394 Y53.473 E12.1675
G1 X79.636 Y53.601 E12.21225
G1 X78.787 Y53.65 E12.26174
G1 X39.463 Y53.65 E14.55061
G1 X38.695 Y53.61 E14.59537
G1 X37.935 Y53.491 E14.64014
G1 X37.192 Y53.293 E14.6849
G1 X36.473 Y53.019 E14.72969
G1 X35.787 Y52.672 E14.77443
G1 X35.14 Y52.256 E14.8192
G1 X34.54 Y51.775 E14.86396
G1 X33.993 Y51.234 E14.90874
G1 X33.505 Y50.639 E14.95353
G1 X33.082 Y49.997 E14.99828
G1 X32.727 Y49.314 E15.04309
G1 X32.446 Y48.599 E15.0878
G1 X32.24 Y47.857 E15.13262
G1 X32.112 Y47.099 E15.17737
G1 X32.063 Y46.25 E15.22687
G1 X32.063 Y41.25 E15.51789
G1 X32.103 Y40.482 E15.56265
G1 X32.222 Y39.722 E15.60743
G1 X32.42 Y38.979 E15.65218
G1 X32.694 Y38.26 E15.69697
G1 X33.041 Y37.574 E15.74172
G1 X33.457 Y36.927 E15.78649
G1 X33.938 Y36.327 E15.83125
G1 X34.479 Y35.78 E15.87603
G0 F3600 X34.871 Y35.966
G1 F1800 X35.461 Y35.507 E15.91954
G1 X36.097 Y35.112 E15.96311
G1 X36.771 Y34.788 E16.00664
G1 X37.476 Y34.538 E16.05018
G1 X38.204 Y34.364 E16.09375
G1 X38.946 Y34.269 E16.13729
G1 X39.463 Y34.25 E16.1674
G1 X78.787 Y34.25 E18.45626
G1 X79.534 Y34.29 E18.4998
G1 X80.272 Y34.409 E18.54331
G1 X80.994 Y34.607 E18.58689
G1 X81.69 Y34.88 E18.63041
G1 X82.353 Y35.227 E18.67396
G1 X82.976 Y35.642 E18.71753
G1 X83.55 Y36.121 E18.76105
G1 X84.071 Y36.658 E18.8046
G1 X84.53 Y37.248 E18.84811
G1 X84.925 Y37.884 E18.89168
G1 X85.249 Y38.558 E18.93521
G1 X85.499 Y39.263 E18.97875
G1 X85.673 Y39.991 E19.02232
G1 X85.768 Y40.733 E19.06586
G1 X85.787 Y41.25 E19.09597
G1 X85.787 Y46.25 E19.387
G1 X85.747 Y46.997 E19.43054
G1 X85.628 Y47.735 E19.47405
G1 X85.43 Y48.457 E19.51762
G1 X85.157 Y49.153 E19.56114
G1 X84.81 Y49.816 E19.6047
G1 X84.395 Y50.439 E19.64827
G1 X83.916 Y51.013 E19.69178
G1 X83.379 Y51.534 E19.73533
G1 X82.789 Y51.993 E19.77884
G1 X82.153 Y52.388 E19.82242
G1 X81.479 Y52.712 E19.86594
G1 X80.774 Y52.962 E19.90948
G1 X80.046 Y53.136 E19.95305
G1 X79.304 Y53.231 E19.99659
G1 X78.787 Y53.25 E20.0267
G1 X39.463 Y53.25 E22.31557
G1 X38.716 Y53.21 E22.35911
G1 X37.978 Y53.091 E22.40262
G1 X37.256 Y52.893 E22.44619
G1 X36.56 Y52.62 E22.48971
G1 X35.897 Y52.273 E22.53326
G1 X35.274 Y51.858 E22.57684
G1 X34.7 Y51.379 E22.62035
G1 X34.179 Y50.842 E22.6639
G1 X33.72 Y50.252 E22.70741
G1 X33.325 Y49.616 E22.75099
G1 X33.001 Y48.942 E22.79451
G1 X32.751 Y48.237 E22.83805
G1 X32.577 Y47.509 E22.88162
G1 X32.482 Y46.767 E22.92516
G1 X32.463 Y46.25 E22.95527
G1 X32.463 Y41.25 E23.2463
G1 X32.503 Y40.503 E23.28984
G1 X32.622 Y39.765 E23.33335
G1 X32.82 Y39.043 E23.37693
G1 X33.093 Y38.347 E23.42044
G1 X33.44 Y37.684 E23.464
G1 X33.855 Y37.061 E23.50757
G1 X34.334 Y36.487 E23.55108
G1 X34.871 Y35.966 E23.59463
G0 F3600 X35.262 Y36.159
G1 F1800 X35.847 Y35.729 E23.63689
G1 X36.476 Y35.365 E23.67919
G1 X37.141 Y35.072 E23.72149
G1 X37.834 Y34.854 E23.76377
G1 X38.546 Y34.714 E23.80601
G1 X39.463 Y34.65 E23.85951
G1 X78.787 Y34.65 E26.14838
G1 X79.512 Y34.69 E26.19064
G1 X80.229 Y34.809 E26.23294
G1 X80.928 Y35.007 E26.27523
G1 X81.601 Y35.28 E26.3175
G1 X82.24 Y35.625 E26.35977
G1 X82.837 Y36.039 E26.40205
G1 X83.385 Y36.515 E26.4443
G1 X83.878 Y37.049 E26.48661
G1 X84.308 Y37.634 E26.52887
G1 X84.672 Y38.263 E26.57116
G1 X84.965 Y38.928 E26.61346
G1 X85.183 Y39.621 E26.65575
G1 X85.323 Y40.333 E26.69798
G1 X85.387 Y41.25 E26.75149
G1 X85.387 Y46.25 E27.04251
G1 X85.347 Y46.975 E27.08478
G1 X85.228 Y47.692 E27.12708
G1 X85.03 Y48.391 E27.16937
G1 X84.757 Y49.064 E27.21164
G1 X84.412 Y49.703 E27.25391
G1 X83.998 Y50.3 E27.29619
G1 X83.522 Y50.848 E27.33844
G1 X82.988 Y51.341 E27.38074
G1 X82.403 Y51.771 E27.423
G1 X81.774 Y52.135 E27.4653
G1 X81.109 Y52.428 E27.5076
G1 X80.416 Y52.646 E27.54988
G1 X79.704 Y52.786 E27.59212
G1 X78.787 Y52.85 E27.64562
G1 X39.463 Y52.85 E29.93449
G1 X38.738 Y52.81 E29.97675
G1 X38.021 Y52.691 E30.01905
G1 X37.322 Y52.493 E30.06134
G1 X36.649 Y52.22 E30.10361
G1 X36.01 Y51.875 E30.14588
G1 X35.413 Y51.461 E30.18817
G1 X34.865 Y50.985 E30.23041
G1 X34.372 Y50.451 E30.27272
G1 X33.942 Y49.866 E30.31498
G1 X33.578 Y49.237 E30.35728
G1 X33.285 Y48.572 E30.39957
G1 X33.067 Y47.879 E30.44186
G1 X32.927 Y47.167 E30.48409
G1 X32.863 Y46.25 E30.5376
G1 X32.863 Y41.25 E30.82862
G1 X32.903 Y40.525 E30.87089
G1 X33.022 Y39.808 E30.91319
G1 X33.22 Y39.109 E30.95548
G1 X33.493 Y38.436 E30.99775
G1 X33.838 Y37.797 E31.04002
G1 X34.252 Y37.2 E31.0823
G1 X34.728 Y36.652 E31.12455
G1 X35.262 Y36.159 E31.16685
G0 F3600 X35.652 Y36.359
G1 F1800 X36.231 Y35.959 E31.20782
G1 X36.852 Y35.627 E31.2488
G1 X37.506 Y35.367 E31.28977
G1 X38.186 Y35.183 E31.33077
G1 X38.882 Y35.077 E31.37175
G1 X39.463 Y35.05 E31.4056
G1 X78.787 Y35.05 E33.69446
G1 X79.49 Y35.09 E33.73545
G1 X80.184 Y35.209 E33.77643
G1 X80.859 Y35.407 E33.81738
G1 X81.508 Y35.679 E33.85833
G1 X82.122 Y36.024 E33.89933
G1 X82.693 Y36.435 E33.94028
G1 X83.214 Y36.909 E33.98127
G1 X83.678 Y37.439 E34.02228
G1 X84.078 Y38.018 E34.06324
G1 X84.41 Y38.639 E34.10422
G1 X84.67 Y39.293 E34.14519
G1 X84.854 Y39.973 E34.18619
G1 X84.96 Y40.669 E34.22717
G1 X84.987 Y41.25 E34.26102
G1 X84.987 Y46.25 E34.55205
G1 X84.947 Y46.953 E34.59303
G1 X84.828 Y47.647 E34.63402
G1 X84.63 Y48.322 E34.67496
G1 X84.358 Y48.971 E34.71592
G1 X84.013 Y49.585 E34.75691
G1 X83.602 Y50.156 E34.79786
G1 X83.128 Y50.677 E34.83886
G1 X82.598 Y51.141 E34.87986
G1 X82.019 Y51.541 E34.92082
G1 X81.398 Y51.873 E34.96181
G1 X80.744 Y52.133 E35.00277
G1 X80.064 Y52.317 E35.04377
G1 X79.368 Y52.423 E35.08475
G1 X78.787 Y52.45 E35.11861
G1 X39.463 Y52.45 E37.40747
G1 X38.76 Y52.41 E37.44845
G1 X38.066 Y52.291 E37.48944
G1 X37.391 Y52.093 E37.53038
G1 X36.742 Y51.821 E37.57134
G1 X36.128 Y51.476 E37.61233
G1 X35.557 Y51.065 E37.65328
G1 X35.036 Y50.591 E37.69428
G1 X34.572 Y50.061 E37.73528
G1 X34.172 Y49.482 E37.77624
G1 X33.84 Y48.861 E37.81723
G1 X33.58 Y48.207 E37.85819
G1 X33.396 Y47.527 E37.89919
G1 X33.29 Y46.831 E37.94017
G1 X33.263 Y46.25 E37.97403
G1 X33.263 Y41.25 E38.26505
G1 X33.303 Y40.547 E38.30604
G1 X33.422 Y39.853 E38.34702
G1 X33.62 Y39.178 E38.38796
G1 X33.892 Y38.529 E38.42892
G1 X34.237 Y37.915 E38.46992
G1 X34.648 Y37.344 E38.51087
G1 X35.122 Y36.823 E38.55186
G1 X35.652 Y36.359 E38.59286
G0 F3600 X36.041 Y36.567
G1 F1800 X36.613 Y36.198 E38.63248
G1 X37.225 Y35.899 E38.67213
G1 X37.867 Y35.674 E38.71173
G1 X38.532 Y35.525 E38.75139
G1 X39.463 Y35.45 E38.80576
G1 X78.787 Y35.45 E41.09462
G1 X79.467 Y35.49 E41.13427
G1 X80.137 Y35.609 E41.17387
G1 X80.789 Y35.806 E41.21352
G1 X81.413 Y36.078 E41.25314
G1 X82.001 Y36.422 E41.29279
G1 X82.545 Y36.832 E41.33244
G1 X83.036 Y37.303 E41.37204
G1 X83.47 Y37.828 E41.41169
G1 X83.839 Y38.4 E41.45131
G1 X84.138 Y39.012 E41.49096
G1 X84.363 Y39.654 E41.53055
G1 X84.512 Y40.319 E41.57022
G1 X84.587 Y41.25 E41.62458
G1 X84.587 Y46.25 E41.91561
G1 X84.547 Y46.93 E41.95526
G1 X84.428 Y47.6 E41.99486
G1 X84.231 Y48.252 E42.03451
G1 X83.959 Y48.876 E42.07413
G1 X83.615 Y49.464 E42.11378
G1 X83.205 Y50.008 E42.15343
G1 X82.734 Y50.499 E42.19303
G1 X82.209 Y50.933 E42.23268
G1 X81.637 Y51.302 E42.2723
G1 X81.025 Y51.601 E42.31194
G1 X80.383 Y51.826 E42.35154
G1 X79.718 Y51.975 E42.39121
G1 X78.787 Y52.05 E42.44557
G1 X39.463 Y52.05 E44.73443
G1 X38.783 Y52.01 E44.77408
G1 X38.113 Y51.891 E44.81369
G1 X37.461 Y51.694 E44.85333
G1 X36.837 Y51.422 E44.89296
G1 X36.249 Y51.078 E44.93261
G1 X35.705 Y50.668 E44.97226
G1 X35.214 Y50.197 E45.01186
G1 X34.78 Y49.672 E45.05151
G1 X34.411 Y49.1 E45.09113
G1 X34.112 Y48.488 E45.13077
G1 X33.887 Y47.846 E45.17037
G1 X33.738 Y47.181 E45.21003
G1 X33.663 Y46.25 E45.2644
G1 X33.663 Y41.25 E45.55542
G1 X33.703 Y40.57 E45.59507
G1 X33.822 Y39.9 E45.63468
G1 X34.019 Y39.248 E45.67432
G1 X34.291 Y38.624 E45.71394
G1 X34.635 Y38.036 E45.7536
G1 X35.045 Y37.492 E45.79325
G1 X35.516 Y37.001 E45.83285
G1 X36.041 Y36.567 E45.87249
G0 F3600 X36.428 Y36.784
G1 F1800 X36.992 Y36.448 E45.91071
G1 X37.594 Y36.184 E45.94897
G1 X38.223 Y35.994 E45.98721
G1 X38.87 Y35.883 E46.02542
G1 X39.463 Y35.85 E46.05999
G1 X78.787 Y35.85 E48.34885
G1 X79.443 Y35.89 E48.38711
G1 X80.089 Y36.009 E48.42534
G1 X80.716 Y36.206 E48.46359
G1 X81.314 Y36.478 E48.50183
G1 X81.875 Y36.82 E48.54007
G1 X82.39 Y37.228 E48.57832
G1 X82.852 Y37.695 E48.61655
G1 X83.253 Y38.215 E48.65477
G1 X83.589 Y38.779 E48.69298
G1 X83.853 Y39.381 E48.73125
G1 X84.043 Y40.01 E48.76949
G1 X84.154 Y40.657 E48.8077
G1 X84.187 Y41.25 E48.84227
G1 X84.187 Y46.25 E49.13329
G1 X84.147 Y46.906 E49.17155
G1 X84.028 Y47.552 E49.20978
G1 X83.831 Y48.179 E49.24804
G1 X83.559 Y48.777 E49.28627
G1 X83.217 Y49.338 E49.32452
G1 X82.809 Y49.853 E49.36276
G1 X82.342 Y50.315 E49.40099
G1 X81.822 Y50.716 E49.43922
G1 X81.258 Y51.052 E49.47743
G1 X80.656 Y51.316 E49.51569
G1 X80.027 Y51.506 E49.55393
G1 X79.38 Y51.617 E49.59214
G1 X78.787 Y51.65 E49.62671
G1 X39.463 Y51.65 E51.91557
G1 X38.807 Y51.61 E51.95383
G1 X38.161 Y51.491 E51.99206
G1 X37.534 Y51.294 E52.03031
G1 X36.936 Y51.022 E52.06855
G1 X36.375 Y50.68 E52.10679
G1 X35.86 Y50.272 E52.14504
G1 X35.398 Y49.805 E52.18327
G1 X34.997 Y49.285 E52.22149
G1 X34.661 Y48.721 E52.25971
G1 X34.397 Y48.119 E52.29797
G1 X34.207 Y47.49 E52.33621
G1 X34.096 Y46.843 E52.37442
G1 X34.063 Y46.25 E52.40899
G1 X34.063 Y41.25 E52.70002
G1 X34.103 Y40.594 E52.73827
G1 X34.222 Y39.948 E52.7765
G1 X34.419 Y39.321 E52.81476
G1 X34.691 Y38.723 E52.85299
G1 X35.033 Y38.162 E52.89124
G1 X35.441 Y37.647 E52.92948
G1 X35.908 Y37.185 E52.96771
G1 X36.428 Y36.784 E53.00594
G0 F3600 X36.813 Y37.01
G1 F1800 X37.369 Y36.71 E53.04271
G1 X37.958 Y36.482 E53.07947
G1 X38.572 Y36.33 E53.11629
G1 X39.463 Y36.25 E53.16836
G1 X78.787 Y36.25 E55.45722
G1 X79.418 Y36.29 E55.49402
G1 X80.039 Y36.409 E55.53082
G1 X80.639 Y36.606 E55.56758
G1 X81.211 Y36.877 E55.60442
G1 X81.743 Y37.217 E55.64117
G1 X82.228 Y37.623 E55.67799
G1 X82.658 Y38.086 E55.71476
G1 X83.027 Y38.6 E55.75159
G1 X83.327 Y39.156 E55.78837
G1 X83.555 Y39.745 E55.82513
G1 X83.707 Y40.359 E55.86194
G1 X83.787 Y41.25 E55.91401
G1 X83.787 Y46.25 E56.20504
G1 X83.747 Y46.881 E56.24184
G1 X83.628 Y47.502 E56.27864
G1 X83.431 Y48.102 E56.3154
G1 X83.16 Y48.674 E56.35224
G1 X82.82 Y49.206 E56.38899
G1 X82.414 Y49.691 E56.42581
G1 X81.951 Y50.121 E56.46258
G1 X81.437 Y50.49 E56.49941
G1 X80.881 Y50.79 E56.53619
G1 X80.292 Y51.018 E56.57295
G1 X79.678 Y51.17 E56.60976
G1 X78.787 Y51.25 E56.66183
G1 X39.463 Y51.25 E58.9507
G1 X38.832 Y51.21 E58.9875
G1 X38.211 Y51.091 E59.0243
G1 X37.611 Y50.894 E59.06106
G1 X37.039 Y50.623 E59.0979
G1 X36.507 Y50.283 E59.13465
G1 X36.022 Y49.877 E59.17146
G1 X35.592 Y49.414 E59.20824
G1 X35.223 Y48.9 E59.24507
G1 X34.923 Y48.344 E59.28184
G1 X34.695 Y47.755 E59.3186
G1 X34.543 Y47.141 E59.35542
G1 X34.463 Y46.25 E59.40749
G1 X34.463 Y41.25 E59.69852
G1 X34.503 Y40.619 E59.73532
G1 X34.622 Y39.998 E59.77212
G1 X34.819 Y39.398 E59.80888
G1 X35.09 Y38.826 E59.84572
G1 X35.43 Y38.294 E59.88247
G1 X35.836 Y37.809 E59.91928
G1 X36.299 Y37.379 E59.95606
G1 X36.813 Y37.01 E59.99289
G0 F3600 X37.195 Y37.248
G1 F1800 X37.741 Y36.984 E60.02819
G1 X38.317 Y36.795 E60.06348
G1 X38.913 Y36.683 E60.09877
G1 X39.463 Y36.65 E60.13084
G1 X78.787 Y36.65 E62.41971
G1 X79.392 Y36.69 E62.455
G1 X79.986 Y36.809 E62.49026
G1 X80.56 Y37.005 E62.52556
G1 X81.103 Y37.276 E62.56089
G1 X81.606 Y37.615 E62.59619
G1 X82.059 Y38.017 E62.63144
G1 X82.456 Y38.475 E62.66672
G1 X82.789 Y38.982 E62.70203
G1 X83.053 Y39.528 E62.73733
G1 X83.242 Y40.104 E62.77261
G1 X83.354 Y40.7 E62.80791
G1 X83.387 Y41.25 E62.83998
G1 X83.387 Y46.25 E63.13101
G1 X83.347 Y46.855 E63.1663
G1 X83.228 Y47.449 E63.20156
G1 X83.032 Y48.023 E63.23686
G1 X82.761 Y48.566 E63.27219
G1 X82.422 Y49.069 E63.30749
G1 X82.02 Y49.522 E63.34274
G1 X81.562 Y49.919 E63.37802
G1 X81.055 Y50.252 E63.41333
G1 X80.509 Y50.516 E63.44863
G1 X79.933 Y50.705 E63.48391
G1 X79.337 Y50.817 E63.51921
G1 X78.787 Y50.85 E63.55128
G1 X39.463 Y50.85 E65.84014
G1 X38.858 Y50.81 E65.87544
G1 X38.264 Y50.691 E65.9107
G1 X37.69 Y50.495 E65.946
G1 X37.147 Y50.224 E65.98132
G1 X36.644 Y49.885 E66.01663
G1 X36.191 Y49.483 E66.05188
G1 X35.794 Y49.025 E66.08716
G1 X35.461 Y48.518 E66.12247
G1 X35.197 Y47.972 E66.15777
G1 X35.008 Y47.396 E66.19305
G1 X34.896 Y46.8 E66.22835
G1 X34.863 Y46.25 E66.26042
G1 X34.863 Y41.25 E66.55144
G1 X34.903 Y40.645 E66.58674
G1 X35.022 Y40.051 E66.622
G1 X35.218 Y39.477 E66.6573
G1 X35.489 Y38.934 E66.69262
G1 X35.828 Y38.431 E66.72793
G1 X36.23 Y37.978 E66.76318
G1 X36.688 Y37.581 E66.79846
G1 X37.195 Y37.248 E66.83377
G0 F3600 X37.574 Y37.499
G1 F1800 X38.108 Y37.274 E66.86749
G1 X38.668 Y37.126 E66.90121
G1 X39.463 Y37.05 E66.94769
G1 X78.787 Y37.05 E69.23656
G1 X79.365 Y37.09 E69.27028
G1 X79.932 Y37.209 E69.304
G1 X80.477 Y37.405 E69.33771
G1 X80.99 Y37.674 E69.37143
G1 X81.461 Y38.011 E69.40514
