;FLAVOR:RepRap
;TIME:930
;Filament used: 1.02127m
;Layer height: 0.2
;Generated with Cura_SteamEngine master
M190 S60
M104 S195
M109 S195
G28 ;Home
G1 Z15.0 F6000 ;Move the platform down 15mm
;Prime the extruder
G92 E0
G1 F200 E3
G92 E0
;LAYER_COUNT:23
;LAYER:0
M107
G1 F1500 E-6.5
G0 F3600 X42.21 Y43.099 Z0.35
;TYPE:SKIRT
G1 F1500 E0
G1 F1800 X42.809 Y42.584 E0.04598
G1 X43.457 Y42.133 E0.09193
G1 X44.148 Y41.749 E0.13795
G1 X44.873 Y41.437 E0.18389
G1 X45.626 Y41.2 E0.22983
G1 X46.4 Y41.041 E0.27583
G1 X47.185 Y40.96 E0.32176
G1 X47.587 Y40.95 E0.34516
G1 X71.363 Y40.95 E1.72905
G1 X72.152 Y40.99 E1.77504
G1 X72.932 Y41.109 E1.82096
G1 X73.697 Y41.307 E1.86696
G1 X74.437 Y41.581 E1.91288
G1 X75.146 Y41.929 E1.95886
G1 X75.817 Y42.347 E2.00487
G1 X76.441 Y42.83 E2.0508
G1 X77.014 Y43.373 E2.09675
G1 X77.529 Y43.972 E2.14273
G1 X77.98 Y44.62 E2.18868
G1 X78.364 Y45.311 E2.23469
G1 X78.676 Y46.036 E2.28063
G1 X78.913 Y46.789 E2.32658
G1 X79.072 Y47.563 E2.37257
G1 X79.153 Y48.348 E2.41851
G1 X79.163 Y48.75 E2.44191
G1 X79.163 Y51.75 E2.61653
G1 X79.123 Y52.539 E2.66251
G1 X79.004 Y53.319 E2.70844
G1 X78.806 Y54.084 E2.75443
G1 X78.532 Y54.824 E2.80036
G1 X78.184 Y55.533 E2.84633
G1 X77.766 Y56.204 E2.89234
G1 X77.283 Y56.828 E2.93827
G1 X76.74 Y57.401 E2.98422
G1 X76.141 Y57.916 E3.0302
G1 X75.493 Y58.367 E3.07615
G1 X74.802 Y58.751 E3.12217
G1 X74.077 Y59.063 E3.16811
G1 X73.324 Y59.3 E3.21406
G1 X72.55 Y59.459 E3.26005
G1 X71.765 Y59.54 E3.30598
G1 X71.363 Y59.55 E3.32939
G1 X47.587 Y59.55 E4.71327
G1 X46.798 Y59.51 E4.75926
G1 X46.018 Y59.391 E4.80518
G1 X45.253 Y59.193 E4.85118
G1 X44.513 Y58.919 E4.89711
G1 X43.804 Y58.571 E4.94308
G1 X43.133 Y58.153 E4.98909
G1 X42.509 Y57.67 E5.03502
G1 X41.936 Y57.127 E5.08097
G1 X41.421 Y56.528 E5.12695
G1 X40.97 Y55.88 E5.1729
G1 X40.586 Y55.189 E5.21891
G1 X40.274 Y54.464 E5.26485
G1 X40.037 Y53.711 E5.3108
G1 X39.878 Y52.937 E5.35679
G1 X39.797 Y52.152 E5.40273
G1 X39.787 Y51.75 E5.42613
G1 X39.787 Y48.75 E5.60075
G1 X39.827 Y47.961 E5.64673
G1 X39.946 Y47.181 E5.69266
G1 X40.144 Y46.416 E5.73865
G1 X40.418 Y45.676 E5.78458
G1 X40.766 Y44.967 E5.83055
G1 X41.184 Y44.296 E5.87657
G1 X41.667 Y43.672 E5.92249
G1 X42.21 Y43.099 E5.96844
G0 F3600 X42.603 Y43.28
G1 F1800 X43.198 Y42.792 E6.01323
G1 X43.84 Y42.369 E6.05798
G1 X44.523 Y42.014 E6.10279
G1 X45.238 Y41.733 E6.1475
G1 X45.98 Y41.527 E6.19232
G1 X46.738 Y41.399 E6.23707
G1 X47.587 Y41.35 E6.28657
G1 X71.363 Y41.35 E7.67045
G1 X72.131 Y41.39 E7.71522
G1 X72.891 Y41.509 E7.75999
G1 X73.634 Y41.707 E7.80475
G1 X74.353 Y41.981 E7.84953
G1 X75.039 Y42.328 E7.89428
G1 X75.686 Y42.744 E7.93905
G1 X76.286 Y43.225 E7.98381
G1 X76.833 Y43.766 E8.02859
G1 X77.321 Y44.361 E8.07338
G1 X77.744 Y45.003 E8.11813
G1 X78.099 Y45.686 E8.16293
G1 X78.38 Y46.401 E8.20765
G1 X78.586 Y47.143 E8.25247
G1 X78.714 Y47.901 E8.29721
G1 X78.763 Y48.75 E8.34671
G1 X78.763 Y51.75 E8.52133
G1 X78.723 Y52.518 E8.56609
G1 X78.604 Y53.278 E8.61087
G1 X78.406 Y54.021 E8.65562
G1 X78.132 Y54.74 E8.70041
G1 X77.785 Y55.426 E8.74515
G1 X77.369 Y56.073 E8.78992
G1 X76.888 Y56.673 E8.83468
G1 X76.347 Y57.22 E8.87946
G1 X75.752 Y57.708 E8.92425
G1 X75.11 Y58.131 E8.969
G1 X74.427 Y58.486 E9.01381
G1 X73.712 Y58.767 E9.05852
G1 X72.97 Y58.973 E9.10334
G1 X72.212 Y59.101 E9.14809
G1 X71.363 Y59.15 E9.19759
G1 X47.587 Y59.15 E10.58148
G1 X46.819 Y59.11 E10.62624
G1 X46.059 Y58.991 E10.67101
G1 X45.316 Y58.793 E10.71577
G1 X44.597 Y58.519 E10.76055
G1 X43.911 Y58.172 E10.8053
G1 X43.264 Y57.756 E10.85007
G1 X42.664 Y57.275 E10.89483
G1 X42.117 Y56.734 E10.93961
G1 X41.629 Y56.139 E10.9844
G1 X41.206 Y55.497 E11.02915
G1 X40.851 Y54.814 E11.07395
G1 X40.57 Y54.099 E11.11867
G1 X40.364 Y53.357 E11.16349
G1 X40.236 Y52.599 E11.20824
G1 X40.187 Y51.75 E11.25773
G1 X40.187 Y48.75 E11.43235
G1 X40.227 Y47.982 E11.47711
G1 X40.346 Y47.222 E11.52189
G1 X40.544 Y46.479 E11.56664
G1 X40.818 Y45.76 E11.61143
G1 X41.165 Y45.074 E11.65617
G1 X41.581 Y44.427 E11.70095
G1 X42.062 Y43.827 E11.74571
G1 X42.603 Y43.28 E11.79049
G0 F3600 X42.995 Y43.466
G1 F1800 X43.585 Y43.007 E11.834
G1 X44.221 Y42.612 E11.87757
G1 X44.895 Y42.288 E11.9211
G1 X45.6 Y42.038 E11.96464
G1 X46.328 Y41.864 E12.00821
G1 X47.07 Y41.769 E12.05175
G1 X47.587 Y41.75 E12.08186
G1 X71.363 Y41.75 E13.46575
G1 X72.11 Y41.79 E13.50929
G1 X72.848 Y41.909 E13.5528
G1 X73.57 Y42.107 E13.59637
G1 X74.266 Y42.38 E13.63989
G1 X74.929 Y42.727 E13.68345
G1 X75.552 Y43.142 E13.72702
G1 X76.126 Y43.621 E13.77053
G1 X76.647 Y44.158 E13.81408
G1 X77.106 Y44.748 E13.85759
G1 X77.501 Y45.384 E13.90117
G1 X77.825 Y46.058 E13.94469
G1 X78.075 Y46.763 E13.98823
G1 X78.249 Y47.491 E14.0318
G1 X78.344 Y48.233 E14.07534
G1 X78.363 Y48.75 E14.10545
G1 X78.363 Y51.75 E14.28007
G1 X78.323 Y52.497 E14.32361
G1 X78.204 Y53.235 E14.36712
G1 X78.006 Y53.957 E14.4107
G1 X77.733 Y54.653 E14.45421
G1 X77.386 Y55.316 E14.49777
G1 X76.971 Y55.939 E14.54134
G1 X76.492 Y56.513 E14.58485
G1 X75.955 Y57.034 E14.6284
G1 X75.365 Y57.493 E14.67191
G1 X74.729 Y57.888 E14.71549
G1 X74.055 Y58.212 E14.75902
G1 X73.35 Y58.462 E14.80256
G1 X72.622 Y58.636 E14.84612
G1 X71.88 Y58.731 E14.88966
G1 X71.363 Y58.75 E14.91978
G1 X47.587 Y58.75 E16.30366
G1 X46.84 Y58.71 E16.3472
G1 X46.102 Y58.591 E16.39071
G1 X45.38 Y58.393 E16.43429
G1 X44.684 Y58.12 E16.47781
G1 X44.021 Y57.773 E16.52136
G1 X43.398 Y57.358 E16.56493
G1 X42.824 Y56.879 E16.60845
G1 X42.303 Y56.342 E16.652
G1 X41.844 Y55.752 E16.69551
G1 X41.449 Y55.116 E16.73908
G1 X41.125 Y54.442 E16.78261
G1 X40.875 Y53.737 E16.82615
G1 X40.701 Y53.009 E16.86972
G1 X40.606 Y52.267 E16.91326
G1 X40.587 Y51.75 E16.94337
G1 X40.587 Y48.75 E17.11799
G1 X40.627 Y48.003 E17.16153
G1 X40.746 Y47.265 E17.20504
G1 X40.944 Y46.543 E17.24861
G1 X41.217 Y45.847 E17.29213
G1 X41.564 Y45.184 E17.33568
G1 X41.979 Y44.561 E17.37926
G1 X42.458 Y43.987 E17.42277
G1 X42.995 Y43.466 E17.46632
G0 F3600 X43.386 Y43.659
G1 F1800 X43.971 Y43.229 E17.50858
G1 X44.6 Y42.865 E17.55088
G1 X45.265 Y42.572 E17.59317
G1 X45.958 Y42.354 E17.63546
G1 X46.67 Y42.214 E17.6777
G1 X47.587 Y42.15 E17.7312
G1 X71.363 Y42.15 E19.11509
G1 X72.088 Y42.19 E19.15735
G1 X72.805 Y42.309 E19.19965
G1 X73.504 Y42.507 E19.24194
G1 X74.177 Y42.78 E19.28421
G1 X74.816 Y43.125 E19.32648
G1 X75.413 Y43.539 E19.36877
G1 X75.961 Y44.015 E19.41102
G1 X76.454 Y44.549 E19.45332
G1 X76.884 Y45.134 E19.49558
G1 X77.248 Y45.763 E19.53788
G1 X77.541 Y46.428 E19.58017
G1 X77.759 Y47.121 E19.62246
G1 X77.899 Y47.833 E19.66469
G1 X77.963 Y48.75 E19.7182
G1 X77.963 Y51.75 E19.89281
G1 X77.923 Y52.475 E19.93508
G1 X77.804 Y53.192 E19.97738
G1 X77.606 Y53.891 E20.01967
G1 X77.333 Y54.564 E20.06194
G1 X76.988 Y55.203 E20.10421
G1 X76.574 Y55.8 E20.14649
G1 X76.098 Y56.348 E20.18874
G1 X75.564 Y56.841 E20.23105
G1 X74.979 Y57.271 E20.2733
G1 X74.35 Y57.635 E20.3156
G1 X73.685 Y57.928 E20.3579
G1 X72.992 Y58.146 E20.40019
G1 X72.28 Y58.286 E20.44242
G1 X71.363 Y58.35 E20.49593
G1 X47.587 Y58.35 E21.87981
G1 X46.862 Y58.31 E21.92208
G1 X46.145 Y58.191 E21.96438
G1 X45.446 Y57.993 E22.00667
G1 X44.773 Y57.72 E22.04894
G1 X44.134 Y57.375 E22.09121
G1 X43.537 Y56.961 E22.13349
G1 X42.989 Y56.485 E22.17574
G1 X42.496 Y55.951 E22.21804
G1 X42.066 Y55.366 E22.2603
G1 X41.702 Y54.737 E22.3026
G1 X41.409 Y54.072 E22.3449
G1 X41.191 Y53.379 E22.38718
G1 X41.051 Y52.667 E22.42942
G1 X40.987 Y51.75 E22.48292
G1 X40.987 Y48.75 E22.65754
G1 X41.027 Y48.025 E22.6998
G1 X41.146 Y47.308 E22.74211
G1 X41.344 Y46.609 E22.78439
G1 X41.617 Y45.936 E22.82667
G1 X41.962 Y45.297 E22.86893
G1 X42.376 Y44.7 E22.91122
G1 X42.852 Y44.152 E22.95347
G1 X43.386 Y43.659 E22.99577
G0 F3600 X43.776 Y43.859
G1 F1800 X44.355 Y43.459 E23.03673
G1 X44.976 Y43.127 E23.07772
G1 X45.63 Y42.867 E23.11868
G1 X46.31 Y42.683 E23.15969
G1 X47.006 Y42.577 E23.20066
G1 X47.587 Y42.55 E23.23452
G1 X71.363 Y42.55 E24.6184
G1 X72.066 Y42.59 E24.65939
G1 X72.76 Y42.709 E24.70037
G1 X73.435 Y42.907 E24.74132
G1 X74.084 Y43.179 E24.78228
G1 X74.698 Y43.524 E24.82327
G1 X75.269 Y43.935 E24.86422
G1 X75.79 Y44.409 E24.90522
G1 X76.254 Y44.939 E24.94622
G1 X76.654 Y45.518 E24.98718
G1 X76.986 Y46.139 E25.02816
G1 X77.246 Y46.793 E25.06913
G1 X77.43 Y47.473 E25.11013
G1 X77.536 Y48.169 E25.15111
G1 X77.563 Y48.75 E25.18496
G1 X77.563 Y51.75 E25.35958
G1 X77.523 Y52.453 E25.40056
G1 X77.404 Y53.147 E25.44155
G1 X77.206 Y53.822 E25.48249
G1 X76.934 Y54.471 E25.52345
G1 X76.589 Y55.085 E25.56444
G1 X76.178 Y55.656 E25.60539
G1 X75.704 Y56.177 E25.64639
G1 X75.174 Y56.641 E25.68739
G1 X74.595 Y57.041 E25.72835
G1 X73.974 Y57.373 E25.76934
G1 X73.32 Y57.633 E25.8103
G1 X72.64 Y57.817 E25.8513
G1 X71.944 Y57.923 E25.89228
G1 X71.363 Y57.95 E25.92614
G1 X47.587 Y57.95 E27.31002
G1 X46.884 Y57.91 E27.35101
G1 X46.19 Y57.791 E27.39199
G1 X45.515 Y57.593 E27.43294
G1 X44.866 Y57.321 E27.47389
G1 X44.252 Y56.976 E27.51489
G1 X43.681 Y56.565 E27.55584
G1 X43.16 Y56.091 E27.59683
G1 X42.696 Y55.561 E27.63784
G1 X42.296 Y54.982 E27.6788
G1 X41.964 Y54.361 E27.71978
G1 X41.704 Y53.707 E27.76075
G1 X41.52 Y53.027 E27.80175
G1 X41.414 Y52.331 E27.84273
G1 X41.387 Y51.75 E27.87658
G1 X41.387 Y48.75 E28.0512
G1 X41.427 Y48.047 E28.09218
G1 X41.546 Y47.353 E28.13317
G1 X41.744 Y46.678 E28.17411
G1 X42.016 Y46.029 E28.21507
G1 X42.361 Y45.415 E28.25606
G1 X42.772 Y44.844 E28.29701
G1 X43.246 Y44.323 E28.33801
G1 X43.776 Y43.859 E28.37901
G0 F3600 X44.165 Y44.067
G1 F1800 X44.737 Y43.698 E28.41863
G1 X45.349 Y43.399 E28.45827
G1 X45.991 Y43.174 E28.49787
G1 X46.656 Y43.025 E28.53754
G1 X47.587 Y42.95 E28.5919
G1 X71.363 Y42.95 E29.97579
G1 X72.043 Y42.99 E30.01544
G1 X72.713 Y43.109 E30.05504
G1 X73.365 Y43.306 E30.09469
G1 X73.989 Y43.578 E30.13431
G1 X74.577 Y43.922 E30.17396
G1 X75.121 Y44.332 E30.21361
G1 X75.612 Y44.803 E30.25321
G1 X76.046 Y45.328 E30.29286
G1 X76.415 Y45.9 E30.33248
G1 X76.714 Y46.512 E30.37213
G1 X76.939 Y47.154 E30.41172
G1 X77.088 Y47.819 E30.45139
G1 X77.163 Y48.75 E30.50575
G1 X77.163 Y51.75 E30.68037
G1 X77.123 Y52.43 E30.72002
G1 X77.004 Y53.1 E30.75962
G1 X76.807 Y53.752 E30.79927
G1 X76.535 Y54.376 E30.83889
G1 X76.191 Y54.964 E30.87854
G1 X75.781 Y55.508 E30.91819
G1 X75.31 Y55.999 E30.95779
G1 X74.785 Y56.433 E30.99744
G1 X74.213 Y56.802 E31.03706
G1 X73.601 Y57.101 E31.0767
G1 X72.959 Y57.326 E31.1163
G1 X72.294 Y57.475 E31.15597
G1 X71.363 Y57.55 E31.21033
G1 X47.587 Y57.55 E32.59422
G1 X46.907 Y57.51 E32.63387
G1 X46.237 Y57.391 E32.67347
G1 X45.585 Y57.194 E32.71312
G1 X44.961 Y56.922 E32.75274
G1 X44.373 Y56.578 E32.79239
G1 X43.829 Y56.168 E32.83204
G1 X43.338 Y55.697 E32.87164
G1 X42.904 Y55.172 E32.91129
G1 X42.535 Y54.6 E32.95091
G1 X42.236 Y53.988 E32.99056
G1 X42.011 Y53.346 E33.03015
G1 X41.862 Y52.681 E33.06982
G1 X41.787 Y51.75 E33.12418
G1 X41.787 Y48.75 E33.2988
G1 X41.827 Y48.07 E33.33845
G1 X41.946 Y47.4 E33.37805
G1 X42.143 Y46.748 E33.4177
G1 X42.415 Y46.124 E33.45732
G1 X42.759 Y45.536 E33.49697
G1 X43.169 Y44.992 E33.53662
G1 X43.64 Y44.501 E33.57622
G1 X44.165 Y44.067 E33.61587
G0 F3600 X44.552 Y44.284
G1 F1800 X45.116 Y43.948 E33.65408
G1 X45.718 Y43.684 E33.69234
G1 X46.347 Y43.494 E33.73059
G1 X46.994 Y43.383 E33.7688
G1 X47.587 Y43.35 E33.80336
G1 X71.363 Y43.35 E35.18725
G1 X72.019 Y43.39 E35.22551
G1 X72.665 Y43.509 E35.26374
G1 X73.292 Y43.706 E35.30199
G1 X73.89 Y43.978 E35.34023
G1 X74.451 Y44.32 E35.37847
G1 X74.966 Y44.728 E35.41672
G1 X75.428 Y45.195 E35.45495
G1 X75.829 Y45.715 E35.49317
G1 X76.165 Y46.279 E35.53138
G1 X76.429 Y46.881 E35.56964
G1 X76.619 Y47.51 E35.60789
G1 X76.73 Y48.157 E35.6461
G1 X76.763 Y48.75 E35.68067
G1 X76.763 Y51.75 E35.85528
G1 X76.723 Y52.406 E35.89354
G1 X76.604 Y53.052 E35.93177
G1 X76.407 Y53.679 E35.97002
G1 X76.135 Y54.277 E36.00826
G1 X75.793 Y54.838 E36.0465
G1 X75.385 Y55.353 E36.08475
G1 X74.918 Y55.815 E36.12298
G1 X74.398 Y56.216 E36.1612
G1 X73.834 Y56.552 E36.19942
G1 X73.232 Y56.816 E36.23768
G1 X72.603 Y57.006 E36.27592
G1 X71.956 Y57.117 E36.31413
G1 X71.363 Y57.15 E36.3487
G1 X47.587 Y57.15 E37.73259
G1 X46.931 Y57.11 E37.77084
G1 X46.285 Y56.991 E37.80907
G1 X45.658 Y56.794 E37.84733
G1 X45.06 Y56.522 E37.88557
G1 X44.499 Y56.18 E37.92381
G1 X43.984 Y55.772 E37.96205
G1 X43.522 Y55.305 E38.00029
G1 X43.121 Y54.785 E38.03851
G1 X42.785 Y54.221 E38.07672
G1 X42.521 Y53.619 E38.11498
G1 X42.331 Y52.99 E38.15322
G1 X42.22 Y52.343 E38.19143
G1 X42.187 Y51.75 E38.226
G1 X42.187 Y48.75 E38.40062
G1 X42.227 Y48.094 E38.43887
G1 X42.346 Y47.448 E38.47711
G1 X42.543 Y46.821 E38.51536
G1 X42.815 Y46.223 E38.5536
G1 X43.157 Y45.662 E38.59184
G1 X43.565 Y45.147 E38.63008
G1 X44.032 Y44.685 E38.66832
G1 X44.552 Y44.284 E38.70654
G0 F3600 X44.937 Y44.51
G1 F1800 X45.493 Y44.21 E38.74331
G1 X46.082 Y43.982 E38.78007
G1 X46.696 Y43.83 E38.81689
G1 X47.587 Y43.75 E38.86896
G1 X71.363 Y43.75 E40.25285
G1 X71.994 Y43.79 E40.28965
G1 X72.615 Y43.909 E40.32645
G1 X73.215 Y44.106 E40.36321
G1 X73.787 Y44.377 E40.40005
G1 X74.319 Y44.717 E40.4368
G1 X74.804 Y45.123 E40.47361
G1 X75.234 Y45.586 E40.51039
G1 X75.603 Y46.1 E40.54722
G1 X75.903 Y46.656 E40.58399
G1 X76.131 Y47.245 E40.62076
G1 X76.283 Y47.859 E40.65757
G1 X76.363 Y48.75 E40.70964
G1 X76.363 Y51.75 E40.88426
G1 X76.323 Y52.381 E40.92106
G1 X76.204 Y53.002 E40.95786
G1 X76.007 Y53.602 E40.99462
G1 X75.736 Y54.174 E41.03146
G1 X75.396 Y54.706 E41.06821
G1 X74.99 Y55.191 E41.10502
G1 X74.527 Y55.621 E41.1418
G1 X74.013 Y55.99 E41.17863
G1 X73.457 Y56.29 E41.2154
G1 X72.868 Y56.518 E41.25217
G1 X72.254 Y56.67 E41.28898
G1 X71.363 Y56.75 E41.34105
G1 X47.587 Y56.75 E42.72494
G1 X46.956 Y56.71 E42.76174
G1 X46.335 Y56.591 E42.79854
G1 X45.735 Y56.394 E42.8353
G1 X45.163 Y56.123 E42.87214
G1 X44.631 Y55.783 E42.90889
G1 X44.146 Y55.377 E42.94571
G1 X43.716 Y54.914 E42.98248
G1 X43.347 Y54.4 E43.01931
G1 X43.047 Y53.844 E43.05609
G1 X42.819 Y53.255 E43.09285
G1 X42.667 Y52.641 E43.12966
G1 X42.587 Y51.75 E43.18173
G1 X42.587 Y48.75 E43.35635
G1 X42.627 Y48.119 E43.39315
G1 X42.746 Y47.498 E43.42995
G1 X42.943 Y46.898 E43.46671
G1 X43.214 Y46.326 E43.50355
G1 X43.554 Y45.794 E43.5403
G1 X43.96 Y45.309 E43.57712
G1 X44.423 Y44.879 E43.61389
G1 X44.937 Y44.51 E43.65072
G0 F3600 X45.319 Y44.748
G1 F1800 X45.865 Y44.484 E43.68602
G1 X46.441 Y44.295 E43.72131
G1 X47.037 Y44.183 E43.75661
G1 X47.587 Y44.15 E43.78868
G1 X71.363 Y44.15 E45.17256
G1 X71.968 Y44.19 E45.20785
G1 X72.562 Y44.309 E45.24312
G1 X73.136 Y44.505 E45.27842
G1 X73.679 Y44.776 E45.31374
G1 X74.182 Y45.115 E45.34905
G1 X74.635 Y45.517 E45.3843
G1 X75.032 Y45.975 E45.41958
G1 X75.365 Y46.482 E45.45489
G1 X75.629 Y47.028 E45.49019
G1 X75.818 Y47.604 E45.52547
G1 X75.93 Y48.2 E45.56077
G1 X75.963 Y48.75 E45.59284
G1 X75.963 Y51.75 E45.76745
G1 X75.923 Y52.355 E45.80274
G1 X75.804 Y52.949 E45.83801
G1 X75.608 Y53.523 E45.87331
G1 X75.337 Y54.066 E45.90863
G1 X74.998 Y54.569 E45.94394
G1 X74.596 Y55.022 E45.97919
G1 X74.138 Y55.419 E46.01447
G1 X73.631 Y55.752 E46.04978
G1 X73.085 Y56.016 E46.08508
G1 X72.509 Y56.205 E46.12036
G1 X71.913 Y56.317 E46.15566
G1 X71.363 Y56.35 E46.18773
G1 X47.587 Y56.35 E47.57162
G1 X46.982 Y56.31 E47.60691
G1 X46.388 Y56.191 E47.64217
G1 X45.814 Y55.995 E47.67747
G1 X45.271 Y55.724 E47.71279
G1 X44.768 Y55.385 E47.7481
G1 X44.315 Y54.983 E47.78335
G1 X43.918 Y54.525 E47.81863
G1 X43.585 Y54.018 E47.85394
G1 X43.321 Y53.472 E47.88924
G1 X43.132 Y52.896 E47.92452
G1 X43.02 Y52.3 E47.95982
G1 X42.987 Y51.75 E47.99189
G1 X42.987 Y48.75 E48.16651
G1 X43.027 Y48.145 E48.2018
G1 X43.146 Y47.551 E48.23706
G1 X43.342 Y46.977 E48.27236
G1 X43.613 Y46.434 E48.30768
G1 X43.952 Y45.931 E48.34299
G1 X44.354 Y45.478 E48.37824
G1 X44.812 Y45.081 E48.41352
G1 X45.319 Y44.748 E48.44883
G0 F3600 X45.698 Y44.999
G1 F1800 X46.232 Y44.774 E48.48256
G1 X46.792 Y44.626 E48.51627
G1 X47.587 Y44.55 E48.56275
G1 X71.363 Y44.55 E49.94664
G1 X71.941 Y44.59 E49.98036
G1 X72.508 Y44.709 E50.01409
G1 X73.053 Y44.905 E50.0478
G1 X73.566 Y45.174 E50.08151
G1 X74.037 Y45.511 E50.11522
G1 X74.457 Y45.91 E50.14894
