;FLAVOR:RepRap
;TIME:1094
;Filament used: 1.09981m
;Layer height: 0.2
;Generated with Cura_SteamEngine master
M190 S60
M104 S195
M109 S195
G28 ;Home
G1 Z15.0 F6000 ;Move the platform down 15mm
;Prime the extruder
G92 E0
G1 F200 E3
G92 E0
;LAYER_COUNT:4
;LAYER:0
M107
G1 F1500 E-6.5
G0 F3600 X34.08 Y25.958 Z0.35
;TYPE:SKIRT
G1 F1500 E0
G1 F1800 X34.623 Y25.385 E0.04595
G1 X35.222 Y24.87 E0.09193
G1 X35.87 Y24.419 E0.13788
G1 X36.561 Y24.035 E0.18389
G1 X37.286 Y23.723 E0.22983
G1 X38.039 Y23.486 E0.27578
G1 X38.813 Y23.327 E0.32177
G1 X39.598 Y23.246 E0.36771
G1 X40 Y23.236 E0.39111
G1 X80 Y23.236 E2.71932
G1 X80.789 Y23.276 E2.76531
G1 X81.569 Y23.395 E2.81123
G1 X82.334 Y23.593 E2.85723
G1 X83.074 Y23.867 E2.90315
G1 X83.783 Y24.215 E2.94913
G1 X84.454 Y24.633 E2.99514
G1 X85.078 Y25.116 E3.04107
G1 X85.651 Y25.659 E3.08702
G1 X86.166 Y26.258 E3.133
G1 X86.617 Y26.906 E3.17895
G1 X87.001 Y27.597 E3.22496
G1 X87.313 Y28.322 E3.2709
G1 X87.55 Y29.075 E3.31685
G1 X87.709 Y29.849 E3.36284
G1 X87.79 Y30.634 E3.40878
G1 X87.8 Y31.036 E3.43218
G1 X87.8 Y88.964 E6.80389
G1 X87.76 Y89.753 E6.84988
G1 X87.641 Y90.533 E6.8958
G1 X87.443 Y91.298 E6.9418
G1 X87.169 Y92.038 E6.98773
G1 X86.821 Y92.747 E7.0337
G1 X86.403 Y93.418 E7.07971
G1 X85.92 Y94.042 E7.12564
G1 X85.377 Y94.615 E7.17159
G1 X84.778 Y95.13 E7.21757
G1 X84.13 Y95.581 E7.26352
G1 X83.439 Y95.965 E7.30953
G1 X82.714 Y96.277 E7.35547
G1 X81.961 Y96.514 E7.40142
G1 X81.187 Y96.673 E7.44741
G1 X80.402 Y96.754 E7.49335
G1 X80 Y96.764 E7.51675
G1 X40 Y96.764 E9.84496
G1 X39.211 Y96.724 E9.89095
G1 X38.431 Y96.605 E9.93687
G1 X37.666 Y96.407 E9.98287
G1 X36.926 Y96.133 E10.0288
G1 X36.217 Y95.785 E10.07477
G1 X35.546 Y95.367 E10.12078
G1 X34.922 Y94.884 E10.16671
G1 X34.349 Y94.341 E10.21266
G1 X33.834 Y93.742 E10.25864
G1 X33.383 Y93.094 E10.30459
G1 X32.999 Y92.403 E10.3506
G1 X32.687 Y91.678 E10.39654
G1 X32.45 Y90.925 E10.44249
G1 X32.291 Y90.151 E10.48848
G1 X32.21 Y89.366 E10.53442
G1 X32.2 Y88.964 E10.55782
G1 X32.2 Y31.036 E13.92953
G1 X32.24 Y30.247 E13.97552
G1 X32.359 Y29.467 E14.02144
G1 X32.557 Y28.702 E14.06744
G1 X32.831 Y27.962 E14.11337
G1 X33.179 Y27.253 E14.15934
G1 X33.597 Y26.582 E14.20535
G1 X34.08 Y25.958 E14.25128
G0 F3600 X34.475 Y26.113
G1 F1800 X35.016 Y25.566 E14.29606
G1 X35.611 Y25.078 E14.34085
G1 X36.253 Y24.655 E14.3856
G1 X36.936 Y24.3 E14.4304
G1 X37.651 Y24.019 E14.47512
G1 X38.393 Y23.813 E14.51994
G1 X39.151 Y23.685 E14.56469
G1 X40 Y23.636 E14.61418
G1 X80 Y23.636 E16.94239
G1 X80.768 Y23.676 E16.98716
G1 X81.528 Y23.795 E17.03193
G1 X82.271 Y23.993 E17.07669
G1 X82.99 Y24.267 E17.12147
G1 X83.676 Y24.614 E17.16622
G1 X84.323 Y25.03 E17.21099
G1 X84.923 Y25.511 E17.25575
G1 X85.47 Y26.052 E17.30053
G1 X85.958 Y26.647 E17.34532
G1 X86.381 Y27.289 E17.39007
G1 X86.736 Y27.972 E17.43487
G1 X87.017 Y28.687 E17.47959
G1 X87.223 Y29.429 E17.52441
G1 X87.351 Y30.187 E17.56915
G1 X87.4 Y31.036 E17.61865
G1 X87.4 Y88.964 E20.99037
G1 X87.36 Y89.732 E21.03513
G1 X87.241 Y90.492 E21.0799
G1 X87.043 Y91.235 E21.12466
G1 X86.769 Y91.954 E21.16944
G1 X86.422 Y92.64 E21.21419
G1 X86.006 Y93.287 E21.25896
G1 X85.525 Y93.887 E21.30372
G1 X84.984 Y94.434 E21.3485
G1 X84.389 Y94.922 E21.39329
G1 X83.747 Y95.345 E21.43804
G1 X83.064 Y95.7 E21.48284
G1 X82.349 Y95.981 E21.52756
G1 X81.607 Y96.187 E21.57238
G1 X80.849 Y96.315 E21.61713
G1 X80 Y96.364 E21.66662
G1 X40 Y96.364 E23.99483
G1 X39.232 Y96.324 E24.0396
G1 X38.472 Y96.205 E24.08437
G1 X37.729 Y96.007 E24.12913
G1 X37.01 Y95.733 E24.17391
G1 X36.324 Y95.386 E24.21866
G1 X35.677 Y94.97 E24.26343
G1 X35.077 Y94.489 E24.30819
G1 X34.53 Y93.948 E24.35297
G1 X34.042 Y93.353 E24.39776
G1 X33.619 Y92.711 E24.44251
G1 X33.264 Y92.028 E24.48731
G1 X32.983 Y91.313 E24.53203
G1 X32.777 Y90.571 E24.57685
G1 X32.649 Y89.813 E24.62159
G1 X32.6 Y88.964 E24.67109
G1 X32.6 Y31.036 E28.04281
G1 X32.64 Y30.268 E28.08757
G1 X32.759 Y29.508 E28.13234
G1 X32.957 Y28.765 E28.1771
G1 X33.231 Y28.046 E28.22188
G1 X33.578 Y27.36 E28.26663
G1 X33.994 Y26.713 E28.3114
G1 X34.475 Y26.113 E28.35616
G0 F3600 X34.871 Y26.273
G1 F1800 X35.408 Y25.752 E28.39971
G1 X35.998 Y25.293 E28.44322
G1 X36.634 Y24.898 E28.4868
G1 X37.308 Y24.574 E28.53033
G1 X38.013 Y24.324 E28.57386
G1 X38.741 Y24.15 E28.61743
G1 X39.483 Y24.055 E28.66097
G1 X40 Y24.036 E28.69108
G1 X80 Y24.036 E31.01929
G1 X80.747 Y24.076 E31.06283
G1 X81.485 Y24.195 E31.10635
G1 X82.207 Y24.393 E31.14992
G1 X82.903 Y24.666 E31.19344
G1 X83.566 Y25.013 E31.23699
G1 X84.189 Y25.428 E31.28056
G1 X84.763 Y25.907 E31.32408
G1 X85.284 Y26.444 E31.36763
G1 X85.743 Y27.034 E31.41114
G1 X86.138 Y27.67 E31.45471
G1 X86.462 Y28.344 E31.49824
G1 X86.712 Y29.049 E31.54178
G1 X86.886 Y29.777 E31.58535
G1 X86.981 Y30.519 E31.62889
G1 X87 Y31.036 E31.659
G1 X87 Y88.964 E35.03071
G1 X86.96 Y89.711 E35.07425
G1 X86.841 Y90.449 E35.11776
G1 X86.643 Y91.171 E35.16134
G1 X86.37 Y91.867 E35.20486
G1 X86.023 Y92.53 E35.24841
G1 X85.608 Y93.153 E35.29198
G1 X85.129 Y93.727 E35.3355
G1 X84.592 Y94.248 E35.37905
G1 X84.002 Y94.707 E35.42256
G1 X83.366 Y95.102 E35.46613
G1 X82.692 Y95.426 E35.50966
G1 X81.987 Y95.676 E35.5532
G1 X81.259 Y95.85 E35.59677
G1 X80.517 Y95.945 E35.64031
G1 X80 Y95.964 E35.67042
G1 X40 Y95.964 E37.99863
G1 X39.253 Y95.924 E38.04217
G1 X38.515 Y95.805 E38.08568
G1 X37.793 Y95.607 E38.12926
G1 X37.097 Y95.334 E38.17277
G1 X36.434 Y94.987 E38.21633
G1 X35.811 Y94.572 E38.2599
G1 X35.237 Y94.093 E38.30341
G1 X34.716 Y93.556 E38.34696
G1 X34.257 Y92.966 E38.39047
G1 X33.862 Y92.33 E38.43405
G1 X33.538 Y91.656 E38.47758
G1 X33.288 Y90.951 E38.52112
G1 X33.114 Y90.223 E38.56468
G1 X33.019 Y89.481 E38.60822
G1 X33 Y88.964 E38.63834
G1 X33 Y31.036 E42.01005
G1 X33.04 Y30.289 E42.05359
G1 X33.159 Y29.551 E42.0971
G1 X33.357 Y28.829 E42.14068
G1 X33.63 Y28.133 E42.18419
G1 X33.977 Y27.47 E42.22775
G1 X34.392 Y26.847 E42.27132
G1 X34.871 Y26.273 E42.31483
G0 F3600 X35.265 Y26.438
G1 F1800 X35.799 Y25.945 E42.35714
G1 X36.384 Y25.515 E42.39939
G1 X37.013 Y25.151 E42.44169
G1 X37.678 Y24.858 E42.48399
G1 X38.371 Y24.64 E42.52628
G1 X39.083 Y24.5 E42.56851
G1 X40 Y24.436 E42.62202
G1 X80 Y24.436 E44.95023
G1 X80.725 Y24.476 E44.99249
G1 X81.442 Y24.595 E45.03479
G1 X82.141 Y24.793 E45.07708
G1 X82.814 Y25.066 E45.11935
G1 X83.453 Y25.411 E45.16162
G1 X84.05 Y25.825 E45.2039
G1 X84.598 Y26.301 E45.24615
G1 X85.091 Y26.835 E45.28846
G1 X85.521 Y27.42 E45.33072
G1 X85.885 Y28.049 E45.37301
G1 X86.178 Y28.714 E45.41531
G1 X86.396 Y29.407 E45.4576
G1 X86.536 Y30.119 E45.49983
G1 X86.6 Y31.036 E45.55334
G1 X86.6 Y88.964 E48.92505
G1 X86.56 Y89.689 E48.96731
G1 X86.441 Y90.406 E49.00962
G1 X86.243 Y91.105 E49.0519
G1 X85.97 Y91.778 E49.09417
G1 X85.625 Y92.417 E49.13644
G1 X85.211 Y93.014 E49.17873
G1 X84.735 Y93.562 E49.22098
G1 X84.201 Y94.055 E49.26328
G1 X83.616 Y94.485 E49.30554
G1 X82.987 Y94.849 E49.34784
G1 X82.322 Y95.142 E49.39014
G1 X81.629 Y95.36 E49.43242
G1 X80.917 Y95.5 E49.47466
G1 X80 Y95.564 E49.52816
G1 X40 Y95.564 E51.85637
G1 X39.275 Y95.524 E51.89863
G1 X38.558 Y95.405 E51.94094
G1 X37.859 Y95.207 E51.98322
G1 X37.186 Y94.934 E52.0255
G1 X36.547 Y94.589 E52.06776
G1 X35.95 Y94.175 E52.11005
G1 X35.402 Y93.699 E52.1523
G1 X34.909 Y93.165 E52.1946
G1 X34.479 Y92.58 E52.23686
G1 X34.115 Y91.951 E52.27916
G1 X33.822 Y91.286 E52.32146
G1 X33.604 Y90.593 E52.36374
G1 X33.464 Y89.881 E52.40598
G1 X33.4 Y88.964 E52.45948
G1 X33.4 Y31.036 E55.83119
G1 X33.44 Y30.311 E55.87346
G1 X33.559 Y29.594 E55.91576
G1 X33.757 Y28.895 E55.95805
G1 X34.03 Y28.222 E56.00032
G1 X34.375 Y27.583 E56.04259
G1 X34.789 Y26.986 E56.08487
G1 X35.265 Y26.438 E56.12712
G0 F3600 X35.659 Y26.609
G1 F1800 X36.189 Y26.145 E56.16812
G1 X36.768 Y25.745 E56.20908
G1 X37.389 Y25.413 E56.25007
G1 X38.043 Y25.153 E56.29103
G1 X38.723 Y24.969 E56.33204
G1 X39.419 Y24.863 E56.37302
G1 X40 Y24.836 E56.40687
G1 X80 Y24.836 E58.73508
G1 X80.703 Y24.876 E58.77606
G1 X81.397 Y24.995 E58.81705
G1 X82.072 Y25.193 E58.85799
G1 X82.721 Y25.465 E58.89895
G1 X83.335 Y25.81 E58.93994
G1 X83.906 Y26.221 E58.98089
G1 X84.427 Y26.695 E59.02189
G1 X84.891 Y27.225 E59.06289
G1 X85.291 Y27.804 E59.10385
G1 X85.623 Y28.425 E59.14484
G1 X85.883 Y29.079 E59.1858
G1 X86.067 Y29.759 E59.2268
G1 X86.173 Y30.455 E59.26778
G1 X86.2 Y31.036 E59.30164
G1 X86.2 Y88.964 E62.67335
G1 X86.16 Y89.667 E62.71433
G1 X86.041 Y90.361 E62.75532
G1 X85.843 Y91.036 E62.79626
G1 X85.571 Y91.685 E62.83722
G1 X85.226 Y92.299 E62.87821
G1 X84.815 Y92.87 E62.91916
G1 X84.341 Y93.391 E62.96016
G1 X83.811 Y93.855 E63.00116
G1 X83.232 Y94.255 E63.04212
G1 X82.611 Y94.587 E63.08311
G1 X81.957 Y94.847 E63.12407
G1 X81.277 Y95.031 E63.16508
G1 X80.581 Y95.137 E63.20605
G1 X80 Y95.164 E63.23991
G1 X40 Y95.164 E65.56812
G1 X39.297 Y95.124 E65.6091
G1 X38.603 Y95.005 E65.65009
G1 X37.928 Y94.807 E65.69103
G1 X37.279 Y94.535 E65.73199
G1 X36.665 Y94.19 E65.77298
G1 X36.094 Y93.779 E65.81393
G1 X35.573 Y93.305 E65.85493
G1 X35.109 Y92.775 E65.89593
G1 X34.709 Y92.196 E65.93689
G1 X34.377 Y91.575 E65.97788
G1 X34.117 Y90.921 E66.01884
G1 X33.933 Y90.241 E66.05984
G1 X33.827 Y89.545 E66.10082
G1 X33.8 Y88.964 E66.13467
G1 X33.8 Y31.036 E69.50639
G1 X33.84 Y30.333 E69.54737
G1 X33.959 Y29.639 E69.58836
G1 X34.157 Y28.964 E69.6293
G1 X34.429 Y28.315 E69.67026
G1 X34.774 Y27.701 E69.71125
G1 X35.185 Y27.13 E69.7522
G1 X35.659 Y26.609 E69.7932
G0 F3600 X36.053 Y26.787
G1 F1800 X36.578 Y26.353 E69.83285
G1 X37.15 Y25.984 E69.87247
G1 X37.762 Y25.685 E69.91211
G1 X38.404 Y25.46 E69.95171
G1 X39.069 Y25.311 E69.99137
G1 X40 Y25.236 E70.04574
G1 X80 Y25.236 E72.37395
G1 X80.68 Y25.276 E72.4136
G1 X81.35 Y25.395 E72.4532
G1 X82.002 Y25.592 E72.49285
G1 X82.626 Y25.864 E72.53247
G1 X83.214 Y26.208 E72.57212
G1 X83.758 Y26.618 E72.61177
G1 X84.249 Y27.089 E72.65137
G1 X84.683 Y27.614 E72.69102
G1 X85.052 Y28.186 E72.73064
G1 X85.351 Y28.798 E72.77028
G1 X85.576 Y29.44 E72.80988
G1 X85.725 Y30.105 E72.84955
G1 X85.8 Y31.036 E72.90391
G1 X85.8 Y88.964 E76.27562
G1 X85.76 Y89.644 E76.31527
G1 X85.641 Y90.314 E76.35488
G1 X85.444 Y90.966 E76.39452
G1 X85.172 Y91.59 E76.43414
G1 X84.828 Y92.178 E76.4738
G1 X84.418 Y92.722 E76.51345
G1 X83.947 Y93.213 E76.55305
G1 X83.422 Y93.647 E76.59269
G1 X82.85 Y94.016 E76.63231
G1 X82.238 Y94.315 E76.67196
G1 X81.596 Y94.54 E76.71156
G1 X80.931 Y94.689 E76.75122
G1 X80 Y94.764 E76.80559
G1 X40 Y94.764 E79.1338
G1 X39.32 Y94.724 E79.17344
G1 X38.65 Y94.605 E79.21305
G1 X37.998 Y94.408 E79.2527
G1 X37.374 Y94.136 E79.29232
G1 X36.786 Y93.792 E79.33197
G1 X36.242 Y93.382 E79.37162
G1 X35.751 Y92.911 E79.41122
G1 X35.317 Y92.386 E79.45087
G1 X34.948 Y91.814 E79.49049
G1 X34.649 Y91.202 E79.53013
G1 X34.424 Y90.56 E79.56973
G1 X34.275 Y89.895 E79.6094
G1 X34.2 Y88.964 E79.66376
G1 X34.2 Y31.036 E83.03547
G1 X34.24 Y30.356 E83.07512
G1 X34.359 Y29.686 E83.11473
G1 X34.556 Y29.034 E83.15437
G1 X34.828 Y28.41 E83.19399
G1 X35.172 Y27.822 E83.23365
G1 X35.582 Y27.278 E83.27329
G1 X36.053 Y26.787 E83.3129
G0 F3600 X36.445 Y26.971
G1 F1800 X36.965 Y26.57 E83.35112
G1 X37.529 Y26.234 E83.38933
G1 X38.131 Y25.97 E83.42759
G1 X38.76 Y25.78 E83.46583
G1 X39.407 Y25.669 E83.50404
G1 X40 Y25.636 E83.53861
G1 X80 Y25.636 E85.86682
G1 X80.656 Y25.676 E85.90508
G1 X81.302 Y25.795 E85.94331
G1 X81.929 Y25.992 E85.98156
G1 X82.527 Y26.264 E86.0198
G1 X83.088 Y26.606 E86.05804
G1 X83.603 Y27.014 E86.09629
G1 X84.065 Y27.481 E86.13452
G1 X84.466 Y28.001 E86.17274
G1 X84.802 Y28.565 E86.21095
G1 X85.066 Y29.167 E86.24922
G1 X85.256 Y29.796 E86.28746
G1 X85.367 Y30.443 E86.32567
G1 X85.4 Y31.036 E86.36024
G1 X85.4 Y88.964 E89.73195
G1 X85.36 Y89.62 E89.7702
G1 X85.241 Y90.266 E89.80844
G1 X85.044 Y90.893 E89.84669
G1 X84.772 Y91.491 E89.88493
G1 X84.43 Y92.052 E89.92317
G1 X84.022 Y92.567 E89.96141
G1 X83.555 Y93.029 E89.99965
G1 X83.035 Y93.43 E90.03787
G1 X82.471 Y93.766 E90.07608
G1 X81.869 Y94.03 E90.11434
G1 X81.24 Y94.22 E90.15259
G1 X80.593 Y94.331 E90.1908
G1 X80 Y94.364 E90.22537
G1 X40 Y94.364 E92.55358
G1 X39.344 Y94.324 E92.59183
G1 X38.698 Y94.205 E92.63006
G1 X38.071 Y94.008 E92.66832
G1 X37.473 Y93.736 E92.70656
G1 X36.912 Y93.394 E92.7448
G1 X36.397 Y92.986 E92.78304
G1 X35.935 Y92.519 E92.82128
G1 X35.534 Y91.999 E92.8595
G1 X35.198 Y91.435 E92.89771
G1 X34.934 Y90.833 E92.93597
G1 X34.744 Y90.204 E92.97421
G1 X34.633 Y89.557 E93.01242
G1 X34.6 Y88.964 E93.04699
G1 X34.6 Y31.036 E96.41871
G1 X34.64 Y30.38 E96.45696
G1 X34.759 Y29.734 E96.49519
G1 X34.956 Y29.107 E96.53345
G1 X35.228 Y28.509 E96.57168
G1 X35.57 Y27.948 E96.60993
G1 X35.978 Y27.433 E96.64817
G1 X36.445 Y26.971 E96.6864
G0 F3600 X36.836 Y27.165
G1 F1800 X37.35 Y26.796 E96.72323
G1 X37.906 Y26.496 E96.76001
G1 X38.495 Y26.268 E96.79677
G1 X39.109 Y26.116 E96.83358
G1 X40 Y26.036 E96.88565
G1 X80 Y26.036 E99.21386
G1 X80.631 Y26.076 E99.25066
G1 X81.252 Y26.195 E99.28747
G1 X81.852 Y26.392 E99.32422
G1 X82.424 Y26.663 E99.36107
G1 X82.956 Y27.003 E99.39781
G1 X83.441 Y27.409 E99.43463
G1 X83.871 Y27.872 E99.47141
G1 X84.24 Y28.386 E99.50824
G1 X84.54 Y28.942 E99.54501
G1 X84.768 Y29.531 E99.58177
G1 X84.92 Y30.145 E99.61859
G1 X85 Y31.036 E99.67066
G1 X85 Y88.964 E103.04237
G1 X84.96 Y89.595 E103.07917
G1 X84.841 Y90.216 E103.11597
G1 X84.644 Y90.816 E103.15273
G1 X84.373 Y91.388 E103.18957
G1 X84.033 Y91.92 E103.22632
G1 X83.627 Y92.405 E103.26314
G1 X83.164 Y92.835 E103.29992
G1 X82.65 Y93.204 E103.33674
G1 X82.094 Y93.504 E103.37352
G1 X81.505 Y93.732 E103.41028
G1 X80.891 Y93.884 E103.4471
G1 X80 Y93.964 E103.49916
G1 X40 Y93.964 E105.82737
G1 X39.369 Y93.924 E105.86418
G1 X38.748 Y93.805 E105.90098
G1 X38.148 Y93.608 E105.93774
G1 X37.576 Y93.337 E105.97458
G1 X37.044 Y92.997 E106.01133
G1 X36.559 Y92.591 E106.04814
G1 X36.129 Y92.128 E106.08492
G1 X35.76 Y91.614 E106.12175
G1 X35.46 Y91.058 E106.15852
G1 X35.232 Y90.469 E106.19528
G1 X35.08 Y89.855 E106.2321
G1 X35 Y88.964 E106.28417
G1 X35 Y31.036 E109.65588
G1 X35.04 Y30.405 E109.69268
G1 X35.159 Y29.784 E109.72949
G1 X35.356 Y29.184 E109.76624
G1 X35.627 Y28.612 E109.80308
G1 X35.967 Y28.08 E109.83983
G1 X36.373 Y27.595 E109.87665
G1 X36.836 Y27.165 E109.91343
G0 F3600 X37.225 Y27.367
G1 F1800 X37.732 Y27.034 E109.94873
G1 X38.278 Y26.77 E109.98403
G1 X38.854 Y26.581 E110.01932
G1 X39.45 Y26.469 E110.05462
G1 X40 Y26.436 E110.08669
G1 X80 Y26.436 E112.4149
G1 X80.605 Y26.476 E112.45019
G1 X81.199 Y26.595 E112.48545
G1 X81.773 Y26.791 E112.52075
G1 X82.316 Y27.062 E112.55607
G1 X82.819 Y27.401 E112.59138
G1 X83.272 Y27.803 E112.62663
G1 X83.669 Y28.261 E112.66191
G1 X84.002 Y28.768 E112.69722
G1 X84.266 Y29.314 E112.73252
G1 X84.455 Y29.89 E112.7678
G1 X84.567 Y30.486 E112.8031
G1 X84.6 Y31.036 E112.83517
G1 X84.6 Y88.964 E116.20688
G1 X84.56 Y89.569 E116.24217
G1 X84.441 Y90.163 E116.27743
G1 X84.245 Y90.737 E116.31274
G1 X83.974 Y91.28 E116.34806
G1 X83.635 Y91.783 E116.38337
G1 X83.233 Y92.236 E116.41862
G1 X82.775 Y92.633 E116.4539
G1 X82.268 Y92.966 E116.4892
G1 X81.722 Y93.23 E116.5245
G1 X81.146 Y93.419 E116.55979
G1 X80.55 Y93.531 E116.59509
G1 X80 Y93.564 E116.62716
G1 X40 Y93.564 E118.95537
G1 X39.395 Y93.524 E118.99066
G1 X38.801 Y93.405 E119.02592
G1 X38.227 Y93.209 E119.06122
G1 X37.684 Y92.938 E119.09655
G1 X37.181 Y92.599 E119.13185
G1 X36.728 Y92.197 E119.1671
G1 X36.331 Y91.739 E119.20238
G1 X35.998 Y91.232 E119.23769
G1 X35.734 Y90.686 E119.27299
G1 X35.545 Y90.11 E119.30827
G1 X35.433 Y89.514 E119.34357
G1 X35.4 Y88.964 E119.37564
G1 X35.4 Y31.036 E122.74735
G1 X35.44 Y30.431 E122.78264
G1 X35.559 Y29.837 E122.81791
G1 X35.755 Y29.263 E122.85321
G1 X36.026 Y28.72 E122.88853
G1 X36.365 Y28.217 E122.92384
G1 X36.767 Y27.764 E122.95909
G1 X37.225 Y27.367 E122.99437
G0 F3600 X37.613 Y27.58
G1 F1800 X38.111 Y27.285 E123.02806
G1 X38.645 Y27.06 E123.06179
G1 X39.205 Y26.912 E123.0955
G1 X40 Y26.836 E123.14199
G1 X80 Y26.836 E125.47019
G1 X80.578 Y26.876 E125.50392
G1 X81.145 Y26.995 E125.53764
G1 X81.69 Y27.191 E125.57135
G1 X82.203 Y27.46 E125.60507
G1 X82.674 Y27.797 E125.63878
