;FLAVOR:RepRap
;TIME:1082
;Filament used: 1.30303m
;Layer height: 0.2
;Generated with Cura_SteamEngine master
M190 S60
M104 S195
M109 S195
G28 ;Home
G1 Z15.0 F6000 ;Move the platform down 15mm
;Prime the extruder
G92 E0
G1 F200 E3
G92 E0
;LAYER_COUNT:17
;LAYER:0
M107
G1 F1500 E-6.5
G0 F3600 X40.319 Y30.634 Z0.35
;TYPE:SKIRT
G1 F1500 E0
G1 F1800 X40.802 Y30.01 E0.04593
G1 X41.345 Y29.437 E0.09188
G1 X41.944 Y28.922 E0.13786
G1 X42.592 Y28.471 E0.18381
G1 X43.283 Y28.087 E0.22982
G1 X44.008 Y27.775 E0.27576
G1 X45.059 Y27.467 E0.33951
G1 X46.677 Y27.114 E0.4359
G1 X47.417 Y26.99 E0.47957
G1 X48.835 Y26.821 E0.56269
G1 X49.454 Y26.772 E0.59883
G1 X51.353 Y26.698 E0.70945
G1 X52.112 Y26.705 E0.75363
G1 X54.352 Y26.836 E0.88423
G1 X55.288 Y26.948 E0.9391
G1 X56.988 Y27.256 E1.03966
G1 X57.905 Y27.48 E1.0946
G1 X59.303 Y27.913 E1.17979
G1 X60.19 Y28.248 E1.23498
G1 X61.377 Y28.781 E1.31071
G1 X62.353 Y29.306 E1.37522
G1 X63.715 Y30.168 E1.46904
G1 X64.36 Y30.624 E1.51501
G1 X64.758 Y30.958 E1.54525
G1 X65.943 Y32.023 E1.63799
G1 X66.503 Y32.58 E1.68396
G1 X66.863 Y33.005 E1.71638
G1 X67.999 Y34.451 E1.82341
G1 X68.454 Y35.096 E1.86936
G1 X68.749 Y35.603 E1.9035
G1 X69.688 Y37.366 E2.01976
G1 X70.157 Y38.43 E2.08744
G1 X70.768 Y40.156 E2.19401
G1 X70.998 Y40.932 E2.24112
G1 X71.306 Y42.21 E2.31764
G1 X71.425 Y42.806 E2.35301
G1 X71.538 Y43.512 E2.39463
G1 X72.283 Y43.512 E2.43799
G1 X73.072 Y43.552 E2.48398
G1 X73.852 Y43.671 E2.5299
G1 X74.617 Y43.869 E2.57589
G1 X75.357 Y44.143 E2.62182
G1 X76.066 Y44.491 E2.6678
G1 X76.737 Y44.909 E2.71381
G1 X77.361 Y45.392 E2.75974
G1 X77.934 Y45.935 E2.80569
G1 X78.449 Y46.534 E2.85167
G1 X78.9 Y47.182 E2.89762
G1 X79.284 Y47.873 E2.94363
G1 X79.596 Y48.598 E2.98957
G1 X79.842 Y49.388 E3.03773
G1 X87.24 Y78.449 E4.78318
G1 X87.396 Y79.223 E4.82914
G1 X87.472 Y80.009 E4.8751
G1 X87.469 Y80.799 E4.92108
G1 X87.386 Y81.584 E4.96703
G1 X87.225 Y82.357 E5.01299
G1 X86.985 Y83.109 E5.05893
G1 X86.671 Y83.834 E5.10492
G1 X86.285 Y84.523 E5.15089
G1 X85.832 Y85.169 E5.19681
G1 X85.315 Y85.767 E5.24282
G1 X84.741 Y86.309 E5.28877
G1 X84.115 Y86.79 E5.33473
G1 X83.444 Y87.206 E5.38068
G1 X82.733 Y87.551 E5.42668
G1 X81.992 Y87.823 E5.47262
G1 X81.227 Y88.018 E5.51857
G1 X80.446 Y88.135 E5.56454
G1 X79.681 Y88.173 E5.60912
G1 X73.611 Y88.173 E5.96242
G1 X72.822 Y88.133 E6.00841
G1 X72.042 Y88.014 E6.05433
G1 X71.566 Y87.891 E6.08295
G1 X71.31 Y88.582 E6.12584
G1 X70.962 Y89.291 E6.17181
G1 X70.544 Y89.962 E6.21782
G1 X70.061 Y90.586 E6.26375
G1 X69.518 Y91.159 E6.3097
G1 X68.919 Y91.674 E6.35568
G1 X68.271 Y92.125 E6.40163
G1 X67.58 Y92.509 E6.44765
G1 X66.855 Y92.821 E6.49359
G1 X66.102 Y93.058 E6.53954
G1 X65.328 Y93.217 E6.58553
G1 X64.543 Y93.298 E6.63146
G1 X64.141 Y93.308 E6.65487
G1 X55.781 Y93.308 E7.14146
G1 X54.992 Y93.268 E7.18745
G1 X54.212 Y93.149 E7.23337
G1 X53.447 Y92.951 E7.27936
G1 X52.707 Y92.677 E7.32529
G1 X51.998 Y92.329 E7.37126
G1 X51.327 Y91.911 E7.41728
G1 X50.703 Y91.428 E7.46321
G1 X50.13 Y90.885 E7.50916
G1 X49.615 Y90.286 E7.55514
G1 X49.164 Y89.638 E7.60109
G1 X48.78 Y88.947 E7.6471
G1 X48.468 Y88.222 E7.69304
G1 X48.369 Y87.907 E7.71226
G1 X48.132 Y87.974 E7.7266
G1 X47.354 Y88.112 E7.77259
G1 X46.382 Y88.173 E7.82927
G1 X40.319 Y88.173 E8.18217
G1 X39.53 Y88.133 E8.22815
G1 X38.75 Y88.014 E8.27408
G1 X37.985 Y87.816 E8.32007
G1 X37.245 Y87.542 E8.366
G1 X36.536 Y87.194 E8.41197
G1 X35.865 Y86.776 E8.45799
G1 X35.241 Y86.293 E8.50392
G1 X34.668 Y85.75 E8.54987
G1 X34.153 Y85.151 E8.59585
G1 X33.702 Y84.503 E8.6418
G1 X33.318 Y83.812 E8.68781
G1 X33.006 Y83.087 E8.73375
G1 X32.769 Y82.334 E8.7797
G1 X32.61 Y81.56 E8.82569
G1 X32.529 Y80.775 E8.87163
G1 X32.529 Y79.985 E8.91761
G1 X32.608 Y79.199 E8.96359
G1 X32.761 Y78.444 E9.00843
G1 X40.178 Y49.383 E10.75415
G1 X40.412 Y48.629 E10.8001
G1 X40.721 Y47.902 E10.84608
G1 X41.02 Y47.358 E10.88221
G1 X40.566 Y46.832 E10.92265
G1 X40.113 Y46.185 E10.96863
G1 X39.728 Y45.495 E11.01462
G1 X39.415 Y44.771 E11.06053
G1 X39.176 Y44.018 E11.10651
G1 X39.015 Y43.245 E11.15247
G1 X38.933 Y42.459 E11.19846
G1 X38.922 Y42.042 E11.22275
G1 X38.922 Y35.088 E11.6275
G1 X38.962 Y34.299 E11.67349
G1 X39.081 Y33.519 E11.71941
G1 X39.279 Y32.754 E11.76541
G1 X39.553 Y32.014 E11.81134
G1 X39.901 Y31.305 E11.85731
G1 X40.319 Y30.634 E11.90332
G0 F3600 X40.716 Y30.765
G1 F1800 X41.197 Y30.165 E11.94808
G1 X41.738 Y29.618 E11.99286
G1 X42.333 Y29.13 E12.03765
G1 X42.975 Y28.707 E12.0824
G1 X43.658 Y28.352 E12.1272
G1 X44.373 Y28.071 E12.17192
G1 X45.145 Y27.858 E12.21853
G1 X46.763 Y27.505 E12.31492
G1 X47.464 Y27.387 E12.3563
G1 X48.882 Y27.218 E12.43942
G1 X49.47 Y27.172 E12.47375
G1 X51.369 Y27.098 E12.58436
G1 X52.089 Y27.105 E12.62627
G1 X54.329 Y27.236 E12.75688
G1 X55.216 Y27.342 E12.80887
G1 X56.916 Y27.65 E12.90943
G1 X57.786 Y27.862 E12.96155
G1 X59.184 Y28.295 E13.04674
G1 X60.026 Y28.613 E13.09912
G1 X61.213 Y29.146 E13.17486
G1 X62.139 Y29.644 E13.23606
G1 X63.501 Y30.506 E13.32988
G1 X64.129 Y30.951 E13.37468
G1 X64.49 Y31.255 E13.40215
G1 X65.675 Y32.32 E13.49488
G1 X66.22 Y32.863 E13.53966
G1 X66.548 Y33.252 E13.56928
G1 X67.684 Y34.698 E13.67631
G1 X68.127 Y35.327 E13.72109
G1 X68.396 Y35.791 E13.75231
G1 X69.335 Y37.554 E13.86857
G1 X69.78 Y38.564 E13.93281
G1 X70.391 Y40.29 E14.03938
G1 X70.609 Y41.025 E14.084
G1 X70.917 Y42.303 E14.16052
G1 X71.03 Y42.869 E14.19411
G1 X71.197 Y43.912 E14.25559
G1 X72.283 Y43.912 E14.31881
G1 X73.051 Y43.952 E14.36357
G1 X73.811 Y44.071 E14.40834
G1 X74.554 Y44.269 E14.4531
G1 X75.273 Y44.543 E14.49788
G1 X75.959 Y44.89 E14.54263
G1 X76.606 Y45.306 E14.5874
G1 X77.206 Y45.787 E14.63216
G1 X77.753 Y46.328 E14.67694
G1 X78.241 Y46.923 E14.72173
G1 X78.664 Y47.565 E14.76648
G1 X79.019 Y48.248 E14.81128
G1 X79.3 Y48.963 E14.856
G1 X79.454 Y49.486 E14.88773
G1 X86.852 Y78.547 E16.63318
G1 X87.003 Y79.302 E16.678
G1 X87.075 Y80.067 E16.72272
G1 X87.066 Y80.837 E16.76754
G1 X86.978 Y81.601 E16.81231
G1 X86.812 Y82.352 E16.85707
G1 X86.568 Y83.081 E16.90182
G1 X86.249 Y83.781 E16.9466
G1 X85.86 Y84.445 E16.99139
G1 X85.404 Y85.064 E17.03614
G1 X84.886 Y85.633 E17.08092
G1 X84.312 Y86.145 E17.12569
G1 X83.688 Y86.594 E17.17044
G1 X83.021 Y86.976 E17.21518
G1 X82.317 Y87.287 E17.25998
G1 X81.585 Y87.524 E17.30476
G1 X80.833 Y87.683 E17.3495
G1 X80.068 Y87.763 E17.39427
G1 X79.681 Y87.773 E17.4168
G1 X73.611 Y87.773 E17.77011
G1 X72.843 Y87.733 E17.81487
G1 X72.083 Y87.614 E17.85964
G1 X71.34 Y87.416 E17.9044
G1 X71.286 Y87.395 E17.90777
G1 X71.184 Y87.779 E17.9309
G1 X70.91 Y88.498 E17.97568
G1 X70.563 Y89.184 E18.02043
G1 X70.147 Y89.831 E18.0652
G1 X69.666 Y90.431 E18.10996
G1 X69.125 Y90.978 E18.15474
G1 X68.53 Y91.466 E18.19953
G1 X67.888 Y91.889 E18.24428
G1 X67.205 Y92.244 E18.28908
G1 X66.49 Y92.525 E18.3338
G1 X65.748 Y92.731 E18.37862
G1 X64.99 Y92.859 E18.42336
G1 X64.141 Y92.908 E18.47286
G1 X55.781 Y92.908 E18.95946
G1 X55.013 Y92.868 E19.00422
G1 X54.253 Y92.749 E19.049
G1 X53.51 Y92.551 E19.09375
G1 X52.791 Y92.277 E19.13854
G1 X52.105 Y91.93 E19.18328
G1 X51.458 Y91.514 E19.22805
G1 X50.858 Y91.033 E19.27281
G1 X50.311 Y90.492 E19.31759
G1 X49.823 Y89.897 E19.36238
G1 X49.4 Y89.255 E19.40713
G1 X49.045 Y88.572 E19.45194
G1 X48.764 Y87.857 E19.49665
G1 X48.642 Y87.416 E19.52329
G1 X48.573 Y87.441 E19.52756
G1 X47.827 Y87.631 E19.57236
G1 X47.066 Y87.741 E19.61712
G1 X46.382 Y87.773 E19.65697
G1 X40.319 Y87.773 E20.00987
G1 X39.551 Y87.733 E20.05464
G1 X38.791 Y87.614 E20.09941
G1 X38.048 Y87.416 E20.14417
G1 X37.329 Y87.142 E20.18895
G1 X36.643 Y86.795 E20.2337
G1 X35.996 Y86.379 E20.27847
G1 X35.396 Y85.898 E20.32323
G1 X34.849 Y85.357 E20.36801
G1 X34.361 Y84.762 E20.4128
G1 X33.938 Y84.12 E20.45755
G1 X33.583 Y83.437 E20.50235
G1 X33.302 Y82.722 E20.54707
G1 X33.096 Y81.98 E20.59189
G1 X32.968 Y81.222 E20.63663
G1 X32.919 Y80.454 E20.68143
G1 X32.951 Y79.686 E20.72617
G1 X33.062 Y78.925 E20.77093
G1 X33.149 Y78.543 E20.79373
G1 X40.566 Y49.482 E22.53946
G1 X40.795 Y48.748 E22.58421
G1 X41.098 Y48.041 E22.62898
G1 X41.474 Y47.37 E22.67375
G1 X41.526 Y47.297 E22.67897
G1 X41.235 Y47.007 E22.70288
G1 X40.749 Y46.411 E22.74764
G1 X40.328 Y45.767 E22.79243
G1 X39.976 Y45.083 E22.8372
G1 X39.697 Y44.367 E22.88193
G1 X39.493 Y43.625 E22.92672
G1 X39.368 Y42.866 E22.97149
G1 X39.322 Y42.042 E23.01953
G1 X39.322 Y35.088 E23.42429
G1 X39.362 Y34.32 E23.46905
G1 X39.481 Y33.56 E23.51382
G1 X39.679 Y32.817 E23.55858
G1 X39.953 Y32.098 E23.60336
G1 X40.3 Y31.412 E23.64811
G1 X40.716 Y30.765 E23.69288
G0 F3600 X41.114 Y30.899
G1 F1800 X41.593 Y30.325 E23.7364
G1 X42.13 Y29.804 E23.77995
G1 X42.72 Y29.345 E23.82346
G1 X43.356 Y28.95 E23.86703
G1 X44.03 Y28.626 E23.91056
G1 X44.735 Y28.376 E23.9541
G1 X45.23 Y28.249 E23.98384
G1 X46.848 Y27.896 E24.08024
G1 X47.512 Y27.784 E24.11943
G1 X48.93 Y27.615 E24.20255
G1 X49.485 Y27.571 E24.23495
G1 X51.384 Y27.497 E24.34557
G1 X52.066 Y27.504 E24.38527
G1 X54.306 Y27.635 E24.51587
G1 X55.145 Y27.735 E24.56505
G1 X56.845 Y28.043 E24.66561
G1 X57.668 Y28.244 E24.71492
G1 X59.066 Y28.677 E24.8001
G1 X59.862 Y28.978 E24.84964
G1 X61.049 Y29.511 E24.92537
G1 X61.926 Y29.982 E24.98332
G1 X63.288 Y30.844 E25.07713
G1 X63.897 Y31.277 E25.12063
G1 X64.223 Y31.553 E25.14549
G1 X65.408 Y32.618 E25.23822
G1 X65.937 Y33.147 E25.28177
G1 X66.233 Y33.5 E25.30858
G1 X67.369 Y34.946 E25.41561
G1 X67.8 Y35.558 E25.45918
G1 X68.043 Y35.979 E25.48748
G1 X68.982 Y37.742 E25.60374
G1 X69.403 Y38.697 E25.66449
G1 X70.014 Y40.423 E25.77106
G1 X70.22 Y41.119 E25.81331
G1 X70.528 Y42.397 E25.88982
G1 X70.635 Y42.932 E25.92158
G1 X70.856 Y44.312 E26.00293
G1 X72.283 Y44.312 E26.08598
G1 X73.03 Y44.352 E26.12953
G1 X73.768 Y44.471 E26.17304
G1 X74.49 Y44.669 E26.21661
G1 X75.186 Y44.942 E26.26013
G1 X75.849 Y45.289 E26.30368
G1 X76.472 Y45.704 E26.34725
G1 X77.046 Y46.183 E26.39077
G1 X77.567 Y46.72 E26.43432
G1 X78.026 Y47.31 E26.47783
G1 X78.421 Y47.946 E26.52141
G1 X78.745 Y48.62 E26.56493
G1 X79.067 Y49.585 E26.62415
G1 X86.465 Y78.646 E28.3696
G1 X86.61 Y79.38 E28.41314
G1 X86.677 Y80.125 E28.45668
G1 X86.663 Y80.873 E28.50023
G1 X86.57 Y81.615 E28.54375
G1 X86.398 Y82.343 E28.58729
G1 X86.149 Y83.049 E28.63087
G1 X85.827 Y83.724 E28.6744
G1 X85.434 Y84.36 E28.71791
G1 X84.976 Y84.952 E28.76148
G1 X84.457 Y85.491 E28.80503
G1 X83.884 Y85.971 E28.84854
G1 X83.262 Y86.388 E28.89213
G1 X82.6 Y86.735 E28.93563
G1 X81.904 Y87.011 E28.97921
G1 X81.183 Y87.21 E29.02274
G1 X80.445 Y87.331 E29.06627
G1 X79.681 Y87.373 E29.11081
G1 X73.611 Y87.373 E29.46412
G1 X72.864 Y87.333 E29.50766
G1 X72.126 Y87.214 E29.55117
G1 X71.404 Y87.016 E29.59474
G1 X71.004 Y86.859 E29.61975
G1 X70.982 Y86.993 E29.62766
G1 X70.784 Y87.715 E29.67123
G1 X70.511 Y88.411 E29.71475
G1 X70.164 Y89.074 E29.75831
G1 X69.749 Y89.697 E29.80188
G1 X69.27 Y90.271 E29.84539
G1 X68.733 Y90.792 E29.88894
G1 X68.143 Y91.251 E29.93245
G1 X67.507 Y91.646 E29.97603
G1 X66.833 Y91.97 E30.01955
G1 X66.128 Y92.22 E30.06309
G1 X65.4 Y92.394 E30.10666
G1 X64.658 Y92.489 E30.1502
G1 X64.141 Y92.508 E30.18031
G1 X55.781 Y92.508 E30.66691
G1 X55.034 Y92.468 E30.71045
G1 X54.296 Y92.349 E30.75396
G1 X53.574 Y92.151 E30.79754
G1 X52.878 Y91.878 E30.84105
G1 X52.215 Y91.531 E30.88461
G1 X51.592 Y91.116 E30.92818
G1 X51.018 Y90.637 E30.97169
G1 X50.497 Y90.1 E31.01524
G1 X50.038 Y89.51 E31.05875
G1 X49.643 Y88.874 E31.10233
G1 X49.319 Y88.2 E31.14586
G1 X49.069 Y87.495 E31.1894
G1 X48.925 Y86.892 E31.22548
G1 X48.257 Y87.117 E31.26651
G1 X47.527 Y87.279 E31.31003
G1 X46.784 Y87.361 E31.35354
G1 X46.382 Y87.373 E31.37695
G1 X40.319 Y87.373 E31.72985
G1 X39.572 Y87.333 E31.77339
G1 X38.834 Y87.214 E31.8169
G1 X38.112 Y87.016 E31.86048
G1 X37.416 Y86.743 E31.90399
G1 X36.753 Y86.396 E31.94755
G1 X36.13 Y85.981 E31.99112
G1 X35.556 Y85.502 E32.03463
G1 X35.035 Y84.965 E32.07818
G1 X34.576 Y84.375 E32.12169
G1 X34.181 Y83.739 E32.16527
G1 X33.857 Y83.065 E32.2088
G1 X33.607 Y82.36 E32.25233
G1 X33.433 Y81.632 E32.2959
G1 X33.338 Y80.89 E32.33944
G1 X33.323 Y80.142 E32.38299
G1 X33.387 Y79.397 E32.42651
G1 X33.536 Y78.642 E32.4713
G1 X40.953 Y49.581 E34.21703
G1 X41.177 Y48.867 E34.26058
G1 X41.475 Y48.181 E34.30412
G1 X41.845 Y47.531 E34.34765
G1 X42.051 Y47.245 E34.36817
G1 X41.911 Y47.127 E34.37882
G1 X41.396 Y46.585 E34.42234
G1 X40.942 Y45.99 E34.4659
G1 X40.553 Y45.351 E34.50945
G1 X40.236 Y44.674 E34.55296
G1 X39.992 Y43.967 E34.59649
G1 X39.825 Y43.237 E34.64008
G1 X39.737 Y42.495 E34.68357
G1 X39.722 Y42.042 E34.70995
G1 X39.722 Y35.088 E35.11471
G1 X39.762 Y34.341 E35.15825
G1 X39.881 Y33.603 E35.20176
G1 X40.079 Y32.881 E35.24534
G1 X40.352 Y32.185 E35.28885
G1 X40.699 Y31.522 E35.33241
G1 X41.114 Y30.899 E35.37598
G0 F3600 X41.511 Y31.038
G1 F1800 X41.987 Y30.49 E35.41823
G1 X42.521 Y29.997 E35.46053
G1 X43.106 Y29.567 E35.50279
G1 X43.735 Y29.203 E35.54509
G1 X44.4 Y28.91 E35.58738
G1 X45.315 Y28.64 E35.64291
G1 X46.933 Y28.287 E35.7393
G1 X47.559 Y28.181 E35.77626
G1 X48.977 Y28.012 E35.85938
G1 X49.501 Y27.971 E35.88997
G1 X51.4 Y27.897 E36.00059
G1 X52.042 Y27.903 E36.03796
G1 X54.282 Y28.034 E36.16856
G1 X55.074 Y28.129 E36.21499
G1 X56.774 Y28.437 E36.31555
G1 X57.55 Y28.626 E36.36204
G1 X58.948 Y29.059 E36.44722
G1 X59.699 Y29.343 E36.49395
G1 X60.886 Y29.876 E36.56969
G1 X61.712 Y30.32 E36.62427
G1 X63.074 Y31.182 E36.71809
G1 X63.665 Y31.604 E36.76036
G1 X63.956 Y31.85 E36.78254
G1 X65.141 Y32.915 E36.87527
G1 X65.653 Y33.43 E36.91754
G1 X65.919 Y33.747 E36.94163
G1 X67.055 Y35.193 E37.04866
G1 X67.472 Y35.788 E37.09095
G1 X67.69 Y36.167 E37.1164
G1 X68.629 Y37.93 E37.23266
G1 X69.026 Y38.831 E37.28997
G1 X69.637 Y40.557 E37.39654
G1 X69.831 Y41.213 E37.43636
G1 X70.139 Y42.491 E37.51287
G1 X70.24 Y42.996 E37.54285
G1 X70.484 Y44.523 E37.63286
G1 X70.507 Y44.712 E37.64394
G1 X72.283 Y44.712 E37.74731
G1 X73.008 Y44.752 E37.78957
G1 X73.725 Y44.871 E37.83188
G1 X74.424 Y45.069 E37.87416
G1 X75.097 Y45.342 E37.91644
G1 X75.736 Y45.687 E37.95871
G1 X76.333 Y46.101 E38.00099
G1 X76.881 Y46.577 E38.04324
G1 X77.374 Y47.111 E38.08554
G1 X77.804 Y47.696 E38.1278
G1 X78.168 Y48.325 E38.1701
G1 X78.461 Y48.99 E38.2124
G1 X78.679 Y49.684 E38.25474
G1 X86.077 Y78.745 E40.00019
G1 X86.217 Y79.457 E40.04243
G1 X86.278 Y80.181 E40.08472
G1 X86.259 Y80.907 E40.12699
G1 X86.161 Y81.627 E40.16928
G1 X85.984 Y82.331 E40.21153
G1 X85.73 Y83.012 E40.25384
G1 X85.404 Y83.661 E40.29611
G1 X85.008 Y84.27 E40.33839
G1 X84.547 Y84.832 E40.3807
G1 X84.028 Y85.339 E40.42293
G1 X83.456 Y85.787 E40.46522
G1 X82.838 Y86.169 E40.50751
G1 X82.182 Y86.481 E40.54979
G1 X81.496 Y86.719 E40.59205
G1 X80.787 Y86.88 E40.63437
G1 X80.066 Y86.962 E40.67661
G1 X79.681 Y86.973 E40.69903
G1 X73.611 Y86.973 E41.05233
G1 X72.886 Y86.933 E41.0946
G1 X72.169 Y86.814 E41.1369
G1 X71.47 Y86.616 E41.17919
G1 X70.797 Y86.343 E41.22146
G1 X70.692 Y86.286 E41.22841
G1 X70.582 Y86.95 E41.26759
G1 X70.384 Y87.649 E41.30987
G1 X70.111 Y88.322 E41.35215
G1 X69.766 Y88.961 E41.39441
G1 X69.352 Y89.558 E41.4367
G1 X68.876 Y90.106 E41.47895
G1 X68.342 Y90.599 E41.52125
G1 X67.757 Y91.029 E41.56351
G1 X67.128 Y91.393 E41.60581
G1 X66.463 Y91.686 E41.64811
G1 X65.77 Y91.904 E41.69039
G1 X65.058 Y92.044 E41.73263
G1 X64.141 Y92.108 E41.78613
G1 X55.781 Y92.108 E42.27273
G1 X55.056 Y92.068 E42.31499
G1 X54.339 Y91.949 E42.35729
G1 X53.64 Y91.751 E42.39958
G1 X52.967 Y91.478 E42.44185
G1 X52.328 Y91.133 E42.48412
G1 X51.731 Y90.719 E42.52641
G1 X51.183 Y90.243 E42.56866
G1 X50.69 Y89.709 E42.61096
G1 X50.26 Y89.124 E42.65322
G1 X49.896 Y88.495 E42.69552
G1 X49.603 Y87.83 E42.73781
G1 X49.385 Y87.137 E42.7801
G1 X49.245 Y86.425 E42.82233
G1 X49.238 Y86.319 E42.82852
G1 X48.641 Y86.574 E42.8663
G1 X47.946 Y86.785 E42.90858
G1 X47.232 Y86.918 E42.95085
G1 X46.382 Y86.973 E43.00043
G1 X40.319 Y86.973 E43.35333
G1 X39.594 Y86.933 E43.39559
G1 X38.877 Y86.814 E43.4379
G1 X38.178 Y86.616 E43.48018
G1 X37.505 Y86.343 E43.52245
G1 X36.866 Y85.998 E43.56472
G1 X36.269 Y85.584 E43.60701
G1 X35.721 Y85.108 E43.64926
G1 X35.228 Y84.574 E43.69156
