;FLAVOR:RepRap
;TIME:966
;Filament used: 1.16081m
;Layer height: 0.2
;Generated with Cura_SteamEngine master
M190 S60
M104 S195
M109 S195
G28 ;Home
G1 Z15.0 F6000 ;Move the platform down 15mm
;Prime the extruder
G92 E0
G1 F200 E3
G92 E0
;LAYER_COUNT:20
;LAYER:0
M107
G1 F1500 E-6.5
G0 F3600 X45.347 Y29.844 Z0.35
;TYPE:SKIRT
G1 F1500 E0
G1 F1800 X45.813 Y29.207 E0.04594
G1 X46.328 Y28.633 E0.09082
G1 X46.653 Y28.305 E0.1177
G1 X47.237 Y27.773 E0.16368
G1 X47.871 Y27.303 E0.20962
G1 X48.55 Y26.899 E0.25561
G1 X49.266 Y26.566 E0.30157
G1 X50.012 Y26.307 E0.34753
G1 X50.78 Y26.124 E0.39348
G1 X51.563 Y26.021 E0.43945
G1 X52.175 Y25.995 E0.47511
G1 X66.61 Y25.959 E1.3153
G1 X67.398 Y25.997 E1.36122
G1 X68.179 Y26.115 E1.40719
G1 X68.944 Y26.311 E1.45316
G1 X69.685 Y26.583 E1.4991
G1 X70.465 Y26.968 E1.54973
G1 X70.812 Y27.164 E1.57293
G1 X71.479 Y27.586 E1.61887
G1 X72.1 Y28.074 E1.66484
G1 X72.668 Y28.622 E1.71078
G1 X73.178 Y29.225 E1.75675
G1 X73.682 Y29.972 E1.8092
G1 X73.799 Y30.169 E1.82253
G1 X74.168 Y30.868 E1.86854
G1 X74.464 Y31.6 E1.9145
G1 X74.684 Y32.358 E1.96044
G1 X74.774 Y32.793 E1.98629
G1 X76.549 Y42.827 E2.57939
G1 X76.553 Y42.83 E2.57968
G1 X77.126 Y43.373 E2.62563
G1 X77.641 Y43.972 E2.67161
G1 X78.092 Y44.62 E2.71756
G1 X78.476 Y45.311 E2.76358
G1 X78.788 Y46.036 E2.80952
G1 X79.025 Y46.789 E2.85547
G1 X79.184 Y47.563 E2.90146
G1 X79.265 Y48.348 E2.94739
G1 X79.275 Y48.75 E2.9708
G1 X79.275 Y51.75 E3.14541
G1 X79.235 Y52.539 E3.1914
G1 X79.116 Y53.319 E3.23732
G1 X78.963 Y53.912 E3.27297
G1 X79.002 Y53.948 E3.27606
G1 X79.81 Y54.811 E3.34487
G1 X80.301 Y55.422 E3.39049
G1 X80.764 Y56.062 E3.43647
G1 X80.976 Y56.408 E3.46009
G1 X81.499 Y57.314 E3.52098
G1 X81.859 Y58.017 E3.56695
G1 X82.073 Y58.545 E3.60011
G1 X82.431 Y59.528 E3.661
G1 X82.663 Y60.283 E3.70697
G1 X82.783 Y60.84 E3.74014
G1 X82.965 Y61.87 E3.80102
G1 X83.063 Y62.653 E3.84695
G1 X83.084 Y63.225 E3.88026
G1 X83.086 Y71.861 E4.38292
G1 X83.046 Y72.65 E4.42891
G1 X82.898 Y73.565 E4.48286
G1 X82.807 Y73.972 E4.50713
G1 X82.596 Y74.733 E4.5531
G1 X82.309 Y75.469 E4.59908
G1 X82.122 Y75.855 E4.62404
G1 X81.739 Y76.595 E4.67254
G1 X81.341 Y77.277 E4.7185
G1 X80.876 Y77.916 E4.7645
G1 X80.084 Y78.759 E4.83183
G1 X79.469 Y79.323 E4.8804
G1 X78.861 Y79.826 E4.92633
G1 X78.205 Y80.266 E4.9723
G1 X77.182 Y80.78 E5.03894
G1 X76.412 Y81.099 E5.08745
G1 X75.668 Y81.364 E5.13342
G1 X74.902 Y81.552 E5.17933
G1 X73.763 Y81.686 E5.24608
G1 X72.929 Y81.722 E5.29467
G1 X72.14 Y81.716 E5.3406
G1 X71.766 Y81.675 E5.36249
G1 X71.753 Y82.459 E5.40813
G1 X71.706 Y82.94 E5.43626
G1 X71.605 Y83.718 E5.48193
G1 X71.464 Y84.495 E5.52789
G1 X71.205 Y85.368 E5.58089
G1 X70.807 Y86.468 E5.64898
G1 X70.501 Y87.196 E5.69495
G1 X70.157 Y87.833 E5.73708
G1 X69.854 Y88.337 E5.77131
G1 X69.413 Y88.992 E5.81727
G1 X69.16 Y89.312 E5.84102
G1 X68.659 Y89.913 E5.88656
G1 X68.124 Y90.494 E5.93253
G1 X67.443 Y91.086 E5.98505
G1 X66.517 Y91.803 E6.05322
G1 X65.869 Y92.255 E6.0992
G1 X65.078 Y92.687 E6.15166
G1 X64.37 Y93.022 E6.19725
G1 X63.64 Y93.323 E6.24321
G1 X62.92 Y93.54 E6.28698
G1 X61.969 Y93.777 E6.34403
G1 X61.194 Y93.928 E6.38998
G1 X60.123 Y94.008 E6.4525
G1 X58.953 Y94.014 E6.5206
G1 X58.164 Y93.978 E6.56657
G1 X57.266 Y93.838 E6.61947
G1 X56.502 Y93.673 E6.66496
G1 X55.378 Y93.34 E6.7332
G1 X54.828 Y93.131 E6.76744
G1 X54.105 Y92.814 E6.81339
G1 X53.733 Y92.615 E6.83795
G1 X53.053 Y92.227 E6.88352
G1 X52.388 Y91.801 E6.92948
G1 X51.947 Y91.462 E6.96186
G1 X51.345 Y90.964 E7.00734
G1 X50.763 Y90.431 E7.05327
G1 X50.386 Y90.02 E7.08573
G1 X49.877 Y89.424 E7.13135
G1 X49.395 Y88.798 E7.17734
G1 X49.08 Y88.305 E7.21139
G1 X48.684 Y87.63 E7.25694
G1 X48.32 Y86.929 E7.30292
G1 X47.996 Y86.1 E7.35472
G1 X47.633 Y84.986 E7.42292
G1 X47.426 Y84.223 E7.46893
G1 X47.32 Y83.619 E7.50463
G1 X47.267 Y83.229 E7.52754
G1 X47.233 Y82.835 E7.55055
G1 X46.684 Y82.835 E7.58251
G1 X45.895 Y82.795 E7.62849
G1 X45.115 Y82.676 E7.67442
G1 X44.009 Y82.362 E7.74134
G1 X43.223 Y82.075 E7.79004
G1 X42.496 Y81.767 E7.836
G1 X41.803 Y81.387 E7.882
G1 X40.882 Y80.721 E7.94815
G1 X40.245 Y80.186 E7.99657
G1 X39.666 Y79.648 E8.04258
G1 X39.145 Y79.054 E8.08856
G1 X38.511 Y78.121 E8.15422
G1 X38.093 Y77.399 E8.20278
G1 X37.732 Y76.697 E8.24873
G1 X37.444 Y75.961 E8.29473
G1 X37.161 Y74.84 E8.36202
G1 X37.017 Y74.02 E8.41048
G1 X36.92 Y73.236 E8.45646
G1 X36.899 Y72.662 E8.48989
G1 X36.905 Y67.6 E8.78453
G1 X36.946 Y66.811 E8.83052
G1 X36.997 Y66.416 E8.8537
G1 X37.197 Y65.124 E8.92979
G1 X37.357 Y64.351 E8.97574
G1 X37.573 Y63.656 E9.0181
G1 X37.929 Y62.675 E9.07885
G1 X38.235 Y61.947 E9.12481
G1 X38.504 Y61.439 E9.15827
G1 X39.026 Y60.534 E9.21908
G1 X39.455 Y59.871 E9.26504
G1 X39.809 Y59.416 E9.2986
G1 X40.483 Y58.613 E9.35962
G1 X41.02 Y58.035 E9.40554
G1 X41.316 Y57.762 E9.42898
G1 X41.906 Y57.245 E9.47464
G1 X41.929 Y57.227 E9.47634
G1 X41.824 Y57.127 E9.48478
G1 X41.309 Y56.528 E9.53076
G1 X40.858 Y55.88 E9.57671
G1 X40.474 Y55.189 E9.62272
G1 X40.162 Y54.464 E9.66866
G1 X39.925 Y53.711 E9.71461
G1 X39.766 Y52.937 E9.7606
G1 X39.685 Y52.152 E9.80654
G1 X39.675 Y51.75 E9.82994
G1 X39.675 Y48.75 E10.00456
G1 X39.715 Y47.961 E10.05054
G1 X39.834 Y47.181 E10.09647
G1 X40.032 Y46.416 E10.14246
G1 X40.306 Y45.676 E10.18839
G1 X40.654 Y44.967 E10.23436
G1 X41.072 Y44.296 E10.28037
G1 X41.555 Y43.672 E10.3263
G1 X42.098 Y43.099 E10.37225
G1 X42.402 Y42.838 E10.39557
G1 X44.189 Y32.761 E10.99126
G1 X44.366 Y31.991 E11.03724
G1 X44.62 Y31.244 E11.08317
G1 X44.948 Y30.525 E11.12917
G1 X45.347 Y29.844 E11.17511
G0 F3600 X45.726 Y29.997
G1 F1800 X46.188 Y29.382 E11.21988
G1 X46.612 Y28.915 E11.25659
G1 X46.937 Y28.587 E11.28347
G1 X47.506 Y28.069 E11.32826
G1 X48.126 Y27.613 E11.37305
G1 X48.79 Y27.225 E11.41782
G1 X49.49 Y26.907 E11.46257
G1 X50.22 Y26.663 E11.50737
G1 X50.971 Y26.497 E11.55213
G1 X51.735 Y26.409 E11.5969
G1 X52.176 Y26.395 E11.62258
G1 X66.611 Y26.359 E12.46277
G1 X67.379 Y26.397 E12.50753
G1 X68.139 Y26.515 E12.5523
G1 X68.883 Y26.711 E12.59708
G1 X69.602 Y26.983 E12.64182
G1 X70.268 Y27.316 E12.68516
G1 X70.615 Y27.512 E12.70836
G1 X71.265 Y27.924 E12.75315
G1 X71.867 Y28.402 E12.79789
G1 X72.417 Y28.94 E12.84268
G1 X72.908 Y29.532 E12.88744
G1 X73.338 Y30.176 E12.93251
G1 X73.455 Y30.373 E12.94585
G1 X73.813 Y31.054 E12.99063
G1 X74.099 Y31.768 E13.0354
G1 X74.38 Y32.863 E13.1012
G1 X76.182 Y43.052 E13.70346
G1 X76.398 Y43.225 E13.71956
G1 X76.945 Y43.766 E13.76434
G1 X77.433 Y44.361 E13.80913
G1 X77.856 Y45.003 E13.85388
G1 X78.211 Y45.686 E13.89869
G1 X78.492 Y46.401 E13.9434
G1 X78.698 Y47.143 E13.98822
G1 X78.826 Y47.901 E14.03297
G1 X78.875 Y48.75 E14.08247
G1 X78.875 Y51.75 E14.25708
G1 X78.835 Y52.518 E14.30185
G1 X78.716 Y53.278 E14.34662
G1 X78.518 Y54.021 E14.39138
G1 X78.51 Y54.041 E14.39263
G1 X78.731 Y54.243 E14.41006
G1 X79.498 Y55.062 E14.47537
G1 X79.989 Y55.673 E14.52099
G1 X80.63 Y56.608 E14.58697
G1 X81.153 Y57.514 E14.64786
G1 X81.502 Y58.2 E14.69266
G1 X81.697 Y58.682 E14.72293
G1 X82.055 Y59.665 E14.78382
G1 X82.281 Y60.4 E14.82858
G1 X82.389 Y60.909 E14.85886
G1 X82.571 Y61.939 E14.91974
G1 X82.665 Y62.703 E14.96455
G1 X82.684 Y63.225 E14.99495
G1 X82.686 Y71.861 E15.49761
G1 X82.646 Y72.629 E15.54237
G1 X82.508 Y73.478 E15.59244
G1 X82.417 Y73.885 E15.61671
G1 X82.21 Y74.626 E15.66149
G1 X81.767 Y75.671 E15.72756
G1 X81.384 Y76.411 E15.77606
G1 X80.995 Y77.075 E15.82085
G1 X80.54 Y77.695 E15.86561
G1 X79.814 Y78.464 E15.92717
G1 X79.199 Y79.028 E15.97574
G1 X78.605 Y79.518 E16.02056
G1 X77.965 Y79.943 E16.06527
G1 X77.029 Y80.411 E16.12618
G1 X76.259 Y80.73 E16.17469
G1 X75.534 Y80.987 E16.21947
G1 X74.787 Y81.167 E16.26419
G1 X73.746 Y81.286 E16.32518
G1 X72.912 Y81.322 E16.37376
G1 X72.143 Y81.315 E16.41853
G1 X71.379 Y81.229 E16.46328
G1 X71.351 Y81.222 E16.46496
G1 X71.367 Y81.683 E16.4918
G1 X71.353 Y82.452 E16.53657
G1 X71.309 Y82.889 E16.56214
G1 X71.208 Y83.667 E16.6078
G1 X71.07 Y84.423 E16.65253
G1 X70.829 Y85.232 E16.70166
G1 X70.431 Y86.332 E16.76975
G1 X70.132 Y87.04 E16.81448
G1 X69.814 Y87.627 E16.85334
G1 X69.511 Y88.131 E16.88757
G1 X68.853 Y89.056 E16.95364
G1 X68.352 Y89.657 E16.99919
G1 X67.83 Y90.222 E17.04396
G1 X67.198 Y90.77 E17.09265
G1 X66.272 Y91.487 E17.16081
G1 X65.641 Y91.926 E17.20555
G1 X64.907 Y92.325 E17.25418
G1 X64.199 Y92.66 E17.29977
G1 X63.488 Y92.952 E17.34451
G1 X62.823 Y93.151 E17.38491
G1 X61.872 Y93.388 E17.44196
G1 X61.117 Y93.535 E17.48673
G1 X60.121 Y93.608 E17.54486
G1 X58.951 Y93.614 E17.61296
G1 X58.183 Y93.578 E17.65771
G1 X57.351 Y93.447 E17.70673
G1 X56.587 Y93.282 E17.75223
G1 X55.52 Y92.966 E17.817
G1 X54.97 Y92.757 E17.85124
G1 X53.932 Y92.267 E17.91805
G1 X53.252 Y91.879 E17.96362
G1 X52.604 Y91.464 E18.00841
G1 X52.202 Y91.154 E18.03796
G1 X51.6 Y90.656 E18.08343
G1 X51.034 Y90.135 E18.12821
G1 X50.69 Y89.76 E18.15783
G1 X50.181 Y89.164 E18.20345
G1 X49.712 Y88.554 E18.24824
G1 X49.425 Y88.103 E18.27935
G1 X49.029 Y87.428 E18.3249
G1 X48.675 Y86.745 E18.36968
G1 X48.376 Y85.976 E18.4177
G1 X48.013 Y84.862 E18.4859
G1 X47.813 Y84.119 E18.53068
G1 X47.716 Y83.565 E18.56342
G1 X47.663 Y83.175 E18.58633
G1 X47.602 Y82.431 E18.62978
G1 X47.516 Y82.435 E18.63479
G1 X46.684 Y82.435 E18.68322
G1 X45.916 Y82.395 E18.72798
G1 X45.156 Y82.276 E18.77275
G1 X44.146 Y81.986 E18.83392
G1 X43.36 Y81.699 E18.88262
G1 X42.652 Y81.398 E18.9274
G1 X41.979 Y81.025 E18.97219
G1 X41.139 Y80.415 E19.03261
G1 X40.502 Y79.88 E19.08103
G1 X39.939 Y79.355 E19.12583
G1 X39.434 Y78.775 E19.1706
G1 X38.857 Y77.921 E19.23059
G1 X38.439 Y77.199 E19.27915
G1 X38.089 Y76.514 E19.32392
G1 X37.811 Y75.796 E19.36873
G1 X37.555 Y74.771 E19.43023
G1 X37.411 Y73.951 E19.47869
G1 X37.317 Y73.187 E19.52349
G1 X37.299 Y72.662 E19.55407
G1 X37.305 Y67.6 E19.8487
G1 X37.392 Y66.477 E19.91426
G1 X37.592 Y65.185 E19.99036
G1 X37.749 Y64.432 E20.03513
G1 X37.949 Y63.793 E20.0741
G1 X38.305 Y62.812 E20.13484
G1 X38.604 Y62.103 E20.17963
G1 X38.851 Y61.639 E20.21023
G1 X39.373 Y60.734 E20.27104
G1 X39.791 Y60.088 E20.31582
G1 X40.115 Y59.674 E20.34642
G1 X40.789 Y58.871 E20.40744
G1 X41.58 Y58.062 E20.4733
G1 X42.17 Y57.545 E20.51896
G1 X42.543 Y57.266 E20.54607
G1 X42.005 Y56.734 E20.59011
G1 X41.517 Y56.139 E20.6349
G1 X41.094 Y55.497 E20.67965
G1 X40.739 Y54.814 E20.72445
G1 X40.458 Y54.099 E20.76917
G1 X40.252 Y53.357 E20.81399
G1 X40.124 Y52.599 E20.85873
G1 X40.075 Y51.75 E20.90823
G1 X40.075 Y48.75 E21.08285
G1 X40.115 Y47.982 E21.12761
G1 X40.234 Y47.222 E21.17239
G1 X40.432 Y46.479 E21.21714
G1 X40.706 Y45.76 E21.26193
G1 X41.053 Y45.074 E21.30667
G1 X41.469 Y44.427 E21.35144
G1 X41.95 Y43.827 E21.3962
G1 X42.491 Y43.28 E21.44098
G1 X42.771 Y43.051 E21.46204
G1 X44.583 Y32.831 E22.06617
G1 X44.756 Y32.081 E22.11097
G1 X45.007 Y31.354 E22.15574
G1 X45.331 Y30.657 E22.20048
G1 X45.726 Y29.997 E22.24525
G0 F3600 X46.104 Y30.152
G1 F1800 X46.561 Y29.56 E22.28878
G1 X46.897 Y29.196 E22.31761
G1 X47.222 Y28.868 E22.34449
G1 X47.776 Y28.366 E22.388
G1 X48.38 Y27.925 E22.43153
G1 X49.029 Y27.552 E22.4751
G1 X49.713 Y27.249 E22.51864
G1 X50.426 Y27.022 E22.5622
G1 X51.158 Y26.872 E22.60569
G1 X52.177 Y26.795 E22.66517
G1 X66.612 Y26.759 E23.50536
G1 X67.359 Y26.797 E23.5489
G1 X68.097 Y26.915 E23.5924
G1 X68.819 Y27.111 E23.63595
G1 X69.516 Y27.382 E23.67947
G1 X70.072 Y27.664 E23.71576
G1 X70.419 Y27.86 E23.73896
G1 X71.049 Y28.262 E23.78245
G1 X71.634 Y28.729 E23.82602
G1 X72.165 Y29.256 E23.86957
G1 X72.636 Y29.837 E23.9131
G1 X72.995 Y30.381 E23.95104
G1 X73.112 Y30.578 E23.96438
G1 X73.459 Y31.24 E24.00788
G1 X73.733 Y31.936 E24.05142
G1 X73.986 Y32.933 E24.11129
G1 X75.814 Y43.267 E24.72212
G1 X76.238 Y43.621 E24.75427
G1 X76.759 Y44.158 E24.79782
G1 X77.218 Y44.748 E24.84133
G1 X77.613 Y45.384 E24.8849
G1 X77.937 Y46.058 E24.92843
G1 X78.187 Y46.763 E24.97197
G1 X78.361 Y47.491 E25.01554
G1 X78.456 Y48.233 E25.05908
G1 X78.475 Y48.75 E25.08919
G1 X78.475 Y51.75 E25.2638
G1 X78.435 Y52.497 E25.30735
G1 X78.316 Y53.235 E25.35086
G1 X78.118 Y53.957 E25.39443
G1 X78.041 Y54.153 E25.40669
G1 X78.461 Y54.538 E25.43985
G1 X79.186 Y55.312 E25.50158
G1 X79.677 Y55.923 E25.5472
G1 X80.283 Y56.808 E25.60963
G1 X80.806 Y57.714 E25.67052
G1 X81.145 Y58.381 E25.71407
G1 X81.321 Y58.819 E25.74155
G1 X81.679 Y59.802 E25.80244
G1 X81.897 Y60.517 E25.84595
G1 X81.995 Y60.979 E25.87344
G1 X82.177 Y62.009 E25.93432
G1 X82.268 Y62.752 E25.97789
G1 X82.284 Y63.225 E26.00543
G1 X82.286 Y71.861 E26.50809
G1 X82.246 Y72.608 E26.55164
G1 X82.117 Y73.39 E26.59777
G1 X82.026 Y73.797 E26.62204
G1 X81.824 Y74.518 E26.66562
G1 X81.412 Y75.488 E26.72697
G1 X81.029 Y76.228 E26.77546
G1 X80.65 Y76.873 E26.81901
G1 X80.204 Y77.474 E26.86257
G1 X79.543 Y78.169 E26.9184
G1 X78.928 Y78.733 E26.96697
G1 X78.351 Y79.208 E27.01047
G1 X77.726 Y79.62 E27.05404
G1 X76.876 Y80.041 E27.10925
G1 X76.106 Y80.36 E27.15776
G1 X75.401 Y80.609 E27.20128
G1 X74.673 Y80.781 E27.24482
G1 X73.729 Y80.886 E27.3001
G1 X72.895 Y80.922 E27.34869
G1 X72.147 Y80.915 E27.39223
G1 X71.404 Y80.827 E27.43578
G1 X70.933 Y80.713 E27.46399
G1 X70.967 Y81.696 E27.52124
G1 X70.953 Y82.444 E27.56478
G1 X70.913 Y82.837 E27.58777
G1 X70.812 Y83.615 E27.63344
G1 X70.676 Y84.351 E27.677
G1 X70.452 Y85.096 E27.72228
G1 X70.054 Y86.196 E27.79037
G1 X69.763 Y86.884 E27.83385
G1 X69.471 Y87.421 E27.86943
G1 X69.168 Y87.925 E27.90366
G1 X68.546 Y88.8 E27.96614
G1 X68.045 Y89.401 E28.01169
G1 X67.536 Y89.949 E28.05522
G1 X66.954 Y90.454 E28.10007
G1 X66.028 Y91.171 E28.16823
G1 X65.412 Y91.597 E28.21183
G1 X64.736 Y91.963 E28.25657
G1 X64.028 Y92.298 E28.30216
G1 X63.336 Y92.582 E28.3457
G1 X62.727 Y92.763 E28.38268
G1 X61.776 Y93 E28.43972
G1 X61.041 Y93.142 E28.4833
G1 X60.119 Y93.208 E28.5371
G1 X58.949 Y93.214 E28.6052
G1 X58.202 Y93.178 E28.64873
G1 X57.435 Y93.056 E28.69393
G1 X56.671 Y92.891 E28.73943
G1 X55.662 Y92.592 E28.80068
G1 X55.112 Y92.383 E28.83493
G1 X54.13 Y91.92 E28.89812
G1 X53.45 Y91.532 E28.94369
G1 X52.821 Y91.127 E28.98723
G1 X52.457 Y90.846 E29.014
G1 X51.855 Y90.348 E29.05947
G1 X51.305 Y89.841 E29.10301
G1 X50.994 Y89.5 E29.12988
G1 X50.485 Y88.904 E29.1755
G1 X50.03 Y88.31 E29.21905
G1 X49.77 Y87.9 E29.24731
G1 X49.374 Y87.225 E29.29286
G1 X49.031 Y86.561 E29.33636
G1 X48.756 Y85.852 E29.38062
G1 X48.393 Y84.738 E29.44882
G1 X48.2 Y84.015 E29.49237
G1 X48.113 Y83.512 E29.52208
G1 X48.06 Y83.122 E29.54499
G1 X47.999 Y82.376 E29.58856
G1 X48 Y82.013 E29.60969
G1 X47.516 Y82.035 E29.63789
G1 X46.684 Y82.035 E29.68631
G1 X45.937 Y81.995 E29.72986
G1 X45.199 Y81.876 E29.77337
G1 X44.283 Y81.61 E29.82888
G1 X43.497 Y81.323 E29.87759
G1 X42.809 Y81.03 E29.92111
G1 X42.156 Y80.664 E29.96468
G1 X41.396 Y80.108 E30.01949
G1 X40.759 Y79.573 E30.06791
G1 X40.213 Y79.062 E30.11144
G1 X39.724 Y78.496 E30.15498
G1 X39.203 Y77.72 E30.20938
G1 X38.785 Y76.998 E30.25794
G1 X38.445 Y76.332 E30.30146
G1 X38.179 Y75.633 E30.34499
G1 X37.949 Y74.702 E30.40081
G1 X37.805 Y73.882 E30.44927
G1 X37.715 Y73.139 E30.49283
G1 X37.699 Y72.663 E30.52056
G1 X37.705 Y67.601 E30.81519
G1 X37.787 Y66.538 E30.87725
G1 X37.987 Y65.246 E30.95334
G1 X38.141 Y64.514 E30.99688
G1 X38.325 Y63.929 E31.03258
G1 X38.681 Y62.948 E31.09332
G1 X38.973 Y62.26 E31.13682
G1 X39.197 Y61.839 E31.16458
G1 X39.719 Y60.934 E31.22539
G1 X40.127 Y60.306 E31.26898
G1 X40.421 Y59.931 E31.29671
G1 X41.095 Y59.128 E31.35774
G1 X41.844 Y58.363 E31.42005
G1 X42.434 Y57.846 E31.46571
G1 X43.191 Y57.279 E31.52076
G1 X42.712 Y56.879 E31.55708
G1 X42.191 Y56.342 E31.60063
G1 X41.732 Y55.752 E31.64414
G1 X41.337 Y55.116 E31.68772
G1 X41.013 Y54.442 E31.73125
G1 X40.763 Y53.737 E31.77479
G1 X40.589 Y53.009 E31.81835
G1 X40.494 Y52.267 E31.86189
G1 X40.475 Y51.75 E31.89201
G1 X40.475 Y48.75 E32.06662
G1 X40.515 Y48.003 E32.11016
G1 X40.634 Y47.265 E32.15367
G1 X40.832 Y46.543 E32.19725
G1 X41.105 Y45.847 E32.24077
G1 X41.452 Y45.184 E32.28432
G1 X41.867 Y44.561 E32.32789
G1 X42.346 Y43.987 E32.37141
G1 X42.883 Y43.466 E32.41496
G1 X43.139 Y43.267 E32.43383
G1 X44.977 Y32.901 E33.0466
G1 X45.146 Y32.172 E33.09015
G1 X45.393 Y31.466 E33.13369
