;FLAVOR:RepRap
;TIME:1366
;Filament used: 0.90613m
;Layer height: 0.2
;Generated with Cura_SteamEngine master
M190 S60
M104 S195
M109 S195
G28 ;Home
G1 Z15.0 F6000 ;Move the platform down 15mm
;Prime the extruder
G92 E0
G1 F200 E3
G92 E0
;LAYER_COUNT:245
;LAYER:0
M107
G1 F1500 E-6.5
G0 F3600 X46.667 Y50.453 Z0.35
;TYPE:SKIRT
G1 F1500 E0
G1 F1800 X47.298 Y49.978 E0.04597
G1 X48.165 Y49.471 E0.10443
G1 X48.98 Y49.062 E0.15751
G1 X49.703 Y48.744 E0.20348
G1 X50.455 Y48.5 E0.24949
G1 X51.227 Y48.334 E0.29546
G1 X52.011 Y48.247 E0.34137
G1 X52.461 Y48.233 E0.36757
G1 X64.929 Y48.204 E1.09328
G1 X65.718 Y48.242 E1.13926
G1 X66.498 Y48.36 E1.18517
G1 X67.263 Y48.556 E1.23114
G1 X67.803 Y48.746 E1.26446
G1 X68.413 Y48.986 E1.30261
G1 X69.132 Y49.312 E1.34856
G1 X69.815 Y49.709 E1.39454
G1 X70.454 Y50.173 E1.44051
G1 X71.303 Y50.969 E1.50825
G1 X71.516 Y51.201 E1.52658
G1 X72.02 Y51.809 E1.57255
G1 X72.459 Y52.465 E1.61849
G1 X72.879 Y53.267 E1.67118
G1 X73.009 Y53.555 E1.68958
G1 X73.297 Y54.29 E1.73552
G1 X73.51 Y55.051 E1.78152
G1 X73.644 Y55.829 E1.82747
G1 X73.7 Y56.725 E1.87972
G1 X73.731 Y63.002 E2.24508
G1 X73.695 Y63.791 E2.29106
G1 X73.579 Y64.573 E2.33707
G1 X73.259 Y65.712 E2.40593
G1 X73.068 Y66.236 E2.43839
G1 X72.761 Y66.964 E2.48438
G1 X72.381 Y67.656 E2.53033
G1 X71.933 Y68.306 E2.57628
G1 X71.151 Y69.183 E2.64467
G1 X70.907 Y69.418 E2.66439
G1 X70.311 Y69.936 E2.71035
G1 X69.666 Y70.392 E2.75633
G1 X68.804 Y70.864 E2.81353
G1 X68.473 Y71.019 E2.83481
G1 X67.742 Y71.317 E2.88075
G1 X66.984 Y71.54 E2.92674
G1 X66.208 Y71.685 E2.97269
G1 X65.184 Y71.755 E3.03243
G1 X52.616 Y71.785 E3.76396
G1 X51.827 Y71.747 E3.80994
G1 X50.697 Y71.55 E3.8767
G1 X50.255 Y71.439 E3.90323
G1 X49.5 Y71.208 E3.94918
G1 X48.772 Y70.902 E3.99515
G1 X48.238 Y70.619 E4.03032
G1 X47.835 Y70.385 E4.05745
G1 X47.173 Y69.955 E4.10339
G1 X46.558 Y69.459 E4.14938
G1 X46.071 Y68.985 E4.18894
G1 X45.88 Y68.782 E4.20516
G1 X45.369 Y68.18 E4.25112
G1 X44.921 Y67.53 E4.29707
G1 X44.395 Y66.518 E4.36346
G1 X44.26 Y66.204 E4.38335
G1 X43.985 Y65.463 E4.42935
G1 X43.787 Y64.699 E4.47529
G1 X43.667 Y63.919 E4.52123
G1 X43.626 Y63.128 E4.56733
G1 X43.622 Y56.923 E4.92849
G1 X43.661 Y56.134 E4.97447
G1 X43.78 Y55.354 E5.0204
G1 X43.978 Y54.589 E5.06639
G1 X44.251 Y53.848 E5.11236
G1 X44.469 Y53.383 E5.14225
G1 X44.711 Y52.907 E5.17333
G1 X45.104 Y52.222 E5.21929
G1 X45.564 Y51.58 E5.26526
G1 X46.087 Y50.989 E5.3112
G1 X46.667 Y50.453 E5.35717
G0 F3600 X46.985 Y50.709
G1 F1800 X47.605 Y50.254 E5.40193
G1 X48.345 Y49.828 E5.45163
G1 X49.16 Y49.419 E5.5047
G1 X49.864 Y49.11 E5.54945
G1 X50.597 Y48.876 E5.59424
G1 X51.35 Y48.72 E5.639
G1 X52.462 Y48.633 E5.70392
G1 X64.93 Y48.604 E6.42962
G1 X65.698 Y48.642 E6.47438
G1 X66.458 Y48.76 E6.51915
G1 X67.202 Y48.956 E6.56393
G1 X67.656 Y49.118 E6.59199
G1 X68.266 Y49.358 E6.63014
G1 X68.966 Y49.676 E6.67489
G1 X69.63 Y50.066 E6.71971
G1 X70.249 Y50.522 E6.76446
G1 X71.008 Y51.239 E6.82524
G1 X71.221 Y51.471 E6.84357
G1 X71.711 Y52.064 E6.88834
G1 X72.137 Y52.705 E6.93314
G1 X72.515 Y53.432 E6.98083
G1 X72.645 Y53.72 E6.99922
G1 X72.924 Y54.436 E7.04395
G1 X73.128 Y55.178 E7.08874
G1 X73.254 Y55.937 E7.13352
G1 X73.3 Y56.727 E7.17958
G1 X73.331 Y63.004 E7.54494
G1 X73.295 Y63.773 E7.58975
G1 X73.179 Y64.533 E7.6345
G1 X72.884 Y65.575 E7.69753
G1 X72.693 Y66.099 E7.73
G1 X72.392 Y66.807 E7.77478
G1 X72.019 Y67.48 E7.81956
G1 X71.579 Y68.111 E7.86434
G1 X70.873 Y68.895 E7.92575
G1 X70.629 Y69.13 E7.94546
G1 X70.048 Y69.634 E7.99023
G1 X69.418 Y70.075 E8.03499
G1 X68.634 Y70.502 E8.08695
G1 X68.303 Y70.657 E8.10823
G1 X67.591 Y70.946 E8.15295
G1 X66.852 Y71.16 E8.19773
G1 X66.095 Y71.296 E8.2425
G1 X65.183 Y71.355 E8.2957
G1 X52.615 Y71.385 E9.02722
G1 X51.846 Y71.347 E9.07204
G1 X50.795 Y71.162 E9.13415
G1 X50.353 Y71.051 E9.16067
G1 X49.617 Y70.825 E9.20549
G1 X48.91 Y70.524 E9.25021
G1 X48.439 Y70.273 E9.28128
G1 X48.036 Y70.039 E9.3084
G1 X47.392 Y69.619 E9.35315
G1 X46.795 Y69.134 E9.39792
G1 X46.363 Y68.711 E9.43312
G1 X46.172 Y68.508 E9.44934
G1 X45.674 Y67.921 E9.49414
G1 X45.241 Y67.286 E9.53888
G1 X44.763 Y66.36 E9.59953
G1 X44.628 Y66.046 E9.61943
G1 X44.361 Y65.324 E9.66423
G1 X44.171 Y64.579 E9.70899
G1 X44.059 Y63.818 E9.75376
G1 X44.026 Y63.128 E9.79396
G1 X44.022 Y56.923 E10.15513
G1 X44.061 Y56.155 E10.19989
G1 X44.18 Y55.395 E10.24466
G1 X44.378 Y54.651 E10.28947
G1 X44.651 Y53.932 E10.33424
G1 X44.826 Y53.564 E10.35796
G1 X45.068 Y53.088 E10.38904
G1 X45.451 Y52.422 E10.43376
G1 X45.902 Y51.799 E10.47852
G1 X46.415 Y51.226 E10.52329
G1 X46.985 Y50.709 E10.56808
G0 F3600 X47.302 Y50.967
G1 F1800 X47.911 Y50.533 E10.6116
G1 X48.524 Y50.186 E10.6526
G1 X49.339 Y49.777 E10.70568
G1 X50.025 Y49.477 E10.74926
G1 X50.738 Y49.253 E10.79276
G1 X51.472 Y49.106 E10.83633
G1 X52.463 Y49.033 E10.89417
G1 X64.931 Y49.004 E11.61987
G1 X65.678 Y49.042 E11.66341
G1 X66.417 Y49.16 E11.70697
G1 X67.139 Y49.356 E11.75051
G1 X67.51 Y49.49 E11.77347
G1 X68.12 Y49.73 E11.81163
G1 X68.8 Y50.041 E11.85515
G1 X69.444 Y50.422 E11.8987
G1 X70.043 Y50.87 E11.94224
G1 X70.713 Y51.51 E11.99617
G1 X70.926 Y51.742 E12.0145
G1 X71.402 Y52.319 E12.05804
G1 X71.814 Y52.944 E12.10161
G1 X72.15 Y53.596 E12.1443
G1 X72.28 Y53.884 E12.16269
G1 X72.551 Y54.581 E12.20622
G1 X72.746 Y55.304 E12.24981
G1 X72.863 Y56.042 E12.2933
G1 X72.9 Y56.729 E12.33335
G1 X72.931 Y63.006 E12.6987
G1 X72.895 Y63.754 E12.74229
G1 X72.779 Y64.493 E12.78583
G1 X72.508 Y65.438 E12.84305
G1 X72.317 Y65.962 E12.87552
G1 X72.023 Y66.65 E12.91906
G1 X71.658 Y67.303 E12.96261
G1 X71.225 Y67.913 E13.00615
G1 X70.596 Y68.607 E13.06066
G1 X70.352 Y68.842 E13.08038
G1 X69.786 Y69.331 E13.12392
G1 X69.171 Y69.757 E13.16746
G1 X68.465 Y70.139 E13.21419
G1 X68.134 Y70.294 E13.23546
G1 X67.44 Y70.575 E13.27904
G1 X66.721 Y70.78 E13.32256
G1 X65.984 Y70.907 E13.36609
G1 X65.182 Y70.955 E13.41285
G1 X52.614 Y70.985 E14.14438
G1 X51.867 Y70.947 E14.18791
G1 X50.892 Y70.774 E14.24555
G1 X50.45 Y70.663 E14.27207
G1 X49.735 Y70.442 E14.31563
G1 X49.048 Y70.147 E14.35915
G1 X48.64 Y69.928 E14.3861
G1 X48.237 Y69.694 E14.41323
G1 X47.611 Y69.284 E14.45678
G1 X47.032 Y68.81 E14.50034
G1 X46.654 Y68.437 E14.53125
G1 X46.463 Y68.234 E14.54747
G1 X45.98 Y67.662 E14.59105
G1 X45.561 Y67.043 E14.63455
G1 X45.13 Y66.202 E14.68956
G1 X44.995 Y65.888 E14.70945
G1 X44.737 Y65.186 E14.75298
G1 X44.555 Y64.46 E14.79655
G1 X44.451 Y63.719 E14.8401
G1 X44.426 Y63.128 E14.87453
G1 X44.422 Y56.923 E15.23569
G1 X44.461 Y56.175 E15.27929
G1 X44.58 Y55.437 E15.3228
G1 X44.778 Y54.715 E15.36638
G1 X45.182 Y53.746 E15.42748
G1 X45.424 Y53.27 E15.45856
G1 X45.798 Y52.622 E15.50211
G1 X46.239 Y52.018 E15.54564
G1 X46.743 Y51.464 E15.58924
G1 X47.302 Y50.967 E15.63277
G0 F3600 X47.617 Y51.228
G1 F1800 X48.215 Y50.815 E15.67507
G1 X48.704 Y50.543 E15.70764
G1 X49.519 Y50.134 E15.76072
G1 X50.185 Y49.845 E15.80298
G1 X50.879 Y49.63 E15.84526
G1 X51.592 Y49.493 E15.88752
G1 X52.464 Y49.433 E15.9384
G1 X64.932 Y49.404 E16.6641
G1 X65.657 Y49.442 E16.70636
G1 X66.374 Y49.56 E16.74865
G1 X67.363 Y49.862 E16.80884
G1 X67.973 Y50.102 E16.847
G1 X68.634 Y50.405 E16.88932
G1 X69.257 Y50.778 E16.93159
G1 X69.835 Y51.218 E16.97387
G1 X70.419 Y51.78 E17.02104
G1 X70.632 Y52.012 E17.03937
G1 X71.093 Y52.574 E17.08168
G1 X71.489 Y53.182 E17.12392
G1 X71.786 Y53.761 E17.16179
G1 X71.916 Y54.049 E17.18018
G1 X72.178 Y54.726 E17.22244
G1 X72.363 Y55.428 E17.26469
G1 X72.471 Y56.147 E17.30701
G1 X72.5 Y56.731 E17.34104
G1 X72.531 Y63.008 E17.7064
G1 X72.495 Y63.734 E17.74871
G1 X72.379 Y64.451 E17.79099
G1 X72.132 Y65.301 E17.84251
G1 X71.941 Y65.825 E17.87497
G1 X71.655 Y66.493 E17.91727
G1 X71.297 Y67.125 E17.95954
G1 X70.873 Y67.714 E18.00178
G1 X70.318 Y68.319 E18.04957
G1 X70.074 Y68.554 E18.06929
G1 X69.524 Y69.028 E18.11155
G1 X68.925 Y69.439 E18.15383
G1 X68.295 Y69.777 E18.19545
G1 X67.964 Y69.932 E18.21672
G1 X67.29 Y70.203 E18.259
G1 X66.591 Y70.399 E18.30126
G1 X65.874 Y70.517 E18.34355
G1 X65.181 Y70.555 E18.38395
G1 X52.613 Y70.585 E19.11547
G1 X51.887 Y70.547 E19.15779
G1 X50.989 Y70.386 E19.21089
G1 X50.547 Y70.275 E19.23742
G1 X49.854 Y70.06 E19.27965
G1 X49.188 Y69.769 E19.32195
G1 X48.841 Y69.582 E19.3449
G1 X48.438 Y69.348 E19.37202
G1 X47.831 Y68.949 E19.4143
G1 X47.271 Y68.486 E19.45659
G1 X46.945 Y68.163 E19.4833
G1 X46.754 Y67.96 E19.49953
G1 X46.286 Y67.404 E19.54183
G1 X45.882 Y66.8 E19.58412
G1 X45.498 Y66.044 E19.63348
G1 X45.363 Y65.73 E19.65337
G1 X45.113 Y65.048 E19.69565
G1 X44.94 Y64.342 E19.73796
G1 X44.845 Y63.622 E19.78023
G1 X44.826 Y63.127 E19.80906
G1 X44.822 Y56.922 E20.17023
G1 X44.862 Y56.197 E20.21249
G1 X44.98 Y55.48 E20.25478
G1 X45.177 Y54.781 E20.29706
G1 X45.539 Y53.927 E20.35104
G1 X45.781 Y53.451 E20.38212
G1 X46.145 Y52.823 E20.42437
G1 X46.576 Y52.238 E20.46667
G1 X47.069 Y51.704 E20.50897
G1 X47.617 Y51.228 E20.55122
G0 F3600 X47.932 Y51.491
G1 F1800 X48.517 Y51.1 E20.59217
G1 X48.883 Y50.901 E20.61642
G1 X49.698 Y50.492 E20.6695
G1 X50.344 Y50.212 E20.71048
G1 X51.018 Y50.008 E20.75147
G1 X51.71 Y49.881 E20.79242
G1 X52.465 Y49.833 E20.83645
G1 X64.933 Y49.804 E21.56216
G1 X65.636 Y49.842 E21.60313
G1 X66.33 Y49.96 E21.64411
G1 X67.217 Y50.234 E21.69814
G1 X67.827 Y50.474 E21.7363
G1 X68.466 Y50.769 E21.77726
G1 X69.068 Y51.134 E21.81824
G1 X69.625 Y51.565 E21.85923
G1 X70.124 Y52.051 E21.89978
G1 X70.337 Y52.283 E21.91811
G1 X70.783 Y52.828 E21.9591
G1 X71.164 Y53.42 E22.00007
G1 X71.421 Y53.925 E22.03306
G1 X71.551 Y54.213 E22.05145
G1 X71.804 Y54.87 E22.09243
G1 X71.98 Y55.552 E22.13342
G1 X72.079 Y56.249 E22.1744
G1 X72.1 Y56.733 E22.2026
G1 X72.131 Y63.01 E22.56795
G1 X72.094 Y63.713 E22.60893
G1 X71.978 Y64.408 E22.64994
G1 X71.756 Y65.164 E22.6958
G1 X71.565 Y65.688 E22.72827
G1 X71.287 Y66.335 E22.76925
G1 X70.937 Y66.946 E22.81024
G1 X70.52 Y67.513 E22.85121
G1 X70.041 Y68.031 E22.89227
G1 X69.797 Y68.266 E22.91199
G1 X69.263 Y68.724 E22.95294
G1 X68.68 Y69.12 E22.99396
G1 X68.125 Y69.415 E23.03054
G1 X67.794 Y69.57 E23.05181
G1 X67.141 Y69.832 E23.09277
G1 X66.462 Y70.018 E23.13375
G1 X65.766 Y70.126 E23.17474
G1 X65.18 Y70.155 E23.20889
G1 X52.612 Y70.185 E23.94042
G1 X51.909 Y70.147 E23.98139
G1 X51.087 Y69.998 E24.03002
G1 X50.645 Y69.887 E24.05654
G1 X49.973 Y69.677 E24.09752
G1 X49.042 Y69.236 E24.15748
G1 X48.639 Y69.002 E24.18461
G1 X48.051 Y68.614 E24.22561
G1 X47.511 Y68.163 E24.26656
G1 X47.237 Y67.889 E24.28912
G1 X47.046 Y67.686 E24.30534
G1 X46.593 Y67.146 E24.34637
G1 X46.205 Y66.559 E24.38732
G1 X45.865 Y65.886 E24.43121
G1 X45.73 Y65.572 E24.4511
G1 X45.489 Y64.91 E24.49211
G1 X45.325 Y64.226 E24.53305
G1 X45.239 Y63.527 E24.57404
G1 X45.226 Y63.127 E24.59734
G1 X45.222 Y56.922 E24.9585
G1 X45.262 Y56.219 E24.99949
G1 X45.38 Y55.525 E25.04046
G1 X45.577 Y54.849 E25.08144
G1 X45.895 Y54.108 E25.12838
G1 X46.137 Y53.632 E25.15946
G1 X46.491 Y53.024 E25.20041
G1 X46.912 Y52.459 E25.24142
G1 X47.394 Y51.946 E25.28239
G1 X47.932 Y51.491 E25.3234
G0 F3600 X48.244 Y51.758
G1 F1800 X49.063 Y51.258 E25.37925
G1 X49.878 Y50.849 E25.43233
G1 X50.503 Y50.58 E25.47193
G1 X51.156 Y50.386 E25.51158
G1 X51.827 Y50.27 E25.55122
G1 X52.466 Y50.233 E25.58848
G1 X64.934 Y50.204 E26.31418
G1 X65.613 Y50.242 E26.35376
G1 X66.284 Y50.36 E26.39342
G1 X67.071 Y50.607 E26.44143
G1 X67.681 Y50.847 E26.47958
G1 X68.298 Y51.133 E26.51917
G1 X68.879 Y51.489 E26.55883
G1 X69.413 Y51.911 E26.59844
G1 X69.829 Y52.321 E26.63244
G1 X70.042 Y52.553 E26.65077
G1 X70.473 Y53.081 E26.69044
G1 X70.838 Y53.656 E26.73008
G1 X71.056 Y54.09 E26.75835
G1 X71.186 Y54.378 E26.77674
G1 X71.43 Y55.014 E26.81639
G1 X71.597 Y55.674 E26.85602
G1 X71.685 Y56.349 E26.89564
G1 X71.7 Y56.735 E26.91813
G1 X71.731 Y63.012 E27.28348
G1 X71.694 Y63.692 E27.32312
G1 X71.578 Y64.363 E27.36276
G1 X71.38 Y65.027 E27.40309
G1 X71.189 Y65.551 E27.43555
G1 X70.919 Y66.176 E27.47518
G1 X70.577 Y66.765 E27.51482
G1 X70.169 Y67.31 E27.55445
G1 X69.763 Y67.743 E27.589
G1 X69.519 Y67.978 E27.60871
G1 X69.002 Y68.42 E27.6483
G1 X68.437 Y68.799 E27.6879
G1 X67.956 Y69.053 E27.71956
G1 X67.625 Y69.208 E27.74084
G1 X66.992 Y69.46 E27.78049
G1 X66.334 Y69.636 E27.82014
G1 X65.661 Y69.734 E27.85972
G1 X65.179 Y69.755 E27.88781
G1 X52.611 Y69.785 E28.61933
G1 X51.931 Y69.747 E28.65897
G1 X51.184 Y69.61 E28.70318
G1 X50.742 Y69.499 E28.7297
G1 X50.093 Y69.295 E28.7693
G1 X49.243 Y68.89 E28.8241
G1 X48.84 Y68.656 E28.85123
G1 X48.272 Y68.28 E28.89088
G1 X47.528 Y67.614 E28.949
G1 X47.337 Y67.411 E28.96522
G1 X46.9 Y66.889 E29.00484
G1 X46.528 Y66.319 E29.04446
G1 X46.233 Y65.728 E29.08291
G1 X46.098 Y65.414 E29.1028
G1 X45.866 Y64.774 E29.14243
G1 X45.711 Y64.111 E29.18206
G1 X45.626 Y63.127 E29.23954
G1 X45.622 Y56.922 E29.60071
G1 X45.662 Y56.242 E29.64036
G1 X45.78 Y55.572 E29.67995
G1 X45.977 Y54.92 E29.7196
G1 X46.252 Y54.289 E29.75966
G1 X46.494 Y53.813 E29.79074
G1 X46.837 Y53.226 E29.83031
G1 X47.248 Y52.682 E29.87
G1 X47.719 Y52.191 E29.9096
G1 X48.244 Y51.758 E29.94921
G0 F3600 X48.555 Y52.027
G1 F1800 X49.242 Y51.616 E29.99581
G1 X50.057 Y51.207 E30.04888
G1 X50.661 Y50.948 E30.08713
G1 X51.292 Y50.765 E30.12537
G1 X51.94 Y50.66 E30.16358
G1 X52.466 Y50.633 E30.19424
G1 X64.934 Y50.604 E30.91994
G1 X65.59 Y50.642 E30.95819
G1 X66.237 Y50.76 E30.99647
G1 X66.924 Y50.979 E31.03844
G1 X67.534 Y51.219 E31.0766
G1 X68.13 Y51.496 E31.11485
G1 X68.687 Y51.844 E31.15308
G1 X69.198 Y52.256 E31.19128
G1 X69.535 Y52.592 E31.21898
G1 X69.748 Y52.824 E31.23731
G1 X70.162 Y53.334 E31.27555
G1 X70.511 Y53.891 E31.31381
G1 X70.692 Y54.254 E31.33742
G1 X70.822 Y54.542 E31.35581
G1 X71.055 Y55.156 E31.39403
G1 X71.212 Y55.794 E31.43228
G1 X71.3 Y56.737 E31.4874
G1 X71.331 Y63.014 E31.85276
G1 X71.294 Y63.67 E31.891
G1 X71.178 Y64.317 E31.92926
G1 X71.004 Y64.89 E31.96412
G1 X70.813 Y65.414 E31.99658
G1 X70.551 Y66.017 E32.03485
G1 X70.218 Y66.583 E32.07307
G1 X69.818 Y67.104 E32.1113
G1 X69.486 Y67.454 E32.13938
G1 X69.242 Y67.689 E32.1591
G1 X68.742 Y68.116 E32.19737
G1 X68.194 Y68.478 E32.2356
G1 X67.786 Y68.69 E32.26236
G1 X67.455 Y68.845 E32.28363
G1 X66.844 Y69.087 E32.32189
G1 X66.209 Y69.253 E32.36009
G1 X65.557 Y69.341 E32.39838
G1 X65.178 Y69.355 E32.42046
G1 X52.61 Y69.385 E33.15198
G1 X51.954 Y69.347 E33.19023
G1 X51.282 Y69.222 E33.23001
G1 X50.84 Y69.111 E33.25654
G1 X50.213 Y68.913 E33.29481
G1 X49.443 Y68.544 E33.34451
G1 X49.04 Y68.31 E33.37163
G1 X48.493 Y67.946 E33.40988
G1 X47.819 Y67.34 E33.46263
G1 X47.628 Y67.137 E33.47886
G1 X47.208 Y66.632 E33.51709
G1 X46.852 Y66.08 E33.55532
G1 X46.6 Y65.57 E33.58843
G1 X46.465 Y65.256 E33.60832
G1 X46.243 Y64.638 E33.64654
G1 X46.097 Y63.997 E33.68481
G1 X46.026 Y63.126 E33.73567
G1 X46.022 Y56.921 E34.09684
G1 X46.062 Y56.266 E34.13503
G1 X46.18 Y55.62 E34.17326
G1 X46.377 Y54.993 E34.21151
G1 X46.608 Y54.471 E34.24473
G1 X46.85 Y53.995 E34.27582
G1 X47.183 Y53.428 E34.31409
G1 X47.582 Y52.906 E34.35233
G1 X48.042 Y52.437 E34.39057
G1 X48.555 Y52.027 E34.42879
G0 F3600 X48.864 Y52.3
G1 F1800 X49.421 Y51.973 E34.46639
G1 X50.236 Y51.564 E34.51946
G1 X50.818 Y51.317 E34.55626
G1 X51.426 Y51.145 E34.59304
G1 X52.052 Y51.051 E34.62988
G1 X52.467 Y51.033 E34.65406
G1 X64.935 Y51.004 E35.37977
G1 X65.566 Y51.043 E35.41656
G1 X66.187 Y51.16 E35.45335
G1 X66.778 Y51.351 E35.4895
G1 X67.388 Y51.591 E35.52765
G1 X67.96 Y51.859 E35.56442
G1 X68.494 Y52.198 E35.60123
G1 X68.981 Y52.601 E35.63803
G1 X69.24 Y52.863 E35.65947
G1 X69.453 Y53.095 E35.6778
G1 X69.85 Y53.586 E35.71455
G1 X70.182 Y54.124 E35.75135
G1 X70.327 Y54.419 E35.77048
G1 X70.457 Y54.707 E35.78887
G1 X70.68 Y55.298 E35.82564
G1 X70.827 Y55.913 E35.86245
G1 X70.9 Y56.739 E35.91071
G1 X70.931 Y63.016 E36.27607
G1 X70.894 Y63.647 E36.31286
G1 X70.778 Y64.269 E36.34969
G1 X70.629 Y64.753 E36.37916
G1 X70.438 Y65.277 E36.41163
G1 X70.184 Y65.856 E36.44843
G1 X69.859 Y66.399 E36.48526
G1 X69.469 Y66.896 E36.52203
G1 X69.208 Y67.166 E36.54389
G1 X68.964 Y67.401 E36.56361
G1 X68.482 Y67.81 E36.6004
G1 X67.953 Y68.155 E36.63716
G1 X67.616 Y68.328 E36.65921
G1 X67.285 Y68.483 E36.68048
