;FLAVOR:RepRap
;TIME:1129
;Filament used: 0.932041m
;Layer height: 0.2
;Generated with Cura_SteamEngine master
M190 S50
M104 S195
M109 S195
G28 ;Home
G1 Z15.0 F6000 ;Move the platform down 15mm
;Prime the extruder
G92 E0
G1 F200 E3
G92 E0
;LAYER_COUNT:212
;LAYER:0
M107
G1 F1500 E-6.5
G0 F3600 X57.639 Y53.388 Z0.35
;TYPE:SKIRT
G1 F1500 E0
G1 F1800 X58.225 Y52.859 E0.04595
G1 X58.862 Y52.391 E0.09196
G1 X59.542 Y51.991 E0.13788
G1 X59.933 Y51.8 E0.16321
G1 X60.491 Y51.547 E0.19887
G1 X61.226 Y51.258 E0.24484
G1 X61.986 Y51.044 E0.29079
G1 X62.764 Y50.909 E0.33675
G1 X63.454 Y50.855 E0.37704
G1 X63.817 Y50.843 E0.39818
G1 X64.607 Y50.857 E0.44417
G1 X65.391 Y50.951 E0.49013
G1 X66.162 Y51.123 E0.53611
G1 X66.808 Y51.334 E0.57566
G1 X67.372 Y51.545 E0.61071
G1 X68.097 Y51.858 E0.65667
G1 X68.786 Y52.244 E0.70264
G1 X69.433 Y52.697 E0.74861
G1 X70.147 Y53.327 E0.80404
G1 X70.504 Y53.683 E0.83338
G1 X71.034 Y54.268 E0.87933
G1 X71.502 Y54.904 E0.92529
G1 X71.904 Y55.584 E0.97127
G1 X72.126 Y56.043 E1.00095
G1 X72.323 Y56.487 E1.02922
G1 X72.606 Y57.224 E1.07517
G1 X72.813 Y57.986 E1.12113
G1 X72.964 Y58.981 E1.17971
G1 X73.003 Y59.434 E1.20617
G1 X73.031 Y60.223 E1.25212
G1 X72.979 Y61.011 E1.29809
G1 X72.847 Y61.79 E1.34408
G1 X72.713 Y62.311 E1.37539
G1 X72.54 Y62.897 E1.41095
G1 X72.278 Y63.643 E1.45697
G1 X71.943 Y64.357 E1.50288
G1 X71.536 Y65.035 E1.54891
G1 X71.064 Y65.667 E1.59482
G1 X70.596 Y66.183 E1.63537
G1 X70.079 Y66.704 E1.67809
G1 X69.495 Y67.236 E1.72407
G1 X68.86 Y67.706 E1.77005
G1 X68.181 Y68.109 E1.81601
G1 X67.465 Y68.442 E1.86197
G1 X66.376 Y68.791 E1.92853
G1 X65.731 Y68.947 E1.96716
G1 X64.955 Y69.094 E2.01313
G1 X64.168 Y69.161 E2.0591
G1 X63.378 Y69.149 E2.10509
G1 X62.594 Y69.056 E2.15104
G1 X62.09 Y68.954 E2.18097
G1 X61.586 Y68.834 E2.21113
G1 X60.828 Y68.612 E2.2571
G1 X60.097 Y68.315 E2.30303
G1 X59.399 Y67.946 E2.34898
G1 X58.783 Y67.538 E2.39199
G1 X58.409 Y67.264 E2.41897
G1 X57.797 Y66.766 E2.4649
G1 X57.238 Y66.208 E2.51087
G1 X56.672 Y65.506 E2.56336
G1 X56.422 Y65.156 E2.58839
G1 X55.996 Y64.491 E2.63436
G1 X55.64 Y63.786 E2.68033
G1 X55.356 Y63.049 E2.7263
G1 X55.159 Y62.335 E2.76941
G1 X55.019 Y61.713 E2.80652
G1 X54.885 Y60.935 E2.85247
G1 X54.83 Y60.147 E2.89845
G1 X54.856 Y59.358 E2.9444
G1 X55.018 Y58.292 E3.00716
G1 X55.158 Y57.668 E3.04438
G1 X55.37 Y56.908 E3.09031
G1 X55.657 Y56.172 E3.13629
G1 X56.018 Y55.47 E3.18223
G1 X56.447 Y54.807 E3.2282
G1 X56.725 Y54.446 E3.25472
G1 X57.11 Y53.974 E3.29017
G1 X57.639 Y53.388 E3.33612
G0 F3600 X57.936 Y53.657
G1 F1800 X58.509 Y53.143 E3.38092
G1 X59.132 Y52.692 E3.42569
G1 X60.098 Y52.164 E3.48977
G1 X60.656 Y51.911 E3.52543
G1 X61.372 Y51.631 E3.57018
G1 X62.114 Y51.426 E3.61498
G1 X62.872 Y51.299 E3.65972
G1 X63.468 Y51.255 E3.6945
G1 X63.831 Y51.243 E3.71564
G1 X64.6 Y51.258 E3.76041
G1 X65.363 Y51.352 E3.80516
G1 X66.112 Y51.525 E3.8499
G1 X66.668 Y51.708 E3.88397
G1 X67.232 Y51.919 E3.91902
G1 X67.937 Y52.226 E3.96378
G1 X68.607 Y52.604 E4.00855
G1 X69.234 Y53.05 E4.05334
G1 X69.864 Y53.61 E4.1024
G1 X70.221 Y53.966 E4.13175
G1 X70.737 Y54.537 E4.17654
G1 X71.191 Y55.158 E4.22132
G1 X71.577 Y55.823 E4.26607
G1 X71.76 Y56.205 E4.29072
G1 X71.957 Y56.649 E4.319
G1 X72.232 Y57.367 E4.36375
G1 X72.431 Y58.11 E4.40852
G1 X72.566 Y59.015 E4.46178
G1 X72.605 Y59.468 E4.48824
G1 X72.631 Y60.237 E4.53303
G1 X72.577 Y61.004 E4.57778
G1 X72.444 Y61.762 E4.62258
G1 X72.329 Y62.198 E4.64882
G1 X72.156 Y62.784 E4.68438
G1 X71.9 Y63.51 E4.72919
G1 X71.571 Y64.205 E4.77395
G1 X71.171 Y64.861 E4.81867
G1 X70.704 Y65.473 E4.86348
G1 X70.312 Y65.901 E4.89726
G1 X69.795 Y66.422 E4.93998
G1 X69.225 Y66.939 E4.98477
G1 X68.605 Y67.395 E5.02957
G1 X67.941 Y67.783 E5.07433
G1 X67.241 Y68.1 E5.11906
G1 X66.282 Y68.403 E5.1776
G1 X65.637 Y68.559 E5.21622
G1 X64.881 Y68.7 E5.26098
G1 X64.114 Y68.763 E5.30578
G1 X63.345 Y68.745 E5.35055
G1 X62.582 Y68.648 E5.39532
G1 X62.183 Y68.565 E5.41904
G1 X61.679 Y68.445 E5.44919
G1 X60.941 Y68.228 E5.49397
G1 X60.23 Y67.936 E5.53871
G1 X59.552 Y67.571 E5.58352
G1 X59.02 Y67.215 E5.62078
G1 X58.646 Y66.941 E5.64777
G1 X58.05 Y66.455 E5.69253
G1 X57.507 Y65.91 E5.73731
G1 X56.997 Y65.273 E5.7848
G1 X56.747 Y64.923 E5.80984
G1 X56.333 Y64.275 E5.8546
G1 X55.989 Y63.587 E5.89937
G1 X55.718 Y62.867 E5.94415
G1 X55.55 Y62.247 E5.98154
G1 X55.41 Y61.625 E6.01865
G1 X55.28 Y60.867 E6.06341
G1 X55.23 Y60.099 E6.10821
G1 X55.259 Y59.331 E6.15294
G1 X55.408 Y58.38 E6.20897
G1 X55.548 Y57.756 E6.24619
G1 X55.756 Y57.015 E6.29099
G1 X56.039 Y56.3 E6.33575
G1 X56.394 Y55.618 E6.3805
G1 X57.035 Y54.699 E6.44571
G1 X57.42 Y54.227 E6.48117
G1 X57.936 Y53.657 E6.52592
G0 F3600 X58.233 Y53.926
G1 F1800 X58.792 Y53.429 E6.56946
G1 X59.401 Y52.995 E6.61298
G1 X60.263 Y52.529 E6.67002
G1 X60.821 Y52.276 E6.70568
G1 X61.518 Y52.004 E6.74923
G1 X62.24 Y51.807 E6.79279
G1 X62.979 Y51.69 E6.83634
G1 X63.481 Y51.655 E6.86563
G1 X63.844 Y51.643 E6.88677
G1 X64.592 Y51.658 E6.93031
G1 X65.334 Y51.753 E6.97386
G1 X66.061 Y51.927 E7.01737
G1 X66.528 Y52.083 E7.04602
G1 X67.092 Y52.294 E7.08107
G1 X67.777 Y52.593 E7.12458
G1 X68.427 Y52.964 E7.16814
G1 X69.034 Y53.401 E7.21167
G1 X69.582 Y53.893 E7.25454
G1 X69.939 Y54.249 E7.28388
G1 X70.44 Y54.805 E7.32745
G1 X70.878 Y55.411 E7.37097
G1 X71.394 Y56.367 E7.4342
G1 X71.591 Y56.811 E7.46247
G1 X71.858 Y57.51 E7.50602
G1 X72.048 Y58.234 E7.54959
G1 X72.167 Y59.05 E7.59759
G1 X72.206 Y59.503 E7.62405
G1 X72.23 Y60.25 E7.66756
G1 X72.175 Y60.996 E7.7111
G1 X71.946 Y62.085 E7.77587
G1 X71.773 Y62.671 E7.81143
G1 X71.523 Y63.376 E7.85497
G1 X71.199 Y64.051 E7.89855
G1 X70.805 Y64.687 E7.9421
G1 X70.346 Y65.277 E7.98561
G1 X70.028 Y65.62 E8.01283
G1 X69.511 Y66.141 E8.05555
G1 X68.956 Y66.643 E8.09911
G1 X68.351 Y67.083 E8.14265
G1 X67.703 Y67.456 E8.18617
G1 X67.018 Y67.757 E8.22972
G1 X66.188 Y68.014 E8.28029
G1 X65.543 Y68.17 E8.31892
G1 X64.807 Y68.307 E8.36249
G1 X64.061 Y68.364 E8.40604
G1 X63.314 Y68.342 E8.44954
G1 X62.276 Y68.176 E8.51072
G1 X61.772 Y68.056 E8.54088
G1 X61.054 Y67.844 E8.58445
G1 X60.364 Y67.556 E8.62797
G1 X59.707 Y67.197 E8.67155
G1 X59.256 Y66.893 E8.70321
G1 X58.882 Y66.619 E8.73019
G1 X58.303 Y66.145 E8.77375
G1 X57.778 Y65.612 E8.81729
G1 X57.323 Y65.041 E8.85979
G1 X57.073 Y64.691 E8.88483
G1 X56.671 Y64.06 E8.92837
G1 X56.339 Y63.389 E8.97195
G1 X56.081 Y62.687 E9.01548
G1 X55.94 Y62.159 E9.04729
G1 X55.8 Y61.537 E9.0844
G1 X55.675 Y60.8 E9.12791
G1 X55.629 Y60.053 E9.17147
G1 X55.664 Y59.306 E9.215
G1 X55.799 Y58.468 E9.2644
G1 X55.939 Y57.844 E9.30163
G1 X56.141 Y57.123 E9.34521
G1 X56.42 Y56.429 E9.38874
G1 X56.77 Y55.768 E9.43228
G1 X57.345 Y54.951 E9.49043
G1 X57.73 Y54.479 E9.52588
G1 X58.233 Y53.926 E9.56939
G0 F3600 X58.529 Y54.196
G1 F1800 X59.074 Y53.716 E9.61166
G1 X59.669 Y53.299 E9.65395
G1 X60.429 Y52.893 E9.70411
G1 X60.987 Y52.64 E9.73977
G1 X61.664 Y52.377 E9.78204
G1 X62.365 Y52.19 E9.82427
G1 X63.084 Y52.081 E9.8666
G1 X63.494 Y52.055 E9.89051
G1 X63.857 Y52.043 E9.91165
G1 X64.583 Y52.059 E9.95392
G1 X65.303 Y52.154 E9.99619
G1 X66.008 Y52.329 E10.03847
G1 X66.388 Y52.457 E10.06181
G1 X66.952 Y52.668 E10.09686
G1 X67.617 Y52.96 E10.13913
G1 X68.246 Y53.323 E10.1814
G1 X68.832 Y53.753 E10.22371
G1 X69.299 Y54.177 E10.26042
G1 X69.656 Y54.533 E10.28977
G1 X70.142 Y55.073 E10.33205
G1 X70.565 Y55.663 E10.37431
G1 X71.029 Y56.529 E10.43149
G1 X71.226 Y56.973 E10.45976
G1 X71.483 Y57.652 E10.50202
G1 X71.665 Y58.356 E10.54435
G1 X71.769 Y59.084 E10.58715
G1 X71.808 Y59.537 E10.61361
G1 X71.83 Y60.263 E10.65589
G1 X71.773 Y60.987 E10.69816
G1 X71.562 Y61.972 E10.75679
G1 X71.389 Y62.558 E10.79236
G1 X71.145 Y63.242 E10.83463
G1 X70.828 Y63.895 E10.87688
G1 X70.441 Y64.51 E10.91917
G1 X69.744 Y65.338 E10.98217
G1 X69.227 Y65.859 E11.02489
G1 X68.688 Y66.346 E11.06717
G1 X68.098 Y66.77 E11.10946
G1 X67.466 Y67.127 E11.15171
G1 X66.798 Y67.413 E11.194
G1 X66.094 Y67.625 E11.2368
G1 X65.449 Y67.781 E11.27542
G1 X64.734 Y67.913 E11.31774
G1 X64.01 Y67.965 E11.35999
G1 X63.284 Y67.937 E11.40228
G1 X62.368 Y67.787 E11.45631
G1 X61.864 Y67.667 E11.48646
G1 X61.168 Y67.46 E11.52873
G1 X60.499 Y67.178 E11.57098
G1 X59.864 Y66.824 E11.6133
G1 X59.492 Y66.57 E11.63952
G1 X59.118 Y66.296 E11.6665
G1 X58.557 Y65.835 E11.70877
G1 X58.05 Y65.315 E11.75104
G1 X57.648 Y64.808 E11.7887
G1 X57.398 Y64.458 E11.81373
G1 X57.009 Y63.845 E11.85599
G1 X56.69 Y63.192 E11.89829
G1 X56.444 Y62.509 E11.94055
G1 X56.33 Y62.071 E11.96689
G1 X56.19 Y61.449 E12.004
G1 X56.07 Y60.733 E12.04626
G1 X56.029 Y60.008 E12.08852
G1 X56.068 Y59.282 E12.13084
G1 X56.189 Y58.555 E12.17374
G1 X56.329 Y57.931 E12.21096
G1 X56.527 Y57.232 E12.25325
G1 X56.8 Y56.559 E12.29552
G1 X57.146 Y55.92 E12.33781
G1 X57.655 Y55.204 E12.38895
G1 X58.04 Y54.732 E12.4244
G1 X58.529 Y54.196 E12.46663
G0 F3600 X58.825 Y54.466
G1 F1800 X59.356 Y54.004 E12.5076
G1 X59.936 Y53.605 E12.54857
G1 X60.594 Y53.257 E12.5919
G1 X61.152 Y53.004 E12.62756
G1 X61.808 Y52.75 E12.6685
G1 X62.49 Y52.573 E12.70952
G1 X63.507 Y52.454 E12.76911
G1 X63.87 Y52.442 E12.79025
G1 X64.574 Y52.459 E12.83124
G1 X65.271 Y52.556 E12.8722
G1 X66.247 Y52.832 E12.93124
G1 X66.811 Y53.043 E12.96629
G1 X67.456 Y53.327 E13.00731
G1 X68.064 Y53.682 E13.04829
G1 X68.628 Y54.103 E13.08925
G1 X69.017 Y54.46 E13.11999
G1 X69.374 Y54.816 E13.14933
G1 X69.843 Y55.34 E13.19026
G1 X70.25 Y55.915 E13.23127
G1 X70.663 Y56.691 E13.28243
G1 X70.86 Y57.135 E13.3107
G1 X71.109 Y57.794 E13.35171
G1 X71.281 Y58.477 E13.3927
G1 X71.37 Y59.118 E13.43037
G1 X71.409 Y59.571 E13.45684
G1 X71.43 Y60.275 E13.49783
G1 X71.37 Y60.976 E13.53878
G1 X71.178 Y61.858 E13.59132
G1 X71.005 Y62.444 E13.62688
G1 X70.768 Y63.107 E13.66787
G1 X70.457 Y63.739 E13.70886
G1 X70.076 Y64.331 E13.74984
G1 X69.46 Y65.056 E13.80522
G1 X68.943 Y65.577 E13.84794
G1 X68.419 Y66.048 E13.88895
G1 X67.846 Y66.456 E13.92989
G1 X67.23 Y66.797 E13.97087
G1 X66.579 Y67.066 E14.01187
G1 X66 Y67.236 E14.04699
G1 X65.355 Y67.392 E14.08562
G1 X64.662 Y67.519 E14.12663
G1 X63.96 Y67.566 E14.16758
G1 X63.256 Y67.533 E14.2086
G1 X62.461 Y67.397 E14.25554
G1 X61.957 Y67.277 E14.2857
G1 X61.282 Y67.076 E14.32669
G1 X60.635 Y66.799 E14.36766
G1 X60.023 Y66.45 E14.40866
G1 X59.729 Y66.247 E14.42946
G1 X59.355 Y65.973 E14.45645
G1 X58.812 Y65.526 E14.49738
G1 X58.322 Y65.019 E14.53842
G1 X57.974 Y64.576 E14.57121
G1 X57.724 Y64.226 E14.59625
G1 X57.348 Y63.631 E14.63721
G1 X57.042 Y62.997 E14.67819
G1 X56.809 Y62.332 E14.7192
G1 X56.72 Y61.983 E14.74017
G1 X56.58 Y61.361 E14.77728
G1 X56.465 Y60.667 E14.81822
G1 X56.429 Y59.964 E14.85919
G1 X56.473 Y59.261 E14.90019
G1 X56.579 Y58.643 E14.93669
G1 X56.719 Y58.019 E14.97391
G1 X56.912 Y57.342 E15.01489
G1 X57.181 Y56.691 E15.05589
G1 X57.521 Y56.075 E15.09684
G1 X57.965 Y55.457 E15.14113
G1 X58.35 Y54.985 E15.17658
G1 X58.825 Y54.466 E15.21753
G0 F3600 X58.66 Y55.238
G1 F1800 X59.12 Y54.737 E15.25712
G1 X59.636 Y54.293 E15.29674
G1 X60.201 Y53.912 E15.33641
G1 X60.759 Y53.622 E15.37301
G1 X61.317 Y53.369 E15.40867
G1 X61.952 Y53.124 E15.44829
G1 X62.612 Y52.956 E15.48793
G1 X63.52 Y52.854 E15.54111
G1 X63.883 Y52.842 E15.56225
G1 X64.564 Y52.86 E15.6019
G1 X65.238 Y52.957 E15.64154
G1 X66.107 Y53.207 E15.69417
G1 X66.671 Y53.418 E15.72922
G1 X67.294 Y53.693 E15.76886
G1 X67.88 Y54.04 E15.8085
G1 X68.421 Y54.453 E15.84811
G1 X68.734 Y54.743 E15.87295
G1 X69.091 Y55.099 E15.90229
G1 X69.545 Y55.607 E15.94195
G1 X69.935 Y56.165 E15.98157
G1 X70.298 Y56.854 E16.0269
G1 X70.495 Y57.298 E16.05518
G1 X70.734 Y57.935 E16.09478
G1 X70.896 Y58.596 E16.13439
G1 X70.972 Y59.153 E16.16711
G1 X71.011 Y59.606 E16.19357
G1 X71.029 Y60.286 E16.23317
G1 X70.968 Y60.964 E16.27279
G1 X70.795 Y61.745 E16.31935
G1 X70.622 Y62.331 E16.35491
G1 X70.391 Y62.972 E16.39457
G1 X70.087 Y63.581 E16.43419
G1 X69.713 Y64.15 E16.47382
G1 X69.176 Y64.774 E16.52174
G1 X68.659 Y65.295 E16.56446
G1 X68.152 Y65.75 E16.60411
G1 X67.595 Y66.141 E16.64372
G1 X66.996 Y66.465 E16.68336
G1 X66.363 Y66.717 E16.72302
G1 X65.905 Y66.847 E16.75073
G1 X65.26 Y67.003 E16.78935
G1 X64.59 Y67.124 E16.82898
G1 X63.911 Y67.166 E16.86858
G1 X63.231 Y67.128 E16.90822
G1 X62.554 Y67.008 E16.94824
G1 X62.05 Y66.888 E16.9784
G1 X61.398 Y66.692 E17.01802
G1 X60.773 Y66.421 E17.05767
G1 X59.965 Y65.925 E17.11286
G1 X59.591 Y65.651 E17.13984
G1 X59.067 Y65.217 E17.17945
G1 X58.596 Y64.724 E17.21913
G1 X58.299 Y64.343 E17.24725
G1 X58.049 Y63.993 E17.27228
G1 X57.687 Y63.417 E17.31188
G1 X57.394 Y62.802 E17.35153
G1 X57.111 Y61.896 E17.40678
G1 X56.971 Y61.274 E17.44389
G1 X56.86 Y60.602 E17.48353
G1 X56.83 Y59.922 E17.52315
G1 X56.879 Y59.242 E17.56283
G1 X56.97 Y58.73 E17.5931
G1 X57.11 Y58.106 E17.63032
G1 X57.297 Y57.452 E17.66992
G1 X57.561 Y56.824 E17.70957
G1 X57.896 Y56.231 E17.74921
G1 X58.275 Y55.71 E17.78671
G1 X58.66 Y55.238 E17.82216
G0 F3600 X58.97 Y55.491
G1 F1800 X59.415 Y55.008 E17.86039
G1 X59.916 Y54.583 E17.89863
G1 X60.464 Y54.221 E17.93686
G1 X60.924 Y53.986 E17.96692
G1 X61.482 Y53.733 E18.00258
G1 X62.096 Y53.499 E18.04083
G1 X62.733 Y53.34 E18.07904
G1 X63.534 Y53.254 E18.12593
G1 X63.897 Y53.242 E18.14707
G1 X64.553 Y53.26 E18.18527
G1 X65.203 Y53.358 E18.22353
G1 X65.967 Y53.581 E18.26986
G1 X66.531 Y53.792 E18.30491
G1 X67.131 Y54.06 E18.34315
G1 X67.695 Y54.398 E18.38143
G1 X68.452 Y55.026 E18.43868
G1 X68.809 Y55.382 E18.46802
G1 X69.245 Y55.874 E18.50628
G1 X69.618 Y56.414 E18.54448
G1 X69.932 Y57.016 E18.584
G1 X70.129 Y57.46 E18.61228
G1 X70.358 Y58.076 E18.65053
G1 X70.511 Y58.714 E18.68872
G1 X70.573 Y59.187 E18.71648
G1 X70.612 Y59.64 E18.74295
G1 X70.629 Y60.297 E18.7812
G1 X70.565 Y60.95 E18.81939
G1 X70.411 Y61.632 E18.86009
G1 X70.238 Y62.218 E18.89565
G1 X70.014 Y62.836 E18.93391
G1 X69.717 Y63.421 E18.9721
G1 X69.35 Y63.967 E19.01039
G1 X68.892 Y64.493 E19.05099
G1 X68.375 Y65.014 E19.09371
G1 X67.885 Y65.451 E19.13192
G1 X67.345 Y65.825 E19.17015
G1 X66.764 Y66.132 E19.2084
G1 X66.15 Y66.365 E19.24663
G1 X65.811 Y66.459 E19.2671
G1 X65.166 Y66.615 E19.30573
G1 X64.52 Y66.73 E19.34392
G1 X63.864 Y66.766 E19.38216
G1 X63.208 Y66.722 E19.42043
G1 X62.646 Y66.619 E19.45368
G1 X62.142 Y66.499 E19.48384
G1 X61.514 Y66.308 E19.52205
G1 X60.913 Y66.043 E19.56028
G1 X60.202 Y65.602 E19.60898
G1 X59.828 Y65.328 E19.63596
G1 X59.322 Y64.908 E19.67424
G1 X58.872 Y64.43 E19.71245
G1 X58.625 Y64.111 E19.73593
G1 X58.375 Y63.761 E19.76097
G1 X58.026 Y63.204 E19.79922
G1 X57.748 Y62.609 E19.83745
G1 X57.501 Y61.808 E19.88624
G1 X57.361 Y61.186 E19.92335
G1 X57.256 Y60.537 E19.96161
G1 X57.23 Y59.881 E19.99983
G1 X57.285 Y59.226 E20.03809
G1 X57.36 Y58.818 E20.06223
G1 X57.5 Y58.194 E20.09945
G1 X57.683 Y57.563 E20.1377
G1 X57.94 Y56.959 E20.1759
G1 X58.27 Y56.39 E20.21419
G1 X58.585 Y55.963 E20.24507
G1 X58.97 Y55.491 E20.28053
G0 F3600 X59.279 Y55.744
G1 F1800 X59.709 Y55.28 E20.31735
G1 X60.194 Y54.874 E20.35416
G1 X60.726 Y54.533 E20.39094
G1 X61.089 Y54.35 E20.4146
G1 X61.647 Y54.097 E20.45026
G1 X62.238 Y53.873 E20.48705
G1 X62.853 Y53.725 E20.52387
G1 X63.547 Y53.654 E20.56447
G1 X63.91 Y53.642 E20.58561
G1 X64.542 Y53.661 E20.62242
G1 X65.166 Y53.759 E20.65918
G1 X65.827 Y53.956 E20.69933
G1 X66.391 Y54.167 E20.73438
G1 X66.968 Y54.425 E20.77117
G1 X67.508 Y54.755 E20.808
G1 X68.17 Y55.31 E20.85828
G1 X68.527 Y55.666 E20.88763
G1 X68.945 Y56.139 E20.92437
G1 X69.3 Y56.662 E20.96116
G1 X69.566 Y57.178 E20.99495
G1 X69.763 Y57.622 E21.02322
G1 X69.983 Y58.215 E21.06004
G1 X70.125 Y58.831 E21.09683
G1 X70.175 Y59.221 E21.11972
G1 X70.214 Y59.674 E21.14618
G1 X70.228 Y60.306 E21.18298
G1 X70.162 Y60.935 E21.21979
G1 X70.027 Y61.519 E21.25468
G1 X69.854 Y62.105 E21.29024
G1 X69.637 Y62.698 E21.327
G1 X69.347 Y63.26 E21.36381
G1 X68.989 Y63.781 E21.4006
G1 X68.608 Y64.211 E21.43404
G1 X68.091 Y64.732 E21.47676
G1 X67.618 Y65.152 E21.51358
G1 X67.096 Y65.508 E21.55036
G1 X66.534 Y65.796 E21.58711
G1 X65.717 Y66.07 E21.63727
G1 X65.072 Y66.226 E21.67589
G1 X64.45 Y66.335 E21.71265
G1 X63.818 Y66.365 E21.74948
G1 X63.188 Y66.316 E21.78626
G1 X62.739 Y66.23 E21.81287
