;FLAVOR:RepRap
;TIME:1290
;Filament used: 1.35383m
;Layer height: 0.2
;Generated with Cura_SteamEngine master
M190 S50
M104 S195
M109 S195
G28 ;Home
G1 Z15.0 F6000 ;Move the platform down 15mm
;Prime the extruder
G92 E0
G1 F200 E3
G92 E0
;LAYER_COUNT:19
;LAYER:0
M107
G1 F1500 E-6.5
G0 F3600 X32.182 Y40.552 Z0.35
;TYPE:SKIRT
G1 F1500 E0
G1 F1800 X32.828 Y40.099 E0.04592
G1 X33.518 Y39.714 E0.09191
G1 X34.242 Y39.4 E0.13785
G1 X34.995 Y39.161 E0.18383
G1 X35.768 Y39 E0.22979
G1 X36.86 Y38.907 E0.29358
G1 X45.652 Y38.778 E0.80537
G1 X46.441 Y38.806 E0.85133
G1 X47.223 Y38.914 E0.89728
G1 X47.932 Y39.087 E0.93975
G1 X48.031 Y38.692 E0.96346
G1 X48.298 Y37.949 E1.00941
G1 X48.795 Y36.964 E1.07363
G1 X53.302 Y29.413 E1.58547
G1 X53.741 Y28.757 E1.63142
G1 X54.244 Y28.148 E1.67739
G1 X54.805 Y27.593 E1.72332
G1 X55.42 Y27.097 E1.76931
G1 X56.082 Y26.666 E1.81529
G1 X56.784 Y26.305 E1.86123
G1 X57.519 Y26.016 E1.9072
G1 X58.28 Y25.803 E1.9532
G1 X59.058 Y25.668 E1.99916
G1 X59.845 Y25.613 E2.04508
G1 X60.635 Y25.637 E2.09108
G1 X61.417 Y25.741 E2.137
G1 X62.186 Y25.924 E2.18301
G1 X62.932 Y26.183 E2.22897
G1 X63.647 Y26.516 E2.27488
G1 X64.326 Y26.92 E2.32087
G1 X64.96 Y27.391 E2.36684
G1 X65.543 Y27.923 E2.41278
G1 X66.07 Y28.512 E2.45878
G1 X66.698 Y29.413 E2.52271
G1 X71.205 Y36.964 E3.03455
G1 X71.575 Y37.662 E3.08053
G1 X71.872 Y38.394 E3.12651
G1 X72.076 Y39.09 E3.16873
G1 X72.618 Y38.946 E3.20137
G1 X73.398 Y38.822 E3.24734
G1 X74.348 Y38.778 E3.30269
G1 X83.14 Y38.907 E3.81449
G1 X83.928 Y38.958 E3.86045
G1 X84.707 Y39.089 E3.90643
G1 X85.469 Y39.298 E3.95242
G1 X86.205 Y39.583 E3.99836
G1 X86.909 Y39.941 E4.04433
G1 X87.573 Y40.369 E4.09031
G1 X88.191 Y40.861 E4.13629
G1 X88.755 Y41.413 E4.18222
G1 X89.261 Y42.019 E4.22817
G1 X89.703 Y42.674 E4.27417
G1 X90.076 Y43.37 E4.32013
G1 X90.378 Y44.1 E4.36611
G1 X90.604 Y44.856 E4.41204
G1 X90.752 Y45.632 E4.45802
G1 X90.821 Y46.419 E4.504
G1 X90.81 Y47.208 E4.54993
G1 X90.719 Y47.993 E4.59593
G1 X90.55 Y48.764 E4.64187
G1 X90.303 Y49.514 E4.68783
G1 X89.838 Y50.506 E4.7516
G1 X85.554 Y58.185 E5.26341
G1 X85.135 Y58.854 E5.30935
G1 X84.65 Y59.478 E5.35535
G1 X84.147 Y60.005 E5.39776
G1 X84.454 Y60.303 E5.42266
G1 X84.962 Y60.908 E5.46864
G1 X85.555 Y61.816 E5.53177
G1 X89.838 Y69.494 E6.04349
G1 X90.187 Y70.202 E6.08944
G1 X90.463 Y70.942 E6.13541
G1 X90.663 Y71.706 E6.18138
G1 X90.784 Y72.487 E6.22738
G1 X90.826 Y73.275 E6.27331
G1 X90.788 Y74.064 E6.31928
G1 X90.67 Y74.845 E6.36526
G1 X90.474 Y75.61 E6.41122
G1 X90.202 Y76.351 E6.45717
G1 X89.856 Y77.061 E6.50314
G1 X89.44 Y77.732 E6.54909
G1 X88.959 Y78.358 E6.59504
G1 X88.416 Y78.932 E6.64103
G1 X87.818 Y79.448 E6.68701
G1 X87.172 Y79.901 E6.73293
G1 X86.482 Y80.286 E6.77892
G1 X85.758 Y80.6 E6.82485
G1 X85.005 Y80.839 E6.87084
G1 X84.232 Y81 E6.91679
G1 X83.14 Y81.093 E6.98059
G1 X74.348 Y81.222 E7.49238
G1 X73.559 Y81.194 E7.53833
G1 X72.777 Y81.086 E7.58428
G1 X72.068 Y80.913 E7.62676
G1 X71.969 Y81.31 E7.65058
G1 X71.701 Y82.053 E7.69655
G1 X71.205 Y83.036 E7.76064
G1 X66.698 Y90.587 E8.27248
G1 X66.259 Y91.243 E8.31842
G1 X65.756 Y91.852 E8.3644
G1 X65.195 Y92.407 E8.41033
G1 X64.58 Y92.903 E8.45632
G1 X63.918 Y93.334 E8.5023
G1 X63.216 Y93.695 E8.54824
G1 X62.481 Y93.984 E8.59421
G1 X61.72 Y94.197 E8.64021
G1 X60.942 Y94.332 E8.68617
G1 X60.155 Y94.387 E8.73209
G1 X59.365 Y94.363 E8.77809
G1 X58.583 Y94.259 E8.82401
G1 X57.814 Y94.076 E8.87002
G1 X57.068 Y93.817 E8.91598
G1 X56.353 Y93.484 E8.96189
G1 X55.674 Y93.08 E9.00788
G1 X55.04 Y92.609 E9.05385
G1 X54.457 Y92.077 E9.09979
G1 X53.93 Y91.488 E9.14579
G1 X53.302 Y90.587 E9.20972
G1 X48.795 Y83.036 E9.72156
G1 X48.425 Y82.338 E9.76754
G1 X48.128 Y81.606 E9.81352
G1 X47.924 Y80.91 E9.85574
G1 X47.382 Y81.054 E9.88838
G1 X46.602 Y81.178 E9.93435
G1 X45.652 Y81.222 E9.9897
G1 X36.86 Y81.093 E10.5015
G1 X36.072 Y81.042 E10.54746
G1 X35.293 Y80.911 E10.59344
G1 X34.531 Y80.702 E10.63943
G1 X33.795 Y80.417 E10.68537
G1 X33.091 Y80.059 E10.73134
G1 X32.427 Y79.631 E10.77732
G1 X31.809 Y79.139 E10.8233
G1 X31.245 Y78.587 E10.86923
G1 X30.739 Y77.981 E10.91518
G1 X30.297 Y77.326 E10.96118
G1 X29.924 Y76.63 E11.00714
G1 X29.622 Y75.9 E11.05312
G1 X29.396 Y75.144 E11.09905
G1 X29.248 Y74.368 E11.14503
G1 X29.179 Y73.581 E11.19101
G1 X29.19 Y72.792 E11.23694
G1 X29.281 Y72.007 E11.28294
G1 X29.45 Y71.236 E11.32888
G1 X29.697 Y70.486 E11.37484
G1 X30.162 Y69.494 E11.43861
G1 X34.446 Y61.815 E11.95042
G1 X34.865 Y61.146 E11.99636
G1 X35.35 Y60.522 E12.04236
G1 X35.853 Y59.995 E12.08477
G1 X35.546 Y59.697 E12.10967
G1 X35.038 Y59.092 E12.15565
G1 X34.445 Y58.184 E12.21877
G1 X30.162 Y50.506 E12.7305
G1 X29.813 Y49.798 E12.77645
G1 X29.537 Y49.058 E12.82242
G1 X29.337 Y48.294 E12.86838
G1 X29.216 Y47.513 E12.91438
G1 X29.174 Y46.725 E12.96032
G1 X29.212 Y45.936 E13.00629
G1 X29.33 Y45.155 E13.05227
G1 X29.526 Y44.39 E13.09823
G1 X29.798 Y43.649 E13.14418
G1 X30.144 Y42.939 E13.19015
G1 X30.56 Y42.268 E13.2361
G1 X31.041 Y41.642 E13.28205
G1 X31.584 Y41.068 E13.32804
G1 X32.182 Y40.552 E13.37401
G0 F3600 X32.651 Y40.7
G1 F1800 X33.298 Y40.284 E13.41879
G1 X33.985 Y39.937 E13.46358
G1 X34.704 Y39.663 E13.50837
G1 X35.447 Y39.465 E13.55312
G1 X36.207 Y39.346 E13.5979
G1 X36.865 Y39.307 E13.63627
G1 X45.657 Y39.178 E14.14806
G1 X46.426 Y39.206 E14.19285
G1 X47.188 Y39.315 E14.23766
G1 X47.934 Y39.502 E14.28242
G1 X48.227 Y39.609 E14.30058
G1 X48.282 Y39.301 E14.31879
G1 X48.493 Y38.561 E14.36357
G1 X48.78 Y37.848 E14.40831
G1 X49.139 Y37.169 E14.45302
G1 X53.646 Y29.618 E14.96486
G1 X54.074 Y28.979 E15.00963
G1 X54.566 Y28.388 E15.05439
G1 X55.117 Y27.851 E15.09917
G1 X55.72 Y27.374 E15.14392
G1 X56.37 Y26.963 E15.18868
G1 X57.059 Y26.621 E15.23345
G1 X57.779 Y26.352 E15.27819
G1 X58.524 Y26.16 E15.32297
G1 X59.285 Y26.046 E15.36776
G1 X60.053 Y26.011 E15.41251
G1 X60.821 Y26.057 E15.45729
G1 X61.58 Y26.182 E15.50206
G1 X62.322 Y26.385 E15.54684
G1 X63.039 Y26.664 E15.59162
G1 X63.723 Y27.015 E15.63637
G1 X64.366 Y27.436 E15.6811
G1 X64.963 Y27.922 E15.72591
G1 X65.506 Y28.467 E15.77069
G1 X65.989 Y29.065 E15.81543
G1 X66.354 Y29.618 E15.854
G1 X70.861 Y37.169 E16.36584
G1 X71.221 Y37.849 E16.41062
G1 X71.507 Y38.563 E16.45539
G1 X71.719 Y39.303 E16.5002
G1 X71.773 Y39.609 E16.51828
G1 X72.207 Y39.46 E16.54499
G1 X72.956 Y39.288 E16.58972
G1 X73.72 Y39.195 E16.63452
G1 X74.343 Y39.178 E16.67079
G1 X83.135 Y39.307 E17.18259
G1 X83.902 Y39.358 E17.22733
G1 X84.66 Y39.489 E17.27211
G1 X85.4 Y39.697 E17.31685
G1 X86.115 Y39.982 E17.36165
G1 X86.796 Y40.339 E17.4064
G1 X87.437 Y40.764 E17.45117
G1 X88.03 Y41.254 E17.49594
G1 X88.569 Y41.803 E17.54072
G1 X89.048 Y42.405 E17.5855
G1 X89.462 Y43.053 E17.63026
G1 X89.806 Y43.741 E17.67503
G1 X90.077 Y44.461 E17.71981
G1 X90.272 Y45.205 E17.76458
G1 X90.389 Y45.965 E17.80933
G1 X90.426 Y46.733 E17.85409
G1 X90.383 Y47.501 E17.89886
G1 X90.261 Y48.261 E17.94366
G1 X90.06 Y49.003 E17.9884
G1 X89.784 Y49.721 E18.03318
G1 X89.488 Y50.311 E18.0716
G1 X85.204 Y57.99 E18.58341
G1 X84.795 Y58.642 E18.6282
G1 X84.321 Y59.247 E18.67294
G1 X83.786 Y59.8 E18.71772
G1 X83.547 Y60.001 E18.7359
G1 X83.801 Y60.215 E18.75523
G1 X84.334 Y60.769 E18.79998
G1 X84.807 Y61.375 E18.84472
G1 X85.206 Y62.011 E18.88842
G1 X89.489 Y69.689 E19.40015
G1 X89.828 Y70.379 E19.4449
G1 X90.094 Y71.101 E19.48969
G1 X90.283 Y71.847 E19.53448
G1 X90.394 Y72.608 E19.57924
G1 X90.426 Y73.376 E19.62398
G1 X90.377 Y74.144 E19.66878
G1 X90.249 Y74.902 E19.71352
G1 X90.043 Y75.643 E19.75828
G1 X89.761 Y76.359 E19.80308
G1 X89.407 Y77.042 E19.84785
G1 X88.983 Y77.684 E19.89263
G1 X88.496 Y78.278 E19.93734
G1 X87.949 Y78.819 E19.98212
G1 X87.349 Y79.3 E20.02688
G1 X86.702 Y79.716 E20.07165
G1 X86.015 Y80.063 E20.11645
G1 X85.296 Y80.337 E20.16124
G1 X84.553 Y80.535 E20.20599
G1 X83.793 Y80.654 E20.25077
G1 X83.135 Y80.693 E20.28913
G1 X74.343 Y80.822 E20.80093
G1 X73.574 Y80.794 E20.84572
G1 X72.812 Y80.685 E20.89052
G1 X72.066 Y80.498 E20.93529
G1 X71.772 Y80.391 E20.9535
G1 X71.718 Y80.701 E20.97181
G1 X71.506 Y81.441 E21.01662
G1 X71.219 Y82.154 E21.06135
G1 X70.861 Y82.831 E21.10593
G1 X66.354 Y90.382 E21.61777
G1 X65.926 Y91.021 E21.66254
G1 X65.434 Y91.612 E21.7073
G1 X64.883 Y92.149 E21.75208
G1 X64.28 Y92.626 E21.79683
G1 X63.63 Y93.037 E21.84159
G1 X62.941 Y93.379 E21.88637
G1 X62.221 Y93.648 E21.9311
G1 X61.476 Y93.84 E21.97588
G1 X60.715 Y93.954 E22.02067
G1 X59.947 Y93.989 E22.06542
G1 X59.179 Y93.943 E22.1102
G1 X58.42 Y93.818 E22.15497
G1 X57.678 Y93.615 E22.19975
G1 X56.961 Y93.336 E22.24453
G1 X56.277 Y92.985 E22.28928
G1 X55.634 Y92.564 E22.33401
G1 X55.037 Y92.078 E22.37882
G1 X54.494 Y91.533 E22.4236
G1 X54.011 Y90.935 E22.46834
G1 X53.646 Y90.382 E22.50691
G1 X49.139 Y82.831 E23.01875
G1 X48.779 Y82.151 E23.06354
G1 X48.493 Y81.437 E23.10831
G1 X48.281 Y80.697 E23.15311
G1 X48.227 Y80.391 E23.1712
G1 X47.793 Y80.54 E23.1979
G1 X47.044 Y80.712 E23.24264
G1 X46.28 Y80.805 E23.28743
G1 X45.657 Y80.822 E23.32371
G1 X36.865 Y80.693 E23.8355
G1 X36.098 Y80.642 E23.88025
G1 X35.34 Y80.511 E23.92502
G1 X34.6 Y80.303 E23.96976
G1 X33.885 Y80.018 E24.01456
G1 X33.204 Y79.661 E24.05931
G1 X32.563 Y79.236 E24.10408
G1 X31.97 Y78.746 E24.14885
G1 X31.431 Y78.197 E24.19364
G1 X30.952 Y77.595 E24.23841
G1 X30.538 Y76.947 E24.28317
G1 X30.194 Y76.259 E24.32794
G1 X29.923 Y75.539 E24.37272
G1 X29.728 Y74.795 E24.41749
G1 X29.611 Y74.035 E24.46225
G1 X29.574 Y73.267 E24.507
G1 X29.617 Y72.499 E24.55177
G1 X29.739 Y71.739 E24.59657
G1 X29.94 Y70.997 E24.64132
G1 X30.216 Y70.279 E24.68609
G1 X30.512 Y69.689 E24.72451
G1 X34.796 Y62.01 E25.23632
G1 X35.205 Y61.358 E25.28112
G1 X35.679 Y60.753 E25.32585
G1 X36.214 Y60.2 E25.37064
G1 X36.453 Y59.999 E25.38881
G1 X36.199 Y59.785 E25.40815
G1 X35.666 Y59.231 E25.45289
G1 X35.193 Y58.625 E25.49764
G1 X34.794 Y57.989 E25.54134
G1 X30.511 Y50.311 E26.05307
G1 X30.172 Y49.621 E26.09781
G1 X29.906 Y48.899 E26.1426
G1 X29.717 Y48.153 E26.18739
G1 X29.606 Y47.392 E26.23216
G1 X29.574 Y46.624 E26.2769
G1 X29.623 Y45.856 E26.32169
G1 X29.751 Y45.098 E26.36643
G1 X29.957 Y44.357 E26.4112
G1 X30.239 Y43.641 E26.45599
G1 X30.593 Y42.958 E26.50077
G1 X31.017 Y42.316 E26.54555
G1 X31.504 Y41.722 E26.59026
G1 X32.051 Y41.181 E26.63504
G1 X32.651 Y40.7 E26.6798
G0 F3600 X33.122 Y40.861
G1 F1800 X33.767 Y40.484 E26.72328
G1 X34.45 Y40.177 E26.76687
G1 X35.161 Y39.945 E26.8104
G1 X35.893 Y39.79 E26.85395
G1 X36.871 Y39.707 E26.91108
G1 X45.663 Y39.578 E27.42287
G1 X46.411 Y39.607 E27.46644
G1 X47.151 Y39.715 E27.50997
G1 X47.875 Y39.902 E27.5535
G1 X48.549 Y40.156 E27.59542
G1 X48.577 Y39.884 E27.61133
G1 X48.731 Y39.152 E27.65487
G1 X48.963 Y38.441 E27.6984
G1 X49.269 Y37.758 E27.74197
G1 X49.482 Y37.374 E27.76753
G1 X53.989 Y29.823 E28.27937
G1 X54.406 Y29.202 E28.32291
G1 X54.888 Y28.63 E28.36645
G1 X55.427 Y28.111 E28.41
G1 X56.019 Y27.654 E28.45353
G1 X56.656 Y27.262 E28.49706
G1 X57.331 Y26.94 E28.54059
G1 X58.037 Y26.692 E28.58415
G1 X58.765 Y26.521 E28.62767
G1 X59.507 Y26.428 E28.6712
G1 X60.255 Y26.416 E28.71474
G1 X61 Y26.483 E28.75828
G1 X61.734 Y26.629 E28.80184
G1 X62.448 Y26.853 E28.8454
G1 X63.134 Y27.152 E28.88895
G1 X63.784 Y27.522 E28.93249
G1 X64.391 Y27.959 E28.97602
G1 X64.947 Y28.459 E29.01954
G1 X65.448 Y29.015 E29.06311
G1 X66.011 Y29.823 E29.12043
G1 X70.518 Y37.374 E29.63227
G1 X70.866 Y38.036 E29.6758
G1 X71.142 Y38.732 E29.71938
G1 X71.342 Y39.452 E29.76288
G1 X71.459 Y40.161 E29.8047
G1 X71.838 Y40 E29.82867
G1 X72.554 Y39.782 E29.87223
G1 X73.289 Y39.641 E29.91579
G1 X74.337 Y39.578 E29.9769
G1 X83.129 Y39.707 E30.4887
G1 X83.875 Y39.758 E30.53222
G1 X84.612 Y39.888 E30.57578
G1 X85.33 Y40.096 E30.61929
G1 X86.022 Y40.38 E30.66283
G1 X86.68 Y40.736 E30.70637
G1 X87.297 Y41.16 E30.74995
G1 X87.864 Y41.647 E30.79345
G1 X88.376 Y42.192 E30.83698
G1 X88.827 Y42.789 E30.88053
G1 X89.212 Y43.43 E30.92405
G1 X89.527 Y44.109 E30.96762
G1 X89.767 Y44.818 E31.01118
G1 X89.93 Y45.548 E31.05472
G1 X90.014 Y46.291 E31.09824
G1 X90.018 Y47.039 E31.14178
G1 X89.943 Y47.784 E31.18536
G1 X89.788 Y48.515 E31.22886
G1 X89.556 Y49.227 E31.27244
G1 X89.139 Y50.116 E31.3296
G1 X84.855 Y57.795 E31.84141
G1 X84.456 Y58.428 E31.88496
G1 X83.992 Y59.015 E31.92851
G1 X83.468 Y59.549 E31.97206
G1 X82.912 Y60.006 E32.01395
G1 X83.149 Y60.177 E32.03096
G1 X83.704 Y60.678 E32.07448
G1 X84.203 Y61.236 E32.11805
G1 X84.639 Y61.843 E32.16155
G1 X84.856 Y62.206 E32.18616
G1 X89.139 Y69.884 E32.69789
G1 X89.468 Y70.556 E32.74144
G1 X89.724 Y71.259 E32.78499
G1 X89.903 Y71.985 E32.82851
G1 X90.003 Y72.726 E32.87203
G1 X90.024 Y73.474 E32.91559
G1 X89.964 Y74.22 E32.95915
G1 X89.826 Y74.955 E33.00268
G1 X89.61 Y75.671 E33.04621
G1 X89.319 Y76.36 E33.08974
G1 X88.956 Y77.014 E33.13328
G1 X88.525 Y77.626 E33.17685
G1 X88.031 Y78.188 E33.2204
G1 X87.48 Y78.694 E33.26394
G1 X86.878 Y79.139 E33.30751
G1 X86.233 Y79.516 E33.351
G1 X85.55 Y79.823 E33.39459
G1 X84.839 Y80.055 E33.43812
G1 X84.107 Y80.21 E33.48167
G1 X83.129 Y80.293 E33.5388
G1 X74.337 Y80.422 E34.05059
G1 X73.589 Y80.393 E34.09416
G1 X72.849 Y80.285 E34.13769
G1 X72.125 Y80.098 E34.18121
G1 X71.451 Y79.844 E34.22314
G1 X71.423 Y80.118 E34.23917
G1 X71.268 Y80.85 E34.28272
G1 X71.036 Y81.561 E34.32625
G1 X70.73 Y82.244 E34.36981
G1 X70.518 Y82.626 E34.39524
G1 X66.011 Y90.177 E34.90709
G1 X65.594 Y90.798 E34.95063
G1 X65.112 Y91.37 E34.99416
G1 X64.573 Y91.889 E35.03771
G1 X63.981 Y92.346 E35.08125
G1 X63.344 Y92.738 E35.12478
G1 X62.669 Y93.06 E35.16831
G1 X61.963 Y93.308 E35.21186
G1 X61.235 Y93.479 E35.25539
G1 X60.493 Y93.572 E35.29892
G1 X59.745 Y93.584 E35.34246
G1 X59 Y93.517 E35.386
G1 X58.266 Y93.371 E35.42956
G1 X57.552 Y93.147 E35.47311
G1 X56.866 Y92.848 E35.51667
G1 X56.216 Y92.478 E35.5602
G1 X55.609 Y92.041 E35.60374
G1 X55.053 Y91.541 E35.64726
G1 X54.552 Y90.985 E35.69082
G1 X53.989 Y90.177 E35.74814
G1 X49.482 Y82.626 E36.25999
G1 X49.134 Y81.964 E36.30352
G1 X48.858 Y81.268 E36.3471
G1 X48.658 Y80.548 E36.39059
G1 X48.541 Y79.839 E36.43242
G1 X48.162 Y80 E36.45639
G1 X47.446 Y80.218 E36.49995
G1 X46.711 Y80.359 E36.54351
G1 X45.663 Y80.422 E36.60462
G1 X36.871 Y80.293 E37.11642
G1 X36.125 Y80.242 E37.15994
G1 X35.388 Y80.112 E37.2035
G1 X34.67 Y79.904 E37.24701
G1 X33.978 Y79.62 E37.29055
G1 X33.32 Y79.264 E37.33409
G1 X32.703 Y78.84 E37.37767
G1 X32.136 Y78.353 E37.42117
G1 X31.624 Y77.808 E37.4647
G1 X31.173 Y77.211 E37.50824
G1 X30.788 Y76.57 E37.55177
G1 X30.473 Y75.891 E37.59533
G1 X30.233 Y75.182 E37.6389
G1 X30.07 Y74.452 E37.68244
G1 X29.986 Y73.709 E37.72596
G1 X29.982 Y72.961 E37.7695
G1 X30.057 Y72.216 E37.81308
G1 X30.212 Y71.485 E37.85657
G1 X30.444 Y70.773 E37.90016
G1 X30.861 Y69.884 E37.95732
G1 X35.145 Y62.205 E38.46912
G1 X35.544 Y61.572 E38.51268
G1 X36.008 Y60.985 E38.55623
G1 X36.532 Y60.451 E38.59977
G1 X37.088 Y59.994 E38.64166
G1 X36.851 Y59.823 E38.65868
G1 X36.296 Y59.322 E38.70219
G1 X35.797 Y58.764 E38.74576
G1 X35.361 Y58.157 E38.78927
G1 X35.144 Y57.794 E38.81388
G1 X30.861 Y50.116 E39.32561
G1 X30.532 Y49.444 E39.36916
G1 X30.276 Y48.741 E39.41271
G1 X30.097 Y48.015 E39.45623
G1 X29.997 Y47.274 E39.49975
G1 X29.976 Y46.526 E39.54331
G1 X30.036 Y45.78 E39.58687
G1 X30.174 Y45.045 E39.63039
G1 X30.39 Y44.329 E39.67392
G1 X30.681 Y43.64 E39.71746
G1 X31.044 Y42.986 E39.761
G1 X31.475 Y42.374 E39.80456
G1 X31.969 Y41.812 E39.84812
G1 X32.52 Y41.306 E39.89166
G1 X33.122 Y40.861 E39.93523
G0 F3600 X33.592 Y41.039
G1 F1800 X34.235 Y40.701 E39.97751
G1 X34.911 Y40.437 E40.01975
G1 X35.613 Y40.248 E40.06207
G1 X36.331 Y40.137 E40.10436
G1 X36.877 Y40.107 E40.13619
G1 X45.669 Y39.978 E40.64798
G1 X46.395 Y40.007 E40.69027
G1 X47.113 Y40.116 E40.73254
G1 X47.815 Y40.303 E40.77483
G1 X48.492 Y40.566 E40.8171
G1 X48.905 Y40.782 E40.84423
G1 X48.914 Y40.437 E40.86432
G1 X49.011 Y39.717 E40.9066
G1 X49.188 Y39.012 E40.94891
G1 X49.44 Y38.331 E40.99118
G1 X49.826 Y37.579 E41.04038
G1 X54.333 Y30.028 E41.55222
G1 X54.739 Y29.426 E41.59448
G1 X55.209 Y28.872 E41.63677
G1 X55.736 Y28.373 E41.67901
G1 X56.316 Y27.935 E41.72132
