;FLAVOR:RepRap
;TIME:1572
;Filament used: 1.78666m
;Layer height: 0.2
;Generated with Cura_SteamEngine master
M190 S60
M104 S195
M109 S195
G28 ;Home
G1 Z15.0 F6000 ;Move the platform down 15mm
;Prime the extruder
G92 E0
G1 F200 E3
G92 E0
;LAYER_COUNT:13
;LAYER:0
M107
G1 F1500 E-6.5
G0 F3600 X39.148 Y35.913 Z0.35
;TYPE:SKIRT
G1 F1500 E0
G1 F1800 X39.704 Y35.311 E0.0477
G1 X41.141 Y33.911 E0.16447
G1 X41.752 Y33.375 E0.21178
G1 X43.829 Y31.736 E0.36578
G1 X44.611 Y31.193 E0.42119
G1 X46.869 Y29.821 E0.57498
G1 X47.755 Y29.358 E0.63317
G1 X51.153 Y27.85 E0.84955
G1 X51.234 Y27.716 E0.85866
G1 X51.676 Y27.061 E0.90466
G1 X52.182 Y26.455 E0.95061
G1 X52.579 Y26.056 E0.98337
G1 X53.125 Y25.545 E1.0269
G1 X53.728 Y25.035 E1.07286
G1 X54.537 Y24.496 E1.12945
G1 X54.926 Y24.27 E1.15563
G1 X55.628 Y23.908 E1.2016
G1 X56.363 Y23.619 E1.24757
G1 X57.076 Y23.417 E1.29071
G1 X57.437 Y23.333 E1.31228
G1 X58.225 Y23.192 E1.35887
G1 X59.015 Y23.092 E1.40522
G1 X59.803 Y23.032 E1.45122
G1 X60.873 Y23.08 E1.51356
G1 X61.915 Y23.198 E1.5746
G1 X62.694 Y23.326 E1.62055
G1 X63.456 Y23.533 E1.66651
G1 X64.193 Y23.815 E1.71244
G1 X64.707 Y24.065 E1.74571
G1 X65.491 Y24.483 E1.79742
G1 X66.168 Y24.889 E1.84337
G1 X66.8 Y25.362 E1.88932
G1 X67.382 Y25.896 E1.93529
G1 X67.894 Y26.471 E1.98011
G1 X68.526 Y27.255 E2.03872
G1 X68.713 Y27.512 E2.05722
G1 X69.407 Y27.726 E2.09949
G1 X70.875 Y28.26 E2.19041
G1 X71.444 Y28.493 E2.2262
G1 X72.881 Y29.148 E2.31812
G1 X73.432 Y29.425 E2.35402
G1 X74.819 Y30.195 E2.44635
G1 X75.527 Y30.639 E2.495
G1 X77.824 Y32.258 E2.65857
G1 X78.473 Y32.77 E2.70668
G1 X79.702 Y33.848 E2.80183
G1 X80.12 Y34.242 E2.83527
G1 X81.264 Y35.405 E2.93022
G1 X81.789 Y35.996 E2.97623
G1 X83.601 Y38.256 E3.14484
G1 X84.206 Y39.126 E3.20652
G1 X85.578 Y41.416 E3.3619
G1 X86.058 Y42.356 E3.42333
G1 X87.175 Y44.966 E3.58857
G1 X87.502 Y45.887 E3.64546
G1 X87.649 Y46.4 E3.67652
G1 X87.942 Y46.658 E3.69924
G1 X88.547 Y47.26 E3.74892
G1 X89.078 Y47.844 E3.79486
G1 X89.547 Y48.48 E3.84086
G1 X89.812 Y48.91 E3.87026
G1 X90.18 Y49.552 E3.91333
G1 X90.538 Y50.256 E3.9593
G1 X90.871 Y51.146 E4.01461
G1 X91.117 Y51.949 E4.06349
G1 X91.31 Y52.715 E4.10947
G1 X91.406 Y53.33 E4.1457
G1 X91.51 Y54.221 E4.19791
G1 X91.56 Y55.325 E4.26224
G1 X91.519 Y56.927 E4.35551
G1 X91.459 Y57.714 E4.40145
G1 X91.37 Y58.258 E4.43354
G1 X91.029 Y59.962 E4.53469
G1 X90.835 Y60.727 E4.58062
G1 X90.652 Y61.255 E4.61315
G1 X90.019 Y62.885 E4.71493
G1 X89.696 Y63.605 E4.76086
G1 X89.439 Y64.07 E4.79178
G1 X88.536 Y65.577 E4.89404
G1 X87.965 Y66.404 E4.95253
G1 X87.419 Y67.095 E5.00379
G1 X87.036 Y67.544 E5.03814
G1 X86.91 Y67.68 E5.04894
G1 X86.589 Y68.561 E5.10351
G1 X86.451 Y68.913 E5.12552
G1 X85.27 Y71.719 E5.30272
G1 X85.068 Y72.16 E5.33095
G1 X84.403 Y73.5 E5.41802
G1 X84.168 Y73.938 E5.44696
G1 X82.696 Y76.483 E5.61808
G1 X82.322 Y77.068 E5.65849
G1 X80.663 Y79.425 E5.82626
G1 X80.219 Y79.997 E5.86841
G1 X79.957 Y80.304 E5.8919
G1 X80.253 Y81.587 E5.96854
G1 X80.409 Y82.517 E6.02342
G1 X80.659 Y84.867 E6.16098
G1 X80.703 Y85.655 E6.20692
G1 X80.685 Y86.229 E6.24034
G1 X80.58 Y87.751 E6.32914
G1 X80.485 Y88.535 E6.37511
G1 X80.322 Y89.269 E6.41887
G1 X80.127 Y89.983 E6.46195
G1 X79.881 Y90.733 E6.50789
G1 X79.375 Y91.798 E6.57652
G1 X78.999 Y92.456 E6.62063
G1 X78.573 Y93.121 E6.6666
G1 X78.082 Y93.739 E6.71254
G1 X77.531 Y94.305 E6.75852
G1 X77.191 Y94.603 E6.78484
G1 X76.774 Y94.947 E6.8163
G1 X76.14 Y95.418 E6.86227
G1 X75.462 Y95.822 E6.90821
G1 X74.746 Y96.156 E6.9542
G1 X74.004 Y96.415 E6.99994
G1 X73.506 Y96.561 E7.03014
G1 X72.738 Y96.744 E7.0761
G1 X71.956 Y96.849 E7.12202
G1 X71.166 Y96.875 E7.16803
G1 X70.449 Y96.828 E7.20985
G1 X69.82 Y96.758 E7.24669
G1 X69.041 Y96.631 E7.29263
G1 X68.278 Y96.426 E7.33862
G1 X67.302 Y96.035 E7.39981
G1 X66.487 Y95.643 E7.45245
G1 X65.794 Y95.265 E7.4984
G1 X64.932 Y94.654 E7.5599
G1 X64.144 Y94.01 E7.61913
G1 X63.559 Y93.48 E7.66508
G1 X63.157 Y93.045 E7.69955
G1 X61.918 Y91.599 E7.81039
G1 X61.433 Y90.955 E7.85731
G1 X60.324 Y91.04 E7.92205
G1 X59.227 Y91.047 E7.98591
G1 X58.613 Y91.007 E8.02172
G1 X58.233 Y91.512 E8.05851
G1 X57.152 Y92.795 E8.15616
G1 X56.326 Y93.636 E8.22477
G1 X55.383 Y94.462 E8.29773
G1 X54.764 Y94.952 E8.34369
G1 X54.153 Y95.345 E8.38597
G1 X53.692 Y95.612 E8.41698
G1 X52.99 Y95.972 E8.4629
G1 X52.254 Y96.26 E8.5089
G1 X51.651 Y96.435 E8.54545
G1 X50.751 Y96.657 E8.5994
G1 X49.976 Y96.807 E8.64535
G1 X49.189 Y96.878 E8.69134
G1 X48.4 Y96.869 E8.73727
G1 X47.481 Y96.757 E8.79115
G1 X46.939 Y96.658 E8.82322
G1 X46.171 Y96.477 E8.86915
G1 X45.424 Y96.219 E8.91515
G1 X44.708 Y95.887 E8.96109
G1 X44.029 Y95.484 E9.00704
G1 X43.522 Y95.118 E9.04344
G1 X43.13 Y94.81 E9.07246
G1 X42.535 Y94.292 E9.11837
G1 X41.995 Y93.715 E9.16437
G1 X41.49 Y93.049 E9.21302
G1 X41.094 Y92.464 E9.25414
G1 X40.685 Y91.789 E9.30008
G1 X40.346 Y91.075 E9.34608
G1 X40.163 Y90.586 E9.37647
G1 X39.946 Y89.943 E9.41597
G1 X39.731 Y89.183 E9.46194
G1 X39.559 Y88.041 E9.52916
G1 X39.442 Y86.505 E9.61883
G1 X39.431 Y85.481 E9.67843
G1 X39.534 Y83.626 E9.78657
G1 X39.647 Y82.665 E9.84289
G1 X40.009 Y80.671 E9.96085
G1 X40.102 Y80.29 E9.98367
G1 X38.783 Y78.546 E10.11095
G1 X38.386 Y77.968 E10.15176
G1 X36.904 Y75.592 E10.31475
G1 X36.576 Y75.012 E10.35354
G1 X35.28 Y72.475 E10.51936
G1 X35.007 Y71.881 E10.55741
G1 X33.916 Y69.215 E10.72507
G1 X33.718 Y68.676 E10.75849
G1 X33.594 Y68.296 E10.78176
G1 X33.098 Y67.784 E10.82325
G1 X32.581 Y67.194 E10.86891
G1 X31.926 Y66.366 E10.93036
G1 X31.425 Y65.655 E10.98099
G1 X30.848 Y64.73 E11.04444
G1 X30.475 Y64.061 E11.08903
G1 X29.96 Y63.02 E11.15663
G1 X29.528 Y61.957 E11.22341
G1 X28.922 Y60.08 E11.33822
G1 X28.718 Y59.318 E11.38413
G1 X28.614 Y58.718 E11.41958
G1 X28.412 Y57.208 E11.50825
G1 X28.347 Y56.421 E11.55421
G1 X28.348 Y55.904 E11.5843
G1 X28.404 Y54.287 E11.67848
G1 X28.471 Y53.5 E11.72445
G1 X28.574 Y52.913 E11.75914
G1 X28.731 Y52.185 E11.80249
G1 X28.937 Y51.422 E11.84849
G1 X29.101 Y50.965 E11.87675
G1 X29.326 Y50.395 E11.91242
G1 X29.653 Y49.676 E11.95839
G1 X29.97 Y49.12 E11.99565
G1 X30.263 Y48.652 E12.02778
G1 X30.715 Y48.005 E12.07372
G1 X31.139 Y47.504 E12.11192
G1 X31.516 Y47.095 E12.1443
G1 X32.08 Y46.543 E12.19023
G1 X32.697 Y46.05 E12.2362
G1 X33.078 Y45.792 E12.26299
G1 X33.209 Y45.709 E12.27201
G1 X33.481 Y44.947 E12.31911
G1 X33.813 Y44.157 E12.36898
G1 X34.96 Y41.797 E12.52171
G1 X35.424 Y40.973 E12.57675
G1 X36.855 Y38.759 E12.73019
G1 X37.407 Y38.008 E12.78444
G1 X39.148 Y35.913 E12.94299
G0 F3600 X39.456 Y36.168
G1 F1800 X39.983 Y35.598 E12.98818
G1 X41.42 Y34.198 E13.10495
G1 X42 Y33.689 E13.14987
G1 X44.077 Y32.05 E13.30387
G1 X44.818 Y31.535 E13.35639
G1 X47.076 Y30.163 E13.51018
G1 X47.917 Y29.723 E13.56542
G1 X51.431 Y28.164 E13.78918
G1 X51.576 Y27.923 E13.80555
G1 X52.008 Y27.286 E13.85035
G1 X52.503 Y26.698 E13.89509
G1 X52.852 Y26.348 E13.92386
G1 X53.398 Y25.837 E13.96739
G1 X53.987 Y25.341 E14.0122
G1 X54.738 Y24.841 E14.06472
G1 X55.127 Y24.615 E14.0909
G1 X55.811 Y24.264 E14.13565
G1 X56.528 Y23.986 E14.18041
G1 X57.167 Y23.807 E14.21904
G1 X57.528 Y23.723 E14.24061
G1 X58.276 Y23.589 E14.28484
G1 X59.066 Y23.489 E14.33119
G1 X59.833 Y23.432 E14.37596
G1 X60.828 Y23.477 E14.43393
G1 X61.87 Y23.595 E14.49497
G1 X62.628 Y23.721 E14.53969
G1 X63.37 Y23.925 E14.58448
G1 X64.086 Y24.205 E14.62923
G1 X64.518 Y24.418 E14.65727
G1 X65.302 Y24.836 E14.70898
G1 X65.961 Y25.233 E14.75376
G1 X66.576 Y25.696 E14.79857
G1 X67.139 Y26.22 E14.84333
G1 X67.582 Y26.722 E14.8823
G1 X68.214 Y27.506 E14.94092
G1 X68.47 Y27.86 E14.96634
G1 X68.561 Y27.883 E14.97181
G1 X69.271 Y28.102 E15.01505
G1 X70.739 Y28.636 E15.10598
G1 X71.278 Y28.857 E15.13989
G1 X72.715 Y29.512 E15.2318
G1 X73.238 Y29.775 E15.26588
G1 X74.625 Y30.545 E15.35822
G1 X75.296 Y30.966 E15.40432
G1 X77.593 Y32.585 E15.56789
G1 X78.21 Y33.071 E15.61361
G1 X79.439 Y34.149 E15.70876
G1 X79.835 Y34.523 E15.74046
G1 X80.979 Y35.686 E15.83542
G1 X81.476 Y36.246 E15.879
G1 X83.288 Y38.506 E16.0476
G1 X83.863 Y39.332 E16.10618
G1 X85.235 Y41.622 E16.26156
G1 X85.69 Y42.513 E16.31979
G1 X86.807 Y45.123 E16.48504
G1 X87.118 Y45.997 E16.53903
G1 X87.297 Y46.62 E16.57676
G1 X87.66 Y46.941 E16.60497
G1 X88.265 Y47.543 E16.65464
G1 X88.781 Y48.114 E16.69944
G1 X89.235 Y48.734 E16.74417
G1 X89.465 Y49.109 E16.76977
G1 X89.833 Y49.751 E16.81284
G1 X90.18 Y50.437 E16.85759
G1 X90.488 Y51.263 E16.9089
G1 X90.734 Y52.066 E16.95778
G1 X90.921 Y52.813 E17.00261
G1 X91.009 Y53.376 E17.03577
G1 X91.113 Y54.267 E17.08799
G1 X91.161 Y55.314 E17.14899
G1 X91.12 Y56.916 E17.24227
G1 X91.06 Y57.683 E17.28705
G1 X90.978 Y58.179 E17.31631
G1 X90.637 Y59.883 E17.41746
G1 X90.447 Y60.628 E17.46221
G1 X90.279 Y61.11 E17.49192
G1 X89.646 Y62.74 E17.59369
G1 X89.331 Y63.441 E17.63843
G1 X89.096 Y63.865 E17.66664
G1 X88.193 Y65.372 E17.7689
G1 X87.651 Y66.156 E17.82438
G1 X87.105 Y66.847 E17.87564
G1 X86.742 Y67.273 E17.90821
G1 X86.563 Y67.467 E17.92358
G1 X86.214 Y68.424 E17.98287
G1 X86.083 Y68.758 E18.00375
G1 X84.902 Y71.564 E18.18095
G1 X84.71 Y71.983 E18.20778
G1 X84.045 Y73.323 E18.29485
G1 X83.822 Y73.738 E18.32227
G1 X82.35 Y76.283 E18.49339
G1 X81.995 Y76.837 E18.53169
G1 X80.336 Y79.194 E18.69946
G1 X79.915 Y79.737 E18.73945
G1 X79.522 Y80.198 E18.77471
G1 X79.863 Y81.677 E18.86305
G1 X80.011 Y82.559 E18.91511
G1 X80.261 Y84.909 E19.05266
G1 X80.303 Y85.677 E19.09743
G1 X80.285 Y86.201 E19.12795
G1 X80.18 Y87.723 E19.21675
G1 X80.088 Y88.487 E19.26154
G1 X79.937 Y89.164 E19.30191
G1 X79.742 Y89.878 E19.34499
G1 X79.501 Y90.608 E19.38974
G1 X79.028 Y91.599 E19.45365
G1 X78.652 Y92.257 E19.49776
G1 X78.236 Y92.905 E19.54258
G1 X77.755 Y93.505 E19.58734
G1 X76.936 Y94.294 E19.65354
G1 X76.519 Y94.638 E19.685
G1 X75.901 Y95.096 E19.72977
G1 X75.239 Y95.488 E19.77455
G1 X74.54 Y95.808 E19.8193
G1 X73.892 Y96.031 E19.85919
G1 X73.394 Y96.177 E19.88939
G1 X72.646 Y96.355 E19.93415
G1 X71.883 Y96.454 E19.97893
G1 X71.114 Y96.473 E20.0237
G1 X70.494 Y96.431 E20.05987
G1 X69.865 Y96.361 E20.09671
G1 X69.106 Y96.236 E20.14148
G1 X68.364 Y96.033 E20.18626
G1 X67.475 Y95.675 E20.24204
G1 X66.66 Y95.283 E20.29468
G1 X65.986 Y94.914 E20.3394
G1 X65.185 Y94.344 E20.39663
G1 X64.397 Y93.7 E20.45586
G1 X63.828 Y93.183 E20.50061
G1 X63.461 Y92.785 E20.53212
G1 X62.222 Y91.339 E20.64296
G1 X61.658 Y90.59 E20.69753
G1 X61.625 Y90.54 E20.70102
G1 X60.293 Y90.642 E20.77877
G1 X59.253 Y90.648 E20.83931
G1 X58.423 Y90.594 E20.88772
G1 X58.417 Y90.603 E20.88835
G1 X57.927 Y91.254 E20.93577
G1 X56.846 Y92.537 E21.03343
G1 X56.063 Y93.336 E21.09854
G1 X55.12 Y94.162 E21.17151
G1 X54.516 Y94.638 E21.21627
G1 X53.953 Y94.999 E21.25519
G1 X53.492 Y95.266 E21.2862
G1 X52.807 Y95.616 E21.33098
G1 X52.09 Y95.893 E21.37572
G1 X51.555 Y96.047 E21.40812
G1 X50.655 Y96.269 E21.46207
G1 X49.9 Y96.414 E21.50682
G1 X49.134 Y96.48 E21.55157
G1 X48.365 Y96.466 E21.59634
G1 X47.553 Y96.364 E21.64397
G1 X47.011 Y96.265 E21.67604
G1 X46.263 Y96.087 E21.7208
G1 X45.537 Y95.833 E21.76557
G1 X44.841 Y95.505 E21.81035
G1 X44.183 Y95.107 E21.85511
G1 X43.769 Y94.804 E21.88497
G1 X43.377 Y94.496 E21.91399
G1 X42.798 Y93.99 E21.95874
G1 X42.274 Y93.426 E22.00355
G1 X41.821 Y92.825 E22.04736
G1 X41.425 Y92.24 E22.08848
G1 X41.028 Y91.582 E22.13321
G1 X40.701 Y90.886 E22.17797
G1 X40.542 Y90.458 E22.20454
G1 X40.325 Y89.815 E22.24404
G1 X40.117 Y89.075 E22.28878
G1 X39.957 Y88.011 E22.35141
G1 X39.84 Y86.475 E22.44107
G1 X39.83 Y85.503 E22.49765
G1 X39.933 Y83.648 E22.60579
G1 X40.041 Y82.736 E22.65924
G1 X40.403 Y80.742 E22.7772
G1 X40.535 Y80.198 E22.80978
G1 X39.102 Y78.304 E22.94802
G1 X38.725 Y77.756 E22.98674
G1 X37.243 Y75.38 E23.14973
G1 X36.932 Y74.83 E23.1865
G1 X35.636 Y72.293 E23.35232
G1 X35.377 Y71.73 E23.38839
G1 X34.286 Y69.064 E23.55606
G1 X34.099 Y68.552 E23.58779
G1 X33.947 Y68.086 E23.61632
G1 X33.385 Y67.506 E23.66332
G1 X32.894 Y66.946 E23.70667
G1 X32.239 Y66.118 E23.76812
G1 X31.764 Y65.443 E23.81616
G1 X31.187 Y64.518 E23.87962
G1 X30.833 Y63.883 E23.92194
G1 X30.318 Y62.842 E23.98954
G1 X29.909 Y61.835 E24.0528
G1 X29.303 Y59.958 E24.1676
G1 X29.105 Y59.214 E24.21242
G1 X29.01 Y58.665 E24.24485
G1 X28.808 Y57.155 E24.33352
G1 X28.746 Y56.389 E24.37825
G1 X28.747 Y55.918 E24.40566
G1 X28.803 Y54.301 E24.49984
G1 X28.87 Y53.535 E24.54459
G1 X28.965 Y52.997 E24.57639
G1 X29.122 Y52.269 E24.61974
G1 X29.323 Y51.527 E24.66448
G1 X29.473 Y51.112 E24.69017
G1 X29.698 Y50.542 E24.72584
G1 X30.017 Y49.842 E24.77061
G1 X30.309 Y49.332 E24.80482
G1 X30.602 Y48.864 E24.83696
G1 X31.043 Y48.234 E24.88172
G1 X31.433 Y47.776 E24.91673
G1 X31.81 Y47.367 E24.94911
G1 X32.36 Y46.829 E24.99389
G1 X32.963 Y46.351 E25.03868
G1 X33.292 Y46.13 E25.06175
G1 X33.54 Y45.973 E25.07883
G1 X33.858 Y45.081 E25.13395
G1 X34.172 Y44.332 E25.18122
G1 X35.319 Y41.972 E25.33395
G1 X35.76 Y41.19 E25.38621
G1 X37.191 Y38.976 E25.53965
G1 X37.715 Y38.263 E25.59115
G1 X39.456 Y36.168 E25.7497
G0 F3600 X39.763 Y36.424
G1 F1800 X40.262 Y35.884 E25.79249
G1 X41.699 Y34.484 E25.90927
G1 X42.248 Y34.003 E25.95175
G1 X44.325 Y32.364 E26.10575
G1 X45.026 Y31.877 E26.15543
G1 X47.284 Y30.505 E26.30922
G1 X48.079 Y30.089 E26.36145
G1 X51.709 Y28.478 E26.5926
G1 X51.919 Y28.13 E26.61626
G1 X52.339 Y27.511 E26.6598
G1 X52.823 Y26.941 E26.70332
G1 X53.126 Y26.64 E26.72818
G1 X53.672 Y26.129 E26.77171
G1 X54.244 Y25.648 E26.81521
G1 X54.939 Y25.187 E26.86375
G1 X55.328 Y24.961 E26.88994
G1 X55.994 Y24.621 E26.93346
G1 X56.692 Y24.353 E26.97698
G1 X57.258 Y24.196 E27.01117
G1 X57.619 Y24.112 E27.03274
G1 X58.326 Y23.985 E27.07455
G1 X59.116 Y23.885 E27.1209
G1 X59.862 Y23.831 E27.16444
G1 X60.783 Y23.874 E27.2181
G1 X61.825 Y23.992 E27.27914
G1 X62.562 Y24.116 E27.32264
G1 X63.283 Y24.318 E27.36622
G1 X63.977 Y24.596 E27.40974
G1 X64.33 Y24.771 E27.43267
G1 X65.114 Y25.189 E27.48438
G1 X65.755 Y25.576 E27.52797
G1 X66.35 Y26.029 E27.57149
G1 X66.894 Y26.542 E27.61501
G1 X67.271 Y26.973 E27.64834
G1 X67.903 Y27.757 E27.70696
G1 X68.231 Y28.212 E27.73961
G1 X68.463 Y28.271 E27.75354
G1 X69.134 Y28.478 E27.79441
G1 X70.602 Y29.012 E27.88533
G1 X71.112 Y29.22 E27.91739
G1 X72.549 Y29.875 E28.00931
G1 X73.044 Y30.125 E28.04159
G1 X74.431 Y30.895 E28.13393
G1 X75.066 Y31.293 E28.17755
G1 X77.363 Y32.912 E28.34112
G1 X77.946 Y33.372 E28.38434
G1 X79.175 Y34.45 E28.47949
G1 X79.549 Y34.803 E28.50943
G1 X80.693 Y35.966 E28.60438
G1 X81.164 Y36.496 E28.64565
G1 X82.976 Y38.756 E28.81425
G1 X83.52 Y39.537 E28.86965
G1 X84.892 Y41.827 E29.02504
G1 X85.322 Y42.671 E29.08017
G1 X86.439 Y45.281 E29.24541
G1 X86.733 Y46.107 E29.29644
G1 X86.942 Y46.838 E29.3407
G1 X87.377 Y47.225 E29.37459
G1 X87.982 Y47.827 E29.42426
G1 X88.484 Y48.382 E29.46782
G1 X88.923 Y48.988 E29.51138
G1 X89.118 Y49.308 E29.53319
G1 X89.486 Y49.95 E29.57626
G1 X89.823 Y50.618 E29.61981
G1 X90.106 Y51.381 E29.66717
G1 X90.352 Y52.184 E29.71606
G1 X90.533 Y52.91 E29.75961
G1 X90.612 Y53.422 E29.78976
G1 X90.716 Y54.313 E29.84197
G1 X90.761 Y55.304 E29.89972
G1 X90.72 Y56.906 E29.99299
G1 X90.661 Y57.652 E30.03655
G1 X90.586 Y58.101 E30.06304
G1 X90.245 Y59.805 E30.16419
G1 X90.059 Y60.529 E30.2077
G1 X89.906 Y60.965 E30.2346
G1 X89.273 Y62.595 E30.33637
G1 X88.966 Y63.277 E30.37991
G1 X88.753 Y63.659 E30.40536
G1 X87.85 Y65.166 E30.50762
G1 X87.337 Y65.908 E30.56013
G1 X86.791 Y66.599 E30.61139
G1 X86.447 Y67.002 E30.64223
G1 X86.214 Y67.255 E30.66224
G1 X85.838 Y68.286 E30.72612
G1 X85.714 Y68.602 E30.74588
G1 X84.533 Y71.408 E30.92308
G1 X84.351 Y71.805 E30.9485
G1 X83.686 Y73.145 E31.03557
G1 X83.475 Y73.538 E31.06153
G1 X82.003 Y76.083 E31.23266
G1 X81.668 Y76.607 E31.26886
G1 X80.009 Y78.964 E31.43662
G1 X79.611 Y79.478 E31.47446
G1 X79.086 Y80.093 E31.52153
G1 X79.473 Y81.767 E31.62153
G1 X79.614 Y82.601 E31.67077
G1 X79.864 Y84.951 E31.80832
G1 X79.903 Y85.699 E31.85192
G1 X79.886 Y86.174 E31.87958
G1 X79.781 Y87.696 E31.96838
G1 X79.69 Y88.438 E32.01189
G1 X79.551 Y89.058 E32.04887
G1 X79.356 Y89.772 E32.09196
G1 X79.12 Y90.482 E32.1355
G1 X78.681 Y91.401 E32.19478
G1 X78.305 Y92.059 E32.2389
