;FLAVOR:RepRap
;TIME:1540
;Filament used: 1.57483m
;Layer height: 0.2
;Generated with Cura_SteamEngine master
M190 S60
M104 S195
M109 S195
G28 ;Home
G1 Z15.0 F6000 ;Move the platform down 15mm
;Prime the extruder
G92 E0
G1 F200 E3
G92 E0
;LAYER_COUNT:12
;LAYER:0
M107
G1 F1500 E-6.5
G0 F3600 X32.566 Y31.948 Z0.35
;TYPE:SKIRT
G1 F1500 E0
G1 F1800 X33.382 Y31.267 E0.06186
G1 X34.203 Y30.672 E0.12088
G1 X34.865 Y30.242 E0.16683
G1 X35.902 Y29.738 E0.23394
G1 X37.751 Y29.004 E0.34973
G1 X38.84 Y28.662 E0.41616
G1 X39.863 Y28.421 E0.47734
G1 X40.52 Y28.296 E0.51627
G1 X42.68 Y27.979 E0.64334
G1 X42.732 Y27.948 E0.64686
G1 X45.761 Y26.329 E0.84677
G1 X46.476 Y25.992 E0.89277
G1 X47.048 Y25.783 E0.92822
G1 X48.154 Y25.427 E0.99585
G1 X48.801 Y25.249 E1.03491
G1 X51.156 Y24.709 E1.17554
G1 X51.933 Y24.572 E1.22146
G1 X52.656 Y24.516 E1.26367
G1 X55.224 Y24.436 E1.41321
G1 X55.544 Y24.432 E1.43184
G1 X64.548 Y24.521 E1.95595
G1 X64.843 Y24.53 E1.97312
G1 X67.667 Y24.665 E2.13768
G1 X68.453 Y24.742 E2.18365
G1 X68.89 Y24.821 E2.2095
G1 X70.949 Y25.251 E2.33193
G1 X71.716 Y25.452 E2.37808
G1 X72.638 Y25.745 E2.43439
G1 X73.378 Y26.022 E2.48038
G1 X73.96 Y26.304 E2.51802
G1 X77.332 Y28.111 E2.7407
G1 X77.545 Y28.24 E2.75519
G1 X77.713 Y28.257 E2.76502
G1 X80.014 Y28.658 E2.90097
G1 X81.012 Y28.9 E2.96074
G1 X81.977 Y29.203 E3.01961
G1 X82.799 Y29.513 E3.07075
G1 X84.079 Y30.08 E3.15223
G1 X84.787 Y30.438 E3.19841
G1 X85.64 Y30.925 E3.25558
G1 X86.305 Y31.351 E3.30155
G1 X87.001 Y31.911 E3.35354
G1 X87.528 Y32.387 E3.39488
G1 X88.087 Y32.945 E3.44085
G1 X88.586 Y33.557 E3.48681
G1 X89.099 Y34.352 E3.54188
G1 X89.401 Y34.889 E3.57774
G1 X89.752 Y35.596 E3.62369
G1 X90.031 Y36.335 E3.66966
G1 X90.233 Y37.098 E3.7156
G1 X90.357 Y37.878 E3.76157
G1 X90.395 Y38.387 E3.79128
G1 X90.514 Y41.241 E3.95754
G1 X90.521 Y41.57 E3.9767
G1 X90.515 Y53.03 E4.64373
G1 X90.506 Y53.391 E4.66475
G1 X90.38 Y56.083 E4.82161
G1 X90.304 Y56.869 E4.86757
G1 X90.148 Y57.643 E4.91353
G1 X89.914 Y58.397 E4.95948
G1 X89.606 Y59.124 E5.00544
G1 X89.226 Y59.816 E5.05139
G1 X88.777 Y60.466 E5.09737
G1 X88.265 Y61.068 E5.14337
G1 X87.695 Y61.614 E5.18931
G1 X87.52 Y61.753 E5.20232
G1 X87.497 Y61.785 E5.20461
G1 X86.997 Y62.396 E5.25057
G1 X86.916 Y62.473 E5.25707
G1 X86.885 Y63.422 E5.31234
G1 X86.8 Y72.883 E5.86304
G1 X87.364 Y75.724 E6.03163
G1 X88.465 Y80.656 E6.32576
G1 X88.597 Y81.434 E6.37169
G1 X88.767 Y82.864 E6.45551
G1 X88.821 Y83.652 E6.50148
G1 X88.752 Y84.828 E6.57005
G1 X88.638 Y85.673 E6.61968
G1 X88.493 Y86.449 E6.66563
G1 X88.27 Y87.207 E6.71162
G1 X87.972 Y87.938 E6.75757
G1 X87.5 Y88.8 E6.81477
G1 X87.097 Y89.437 E6.85864
G1 X86.641 Y90.082 E6.90462
G1 X86.123 Y90.678 E6.95058
G1 X85.547 Y91.218 E6.99654
G1 X84.814 Y91.768 E7.04988
G1 X84.031 Y92.287 E7.10455
G1 X83.352 Y92.69 E7.15051
G1 X82.502 Y93.074 E7.2048
G1 X78.321 Y94.669 E7.46526
G1 X77.712 Y94.873 E7.50265
G1 X76.746 Y95.153 E7.56119
G1 X75.615 Y95.391 E7.62846
G1 X74.82 Y95.498 E7.67515
G1 X74.033 Y95.564 E7.72112
G1 X73.039 Y95.533 E7.779
G1 X72.389 Y95.471 E7.81701
G1 X71.608 Y95.356 E7.86296
G1 X70.842 Y95.163 E7.90893
G1 X70.037 Y94.866 E7.95888
G1 X69.5 Y94.634 E7.99292
G1 X68.791 Y94.285 E8.03892
G1 X67.859 Y93.673 E8.10382
G1 X67.186 Y93.159 E8.15311
G1 X66.583 Y92.648 E8.19911
G1 X66.035 Y92.08 E8.24505
G1 X65.415 Y91.265 E8.30466
G1 X65.006 Y90.647 E8.34779
G1 X64.638 Y90.024 E8.38991
G1 X64.181 Y90.248 E8.41953
G1 X63.441 Y90.523 E8.46548
G1 X62.964 Y90.657 E8.49432
G1 X61.808 Y90.942 E8.56362
G1 X61.033 Y91.092 E8.60956
G1 X60.246 Y91.163 E8.65556
G1 X59.457 Y91.154 E8.70148
G1 X58.672 Y91.065 E8.74747
G1 X57.785 Y90.865 E8.80039
G1 X56.634 Y90.534 E8.8701
G1 X55.887 Y90.278 E8.91606
G1 X55.478 Y90.089 E8.94229
G1 X55.268 Y90.474 E8.96781
G1 X54.855 Y91.148 E9.01382
G1 X54.376 Y91.776 E9.0598
G1 X54.094 Y92.092 E9.08445
G1 X53.731 Y92.477 E9.11525
G1 X53.161 Y93.023 E9.16119
G1 X52.539 Y93.509 E9.20713
G1 X51.97 Y93.873 E9.24645
G1 X51.508 Y94.141 E9.27754
G1 X50.806 Y94.502 E9.32348
G1 X50.01 Y94.81 E9.37316
G1 X49.35 Y95.025 E9.41356
G1 X48.588 Y95.232 E9.45952
G1 X47.808 Y95.36 E9.50553
G1 X46.896 Y95.409 E9.55869
G1 X46.082 Y95.405 E9.60607
G1 X45.293 Y95.361 E9.65207
G1 X44.576 Y95.251 E9.69429
G1 X43.016 Y94.936 E9.78692
G1 X42.251 Y94.74 E9.83289
G1 X41.67 Y94.535 E9.86875
G1 X37.227 Y92.763 E10.14716
G1 X36.51 Y92.434 E10.19308
G1 X35.829 Y92.034 E10.23905
G1 X34.899 Y91.316 E10.30743
G1 X34.629 Y91.073 E10.32858
G1 X34.07 Y90.515 E10.37455
G1 X33.569 Y89.904 E10.42054
G1 X33.017 Y89.042 E10.48012
G1 X32.819 Y88.683 E10.50398
G1 X32.473 Y87.973 E10.54995
G1 X32.145 Y87.043 E10.60735
G1 X31.918 Y86.242 E10.65581
G1 X31.741 Y85.472 E10.7018
G1 X31.643 Y84.688 E10.74779
G1 X31.622 Y84.039 E10.78558
G1 X31.64 Y82.183 E10.89361
G1 X31.663 Y81.661 E10.92403
G1 X31.791 Y79.997 E11.02117
G1 X31.841 Y79.534 E11.04827
G1 X32.085 Y77.757 E11.15267
G1 X32.188 Y77.169 E11.18742
G1 X33.014 Y73.35 E11.41485
G1 X33.116 Y72.936 E11.43966
G1 X33.175 Y72.721 E11.45264
G1 X33.126 Y62.537 E12.04541
G1 X31.561 Y60.85 E12.17935
G1 X31.054 Y60.245 E12.22529
G1 X30.611 Y59.592 E12.27122
G1 X30.236 Y58.897 E12.31718
G1 X29.933 Y58.167 E12.36319
G1 X29.706 Y57.411 E12.40913
G1 X29.556 Y56.636 E12.45508
G1 X29.479 Y55.527 E12.51978
G1 X29.513 Y40.809 E13.37645
G1 X29.518 Y40.558 E13.39106
G1 X29.602 Y38.127 E13.53265
G1 X29.669 Y37.34 E13.57862
G1 X29.815 Y36.564 E13.62458
G1 X30.039 Y35.807 E13.67053
G1 X30.339 Y35.076 E13.71652
G1 X30.711 Y34.379 E13.76251
G1 X30.981 Y33.961 E13.79147
G1 X31.543 Y33.148 E13.849
G1 X32.024 Y32.522 E13.89495
G1 X32.566 Y31.948 E13.9409
G0 F3600 X32.872 Y32.209
G1 F1800 X33.617 Y31.591 E13.99724
G1 X34.438 Y30.996 E14.05625
G1 X35.083 Y30.578 E14.10099
G1 X36.05 Y30.11 E14.16352
G1 X37.899 Y29.376 E14.27931
G1 X38.932 Y29.051 E14.34234
G1 X39.955 Y28.81 E14.40352
G1 X40.578 Y28.691 E14.44043
G1 X42.819 Y28.362 E14.57227
G1 X42.921 Y28.301 E14.57919
G1 X45.95 Y26.682 E14.7791
G1 X46.646 Y26.355 E14.82385
G1 X47.171 Y26.164 E14.85637
G1 X48.277 Y25.808 E14.924
G1 X48.89 Y25.639 E14.96101
G1 X51.245 Y25.099 E15.10164
G1 X52.003 Y24.966 E15.14643
G1 X52.669 Y24.916 E15.18531
G1 X55.237 Y24.836 E15.33485
G1 X55.54 Y24.832 E15.35249
G1 X64.544 Y24.921 E15.8766
G1 X64.824 Y24.929 E15.8929
G1 X67.648 Y25.064 E16.05746
G1 X68.414 Y25.141 E16.10227
G1 X68.808 Y25.212 E16.12557
G1 X70.867 Y25.642 E16.248
G1 X71.595 Y25.834 E16.29182
G1 X72.517 Y26.127 E16.34813
G1 X73.237 Y26.397 E16.39289
G1 X73.771 Y26.657 E16.42746
G1 X77.143 Y28.464 E16.65013
G1 X77.414 Y28.628 E16.66857
G1 X77.644 Y28.651 E16.68203
G1 X79.945 Y29.052 E16.81797
G1 X80.892 Y29.282 E16.8747
G1 X81.857 Y29.585 E16.93357
G1 X82.637 Y29.879 E16.98209
G1 X83.917 Y30.446 E17.06357
G1 X84.589 Y30.786 E17.10741
G1 X85.442 Y31.273 E17.16458
G1 X86.089 Y31.688 E17.20932
G1 X86.733 Y32.207 E17.25746
G1 X87.26 Y32.683 E17.29879
G1 X87.803 Y33.228 E17.34357
G1 X88.287 Y33.826 E17.38835
G1 X88.75 Y34.548 E17.43827
G1 X89.052 Y35.085 E17.47413
G1 X89.394 Y35.774 E17.51891
G1 X89.662 Y36.495 E17.56368
G1 X89.854 Y37.239 E17.6084
G1 X89.968 Y38 E17.65319
G1 X89.996 Y38.404 E17.67676
G1 X90.115 Y41.258 E17.84302
G1 X90.121 Y41.57 E17.86119
G1 X90.115 Y53.03 E18.52822
G1 X90.107 Y53.372 E18.54813
G1 X89.981 Y56.064 E18.70499
G1 X89.905 Y56.829 E18.74974
G1 X89.75 Y57.583 E18.79454
G1 X89.518 Y58.316 E18.83929
G1 X89.211 Y59.021 E18.88405
G1 X88.832 Y59.691 E18.92885
G1 X88.386 Y60.317 E18.97359
G1 X87.877 Y60.894 E19.01837
G1 X87.312 Y61.415 E19.06311
G1 X87.22 Y61.486 E19.06987
G1 X87.175 Y61.548 E19.07433
G1 X86.687 Y62.142 E19.11908
G1 X86.521 Y62.3 E19.13242
G1 X86.485 Y63.405 E19.19677
G1 X86.4 Y72.923 E19.75079
G1 X86.972 Y75.802 E19.92163
G1 X88.074 Y80.743 E20.21629
G1 X88.2 Y81.481 E20.25987
G1 X88.37 Y82.911 E20.34369
G1 X88.421 Y83.679 E20.38849
G1 X88.356 Y84.774 E20.45234
G1 X88.242 Y85.619 E20.50197
G1 X88.099 Y86.375 E20.54675
G1 X87.879 Y87.112 E20.59152
G1 X87.584 Y87.822 E20.63627
G1 X87.162 Y88.586 E20.68707
G1 X86.759 Y89.223 E20.73094
G1 X86.314 Y89.851 E20.77574
G1 X85.807 Y90.429 E20.82049
G1 X85.242 Y90.952 E20.86531
G1 X84.593 Y91.435 E20.91239
G1 X83.81 Y91.954 E20.96707
G1 X83.148 Y92.345 E21.01182
G1 X82.36 Y92.7 E21.06213
G1 X78.179 Y94.295 E21.32259
G1 X77.601 Y94.488 E21.35806
G1 X76.635 Y94.768 E21.4166
G1 X75.562 Y94.995 E21.48044
G1 X74.767 Y95.102 E21.52713
G1 X74 Y95.165 E21.57192
G1 X73.077 Y95.135 E21.62567
G1 X72.427 Y95.073 E21.66368
G1 X71.666 Y94.96 E21.70846
G1 X70.921 Y94.769 E21.75322
G1 X70.195 Y94.499 E21.79831
G1 X69.658 Y94.267 E21.83236
G1 X68.969 Y93.926 E21.8771
G1 X68.101 Y93.355 E21.93758
G1 X67.428 Y92.841 E21.98687
G1 X66.842 Y92.343 E22.03163
G1 X66.311 Y91.787 E22.07638
G1 X65.749 Y91.044 E22.1306
G1 X65.34 Y90.426 E22.17374
G1 X64.949 Y89.763 E22.21854
G1 X64.817 Y89.473 E22.23708
G1 X64.66 Y89.57 E22.24782
G1 X63.968 Y89.904 E22.29255
G1 X63.244 Y90.166 E22.33736
G1 X62.868 Y90.269 E22.36006
G1 X61.712 Y90.554 E22.42936
G1 X60.957 Y90.699 E22.4741
G1 X60.191 Y90.765 E22.51885
G1 X59.422 Y90.751 E22.56362
G1 X58.658 Y90.657 E22.60843
G1 X57.896 Y90.481 E22.65395
G1 X56.745 Y90.15 E22.72365
G1 X56.018 Y89.899 E22.76842
G1 X55.32 Y89.574 E22.81324
G1 X55.3 Y89.562 E22.81459
G1 X55.224 Y89.718 E22.82469
G1 X54.916 Y90.283 E22.86215
G1 X54.514 Y90.938 E22.90688
G1 X53.803 Y91.817 E22.97269
G1 X53.44 Y92.202 E23.00348
G1 X52.884 Y92.734 E23.04827
G1 X52.276 Y93.205 E23.09304
G1 X51.769 Y93.527 E23.128
G1 X51.307 Y93.795 E23.15909
G1 X50.623 Y94.146 E23.20383
G1 X49.886 Y94.43 E23.24981
G1 X49.226 Y94.645 E23.29021
G1 X48.483 Y94.845 E23.33499
G1 X47.724 Y94.967 E23.37974
G1 X46.898 Y95.009 E23.42788
G1 X46.084 Y95.005 E23.47526
G1 X45.316 Y94.961 E23.52003
G1 X44.655 Y94.859 E23.55896
G1 X43.095 Y94.544 E23.6516
G1 X42.35 Y94.352 E23.69638
G1 X41.819 Y94.163 E23.72918
G1 X37.376 Y92.391 E24.0076
G1 X36.677 Y92.07 E24.05237
G1 X36.015 Y91.677 E24.09718
G1 X35.167 Y91.018 E24.15969
G1 X34.897 Y90.775 E24.18083
G1 X34.352 Y90.232 E24.22561
G1 X33.868 Y89.635 E24.27034
G1 X33.367 Y88.849 E24.3246
G1 X33.169 Y88.49 E24.34846
G1 X32.833 Y87.798 E24.39323
G1 X32.529 Y86.934 E24.44654
G1 X32.302 Y86.133 E24.495
G1 X32.131 Y85.383 E24.53978
G1 X32.039 Y84.619 E24.58457
G1 X32.022 Y84.043 E24.61811
G1 X32.04 Y82.187 E24.72614
G1 X32.062 Y81.691 E24.75504
G1 X32.19 Y80.027 E24.85218
G1 X32.237 Y79.588 E24.87788
G1 X32.481 Y77.811 E24.98228
G1 X32.579 Y77.254 E25.0152
G1 X33.405 Y73.435 E25.24262
G1 X33.502 Y73.042 E25.26618
G1 X33.575 Y72.775 E25.2823
G1 X33.525 Y62.379 E25.8874
G1 X31.854 Y60.578 E26.0304
G1 X31.361 Y59.988 E26.07515
G1 X30.932 Y59.35 E26.1199
G1 X30.571 Y58.67 E26.16472
G1 X30.283 Y57.957 E26.20947
G1 X30.071 Y57.218 E26.25422
G1 X29.936 Y56.461 E26.29898
G1 X29.879 Y55.528 E26.35339
G1 X29.913 Y40.81 E27.21005
G1 X29.917 Y40.571 E27.22396
G1 X30.001 Y38.14 E27.36555
G1 X30.068 Y37.374 E27.4103
G1 X30.214 Y36.619 E27.45506
G1 X30.437 Y35.883 E27.49982
G1 X30.735 Y35.174 E27.54459
G1 X31.31 Y34.188 E27.61102
G1 X31.872 Y33.375 E27.66855
G1 X32.341 Y32.766 E27.71329
G1 X32.872 Y32.209 E27.75808
G0 F3600 X33.177 Y32.471
G1 F1800 X33.851 Y31.915 E27.80894
G1 X34.672 Y31.32 E27.86795
G1 X35.301 Y30.914 E27.91153
G1 X36.197 Y30.482 E27.96943
G1 X38.046 Y29.748 E28.08522
G1 X39.024 Y29.441 E28.14488
G1 X40.047 Y29.2 E28.20606
G1 X40.636 Y29.087 E28.24096
G1 X42.955 Y28.747 E28.37738
G1 X43.109 Y28.654 E28.38786
G1 X46.138 Y27.035 E28.58776
G1 X46.816 Y26.718 E28.63133
G1 X47.293 Y26.545 E28.66086
G1 X48.399 Y26.189 E28.72849
G1 X48.98 Y26.029 E28.76356
G1 X51.335 Y25.489 E28.9042
G1 X52.072 Y25.361 E28.94773
G1 X52.681 Y25.315 E28.98328
G1 X55.249 Y25.235 E29.13283
G1 X55.536 Y25.232 E29.14953
G1 X64.54 Y25.321 E29.67364
G1 X64.805 Y25.329 E29.68907
G1 X67.629 Y25.464 E29.85363
G1 X68.726 Y25.604 E29.918
G1 X70.785 Y26.034 E30.04043
G1 X71.474 Y26.215 E30.08189
G1 X72.396 Y26.508 E30.1382
G1 X73.096 Y26.772 E30.18175
G1 X73.582 Y27.009 E30.21322
G1 X76.954 Y28.816 E30.43589
G1 X77.283 Y29.016 E30.4583
G1 X77.576 Y29.045 E30.47544
G1 X79.877 Y29.446 E30.61139
G1 X80.772 Y29.663 E30.66499
G1 X81.737 Y29.966 E30.72386
G1 X82.475 Y30.245 E30.76979
G1 X83.755 Y30.812 E30.85127
G1 X84.391 Y31.133 E30.89274
G1 X85.244 Y31.62 E30.94991
G1 X85.873 Y32.025 E30.99345
G1 X86.465 Y32.504 E31.03778
G1 X86.992 Y32.98 E31.07911
G1 X87.52 Y33.511 E31.1227
G1 X87.988 Y34.094 E31.16621
G1 X88.401 Y34.744 E31.21103
G1 X88.703 Y35.281 E31.24689
G1 X89.035 Y35.951 E31.29042
G1 X89.293 Y36.654 E31.334
G1 X89.474 Y37.379 E31.3775
G1 X89.596 Y38.42 E31.4385
G1 X89.715 Y41.274 E31.60477
G1 X89.721 Y41.57 E31.622
G1 X89.715 Y53.03 E32.28903
G1 X89.707 Y53.353 E32.30784
G1 X89.581 Y56.045 E32.4647
G1 X89.506 Y56.79 E32.50828
G1 X89.353 Y57.522 E32.55181
G1 X89.122 Y58.233 E32.59532
G1 X88.816 Y58.916 E32.63888
G1 X88.439 Y59.562 E32.68242
G1 X87.995 Y60.164 E32.72596
G1 X87.49 Y60.716 E32.7695
G1 X86.958 Y61.168 E32.81013
G1 X86.853 Y61.31 E32.82041
G1 X86.378 Y61.888 E32.86396
G1 X86.126 Y62.126 E32.88413
G1 X86.086 Y63.381 E32.95722
G1 X85.999 Y72.958 E33.51467
G1 X86.583 Y75.898 E33.68914
G1 X87.684 Y80.831 E33.98333
G1 X87.803 Y81.529 E34.02454
G1 X87.973 Y82.959 E34.10836
G1 X88.022 Y83.705 E34.15188
G1 X87.959 Y84.721 E34.21113
G1 X87.845 Y85.566 E34.26076
G1 X87.706 Y86.301 E34.3043
G1 X87.489 Y87.017 E34.34784
G1 X87.196 Y87.705 E34.39137
G1 X86.824 Y88.372 E34.43582
G1 X86.421 Y89.009 E34.4797
G1 X85.987 Y89.619 E34.52327
G1 X85.492 Y90.18 E34.56682
G1 X84.939 Y90.684 E34.61037
G1 X84.372 Y91.102 E34.65137
G1 X83.589 Y91.621 E34.70605
G1 X82.945 Y92 E34.74954
G1 X82.217 Y92.326 E34.79597
G1 X78.036 Y93.921 E35.05643
G1 X77.49 Y94.104 E35.08995
G1 X76.524 Y94.384 E35.14849
G1 X75.509 Y94.598 E35.20887
G1 X74.714 Y94.705 E35.25556
G1 X73.968 Y94.765 E35.29912
G1 X73.115 Y94.736 E35.34879
G1 X72.465 Y94.674 E35.3868
G1 X71.725 Y94.564 E35.43035
G1 X71.002 Y94.375 E35.47384
G1 X70.354 Y94.132 E35.51412
G1 X69.817 Y93.9 E35.54817
G1 X69.147 Y93.567 E35.59172
G1 X68.344 Y93.037 E35.64772
G1 X67.671 Y92.523 E35.69701
G1 X67.102 Y92.038 E35.74053
G1 X66.587 Y91.495 E35.78409
G1 X66.083 Y90.823 E35.83298
G1 X65.674 Y90.205 E35.87612
G1 X65.295 Y89.56 E35.91966
G1 X64.994 Y88.894 E35.9622
G1 X64.432 Y89.239 E36.00058
G1 X63.756 Y89.559 E36.04412
G1 X62.773 Y89.88 E36.10431
G1 X61.617 Y90.165 E36.17361
G1 X60.882 Y90.305 E36.21716
G1 X60.136 Y90.366 E36.26072
G1 X59.388 Y90.347 E36.30427
G1 X58.647 Y90.248 E36.34779
G1 X58.006 Y90.096 E36.38613
G1 X56.855 Y89.765 E36.45584
G1 X56.149 Y89.52 E36.49934
G1 X55.472 Y89.202 E36.54287
G1 X55.134 Y88.996 E36.56591
G1 X54.873 Y89.526 E36.6003
G1 X54.565 Y90.091 E36.63775
G1 X54.172 Y90.728 E36.68132
G1 X53.512 Y91.543 E36.74236
G1 X53.149 Y91.928 E36.77316
G1 X52.608 Y92.444 E36.81667
G1 X52.014 Y92.9 E36.86026
G1 X51.568 Y93.181 E36.89094
G1 X51.106 Y93.449 E36.92203
G1 X50.44 Y93.789 E36.96555
G1 X49.762 Y94.05 E37.00784
G1 X49.102 Y94.265 E37.04824
G1 X48.38 Y94.458 E37.09174
G1 X47.64 Y94.573 E37.13533
G1 X46.9 Y94.609 E37.17845
G1 X46.086 Y94.605 E37.22583
G1 X45.339 Y94.561 E37.26939
G1 X44.735 Y94.467 E37.30497
G1 X43.175 Y94.152 E37.3976
G1 X42.45 Y93.964 E37.4412
G1 X41.967 Y93.792 E37.47104
G1 X37.524 Y92.02 E37.74945
G1 X36.845 Y91.706 E37.793
G1 X36.203 Y91.322 E37.83654
G1 X35.434 Y90.721 E37.89335
G1 X35.164 Y90.478 E37.91449
G1 X34.636 Y89.949 E37.95799
G1 X34.167 Y89.366 E38.00154
G1 X33.717 Y88.656 E38.05047
G1 X33.519 Y88.297 E38.07433
G1 X33.194 Y87.623 E38.11789
G1 X32.914 Y86.825 E38.16711
G1 X32.687 Y86.024 E38.21557
G1 X32.522 Y85.294 E38.25913
G1 X32.436 Y84.551 E38.30266
G1 X32.422 Y84.047 E38.33201
G1 X32.44 Y82.191 E38.44005
G1 X32.461 Y81.722 E38.46737
G1 X32.589 Y80.058 E38.56451
G1 X32.633 Y79.643 E38.5888
G1 X32.877 Y77.866 E38.6932
G1 X32.97 Y77.338 E38.72441
G1 X33.796 Y73.519 E38.95183
G1 X33.887 Y73.148 E38.97407
G1 X33.975 Y72.826 E38.9935
G1 X33.925 Y62.221 E39.61077
G1 X32.148 Y60.306 E39.76283
G1 X31.669 Y59.731 E39.80639
G1 X31.254 Y59.109 E39.84991
G1 X30.908 Y58.446 E39.89344
