;FLAVOR:RepRap
;TIME:1117
;Filament used: 1.35954m
;Layer height: 0.2
;Generated with Cura_SteamEngine master
M190 S60
M104 S195
M109 S195
G28 ;Home
G1 Z15.0 F6000 ;Move the platform down 15mm
;Prime the extruder
G92 E0
G1 F200 E3
G92 E0
;LAYER_COUNT:17
;LAYER:0
M107
G1 F1500 E-6.5
G0 F3600 X32.728 Y45.284 Z0.35
;TYPE:SKIRT
G1 F1500 E0
G1 F1800 X34.132 Y44.314 E0.09933
G1 X34.867 Y43.864 E0.14949
G1 X37.598 Y42.393 E0.33004
G1 X38.359 Y42.035 E0.37899
G1 X40.663 Y41.098 E0.52376
G1 X41.303 Y40.869 E0.56333
G1 X44.031 Y40.028 E0.72948
G1 X44.683 Y39.858 E0.7687
G1 X47.81 Y39.183 E0.9549
G1 X48.317 Y39.091 E0.98489
G1 X50.01 Y38.841 E1.0845
G1 X50.513 Y38.783 E1.11398
G1 X54.072 Y38.492 E1.32182
G1 X54.749 Y38.466 E1.36125
G1 X58.392 Y38.485 E1.5733
G1 X59.072 Y38.518 E1.61292
G1 X62.607 Y38.846 E1.81956
G1 X63.276 Y38.938 E1.85887
G1 X66.539 Y39.529 E2.05188
G1 X67.2 Y39.678 E2.09132
G1 X70.084 Y40.464 E2.26531
G1 X70.733 Y40.672 E2.30498
G1 X73.197 Y41.581 E2.45784
G1 X73.824 Y41.844 E2.49742
G1 X75.879 Y42.813 E2.62966
G1 X76.478 Y43.128 E2.66905
G1 X77.542 Y43.748 E2.74073
G1 X78.266 Y43.166 E2.7948
G1 X78.685 Y42.871 E2.82462
G1 X79.353 Y42.45 E2.87058
G1 X80.06 Y42.098 E2.91655
G1 X80.427 Y41.949 E2.93961
G1 X81.386 Y41.588 E2.99925
G1 X82.138 Y41.348 E3.04519
G1 X82.911 Y41.184 E3.09119
G1 X83.688 Y41.101 E3.13667
G1 X84.456 Y41.057 E3.18145
G1 X85.246 Y41.052 E3.22743
G1 X86.032 Y41.126 E3.27338
G1 X86.781 Y41.274 E3.31782
G1 X87.776 Y41.521 E3.37749
G1 X88.532 Y41.75 E3.42347
G1 X89.261 Y42.054 E3.46944
G1 X90.194 Y42.581 E3.53181
G1 X91.047 Y43.144 E3.5913
G1 X91.683 Y43.612 E3.63726
G1 X92.269 Y44.142 E3.68325
G1 X92.991 Y44.975 E3.74741
G1 X93.605 Y45.794 E3.80699
G1 X94.046 Y46.449 E3.85295
G1 X94.419 Y47.145 E3.89891
G1 X94.817 Y48.172 E3.96302
G1 X95.119 Y49.15 E4.0226
G1 X95.313 Y49.915 E4.06854
G1 X95.429 Y50.696 E4.11449
G1 X95.466 Y51.46 E4.15901
G1 X95.447 Y68.683 E5.16148
G1 X95.406 Y69.471 E5.20741
G1 X95.286 Y70.252 E5.2534
G1 X95.098 Y70.982 E5.29728
G1 X94.87 Y71.718 E5.34213
G1 X94.598 Y72.46 E5.38812
G1 X94.253 Y73.17 E5.43407
G1 X93.855 Y73.817 E5.47828
G1 X93.277 Y74.661 E5.53782
G1 X92.798 Y75.289 E5.5838
G1 X92.258 Y75.866 E5.62979
G1 X91.424 Y76.565 E5.69313
G1 X90.595 Y77.167 E5.75277
G1 X89.934 Y77.599 E5.79873
G1 X89.232 Y77.96 E5.84467
G1 X88.533 Y78.237 E5.88844
G1 X87.807 Y78.485 E5.93309
G1 X87.048 Y78.702 E5.97904
G1 X86.271 Y78.842 E6.02499
G1 X85.499 Y78.901 E6.07006
G1 X84.475 Y78.929 E6.12968
G1 X83.686 Y78.911 E6.17562
G1 X82.902 Y78.813 E6.22161
G1 X82.499 Y78.73 E6.24556
G1 X81.999 Y78.614 E6.27543
G1 X81.24 Y78.397 E6.32138
G1 X80.416 Y78.062 E6.37315
G1 X79.721 Y77.732 E6.41793
G1 X79.026 Y77.358 E6.46387
G1 X78.372 Y76.915 E6.50985
G1 X77.86 Y76.494 E6.54843
G1 X77.564 Y76.228 E6.57159
G1 X75.035 Y77.598 E6.73901
G1 X74.258 Y77.965 E6.78902
G1 X71.954 Y78.902 E6.93379
G1 X71.314 Y79.131 E6.97336
G1 X68.586 Y79.972 E7.13952
G1 X67.934 Y80.142 E7.17873
G1 X64.807 Y80.817 E7.36493
G1 X64.3 Y80.909 E7.39493
G1 X62.607 Y81.159 E7.49454
G1 X62.104 Y81.217 E7.52401
G1 X58.546 Y81.508 E7.73179
G1 X57.869 Y81.534 E7.77123
G1 X54.226 Y81.515 E7.98327
G1 X53.547 Y81.482 E8.02284
G1 X50.011 Y81.154 E8.22954
G1 X49.341 Y81.062 E8.2689
G1 X46.078 Y80.471 E8.46191
G1 X45.417 Y80.322 E8.50135
G1 X42.533 Y79.536 E8.67534
G1 X41.884 Y79.328 E8.71501
G1 X39.42 Y78.419 E8.86787
G1 X38.793 Y78.156 E8.90745
G1 X36.738 Y77.187 E9.03969
G1 X36.139 Y76.872 E9.07908
G1 X34.453 Y75.89 E9.19265
G1 X33.876 Y75.519 E9.23258
G1 X32.507 Y74.551 E9.33017
G1 X31.972 Y74.136 E9.36958
G1 X30.867 Y73.201 E9.45383
G1 X30.368 Y72.741 E9.49333
G1 X29.478 Y71.844 E9.56688
G1 X28.816 Y71.084 E9.62554
G1 X27.537 Y69.409 E9.74821
G1 X27.09 Y68.758 E9.79418
G1 X26.881 Y68.396 E9.81851
G1 X26.248 Y67.23 E9.89573
G1 X25.824 Y66.311 E9.95464
G1 X25.399 Y65.207 E10.02349
G1 X25.095 Y64.233 E10.08288
G1 X24.839 Y63.171 E10.14647
G1 X24.663 Y62.141 E10.20729
G1 X24.556 Y61.1 E10.2682
G1 X24.524 Y59.918 E10.33702
G1 X24.592 Y58.538 E10.41744
G1 X24.671 Y57.752 E10.46342
G1 X24.779 Y57.186 E10.49696
G1 X25.102 Y55.771 E10.58144
G1 X25.316 Y55.011 E10.6274
G1 X25.523 Y54.467 E10.66127
G1 X26.154 Y52.976 E10.75551
G1 X26.498 Y52.265 E10.80148
G1 X26.793 Y51.771 E10.83497
G1 X27.838 Y50.16 E10.94674
G1 X28.436 Y49.356 E11.00506
G1 X29.168 Y48.494 E11.07089
G1 X29.632 Y47.994 E11.11059
G1 X30.545 Y47.092 E11.18529
G1 X31.052 Y46.634 E11.22506
G1 X32.187 Y45.694 E11.31084
G1 X32.728 Y45.284 E11.35035
G0 F3600 X32.956 Y45.613
G1 F1800 X34.36 Y44.643 E11.44967
G1 X35.057 Y44.216 E11.49725
G1 X37.788 Y42.745 E11.6778
G1 X38.509 Y42.405 E11.7242
G1 X40.813 Y41.468 E11.86897
G1 X41.421 Y41.251 E11.90655
G1 X44.149 Y40.41 E12.0727
G1 X44.768 Y40.249 E12.10993
G1 X47.895 Y39.574 E12.29613
G1 X48.375 Y39.486 E12.32454
G1 X50.068 Y39.236 E12.42415
G1 X50.546 Y39.182 E12.45215
G1 X54.105 Y38.891 E12.65999
G1 X54.747 Y38.866 E12.69738
G1 X58.39 Y38.885 E12.90943
G1 X59.035 Y38.917 E12.94702
G1 X62.57 Y39.245 E13.15366
G1 X63.205 Y39.331 E13.19096
G1 X66.468 Y39.922 E13.38397
G1 X67.095 Y40.064 E13.42139
G1 X69.979 Y40.85 E13.59537
G1 X70.594 Y41.047 E13.63296
G1 X73.058 Y41.956 E13.78583
G1 X73.653 Y42.206 E13.82339
G1 X75.708 Y43.175 E13.95564
G1 X76.276 Y43.474 E13.993
G1 X77.59 Y44.24 E14.08153
G1 X77.764 Y44.081 E14.09524
G1 X78.496 Y43.493 E14.14989
G1 X78.915 Y43.198 E14.17972
G1 X79.566 Y42.789 E14.22447
G1 X80.568 Y42.323 E14.28879
G1 X81.527 Y41.962 E14.34843
G1 X82.26 Y41.729 E14.3932
G1 X83.013 Y41.573 E14.43796
G1 X83.711 Y41.5 E14.47881
G1 X84.479 Y41.456 E14.52358
G1 X85.248 Y41.452 E14.56834
G1 X86.013 Y41.528 E14.61309
G1 X86.685 Y41.662 E14.65297
G1 X87.68 Y41.909 E14.71265
G1 X88.416 Y42.133 E14.75743
G1 X89.124 Y42.432 E14.80216
G1 X89.973 Y42.915 E14.85901
G1 X90.826 Y43.478 E14.9185
G1 X91.445 Y43.934 E14.96325
G1 X92.014 Y44.453 E15.00808
G1 X92.671 Y45.215 E15.06664
G1 X93.285 Y46.034 E15.12622
G1 X93.714 Y46.673 E15.17102
G1 X94.074 Y47.352 E15.21575
G1 X94.435 Y48.29 E15.27425
G1 X94.737 Y49.268 E15.33383
G1 X94.925 Y50.013 E15.37855
G1 X95.035 Y50.775 E15.42336
G1 X95.066 Y51.459 E15.46321
G1 X95.047 Y68.682 E16.46568
G1 X95.006 Y69.45 E16.51045
G1 X94.886 Y70.21 E16.55523
G1 X94.716 Y70.864 E16.59456
G1 X94.488 Y71.6 E16.63941
G1 X94.222 Y72.322 E16.6842
G1 X93.883 Y73.012 E16.72894
G1 X93.524 Y73.591 E16.7686
G1 X92.946 Y74.435 E16.82814
G1 X92.48 Y75.046 E16.87286
G1 X91.952 Y75.606 E16.91766
G1 X91.189 Y76.242 E16.97548
G1 X90.36 Y76.844 E17.03511
G1 X89.715 Y77.263 E17.07988
G1 X89.03 Y77.613 E17.12465
G1 X88.404 Y77.859 E17.1638
G1 X87.678 Y78.107 E17.20846
G1 X86.938 Y78.317 E17.25323
G1 X86.181 Y78.45 E17.29796
G1 X85.488 Y78.501 E17.33841
G1 X84.464 Y78.529 E17.39803
G1 X83.695 Y78.51 E17.44281
G1 X82.59 Y78.341 E17.50787
G1 X82.09 Y78.225 E17.53775
G1 X81.35 Y78.012 E17.58257
G1 X80.588 Y77.701 E17.63047
G1 X79.893 Y77.371 E17.67525
G1 X79.216 Y77.005 E17.72005
G1 X78.581 Y76.571 E17.76482
G1 X78.127 Y76.196 E17.79909
G1 X77.622 Y75.743 E17.83858
G1 X74.845 Y77.247 E18.0224
G1 X74.108 Y77.595 E18.06984
G1 X71.804 Y78.532 E18.21461
G1 X71.196 Y78.749 E18.25218
G1 X68.468 Y79.59 E18.41834
G1 X67.849 Y79.751 E18.45557
G1 X64.722 Y80.426 E18.64177
G1 X64.242 Y80.514 E18.67017
G1 X62.549 Y80.764 E18.76978
G1 X62.071 Y80.818 E18.79778
G1 X58.513 Y81.109 E19.00557
G1 X57.871 Y81.134 E19.04296
G1 X54.228 Y81.115 E19.25501
G1 X53.584 Y81.083 E19.29254
G1 X50.048 Y80.755 E19.49923
G1 X49.412 Y80.669 E19.53659
G1 X46.149 Y80.078 E19.7296
G1 X45.522 Y79.936 E19.76702
G1 X42.638 Y79.15 E19.94101
G1 X42.023 Y78.953 E19.9786
G1 X39.559 Y78.044 E20.13146
G1 X38.964 Y77.794 E20.16903
G1 X36.909 Y76.825 E20.30127
G1 X36.341 Y76.526 E20.33863
G1 X34.655 Y75.544 E20.4522
G1 X34.107 Y75.192 E20.49011
G1 X32.738 Y74.224 E20.5877
G1 X32.23 Y73.831 E20.62508
G1 X31.125 Y72.896 E20.70933
G1 X30.652 Y72.459 E20.74682
G1 X29.762 Y71.562 E20.82036
G1 X29.134 Y70.841 E20.87602
G1 X27.855 Y69.166 E20.99868
G1 X27.233 Y68.206 E21.06526
G1 X26.6 Y67.04 E21.14249
G1 X26.197 Y66.168 E21.1984
G1 X25.772 Y65.064 E21.26726
G1 X25.484 Y64.139 E21.32365
G1 X25.228 Y63.077 E21.38723
G1 X25.061 Y62.1 E21.44492
G1 X24.954 Y61.059 E21.50583
G1 X24.924 Y59.938 E21.5711
G1 X24.992 Y58.558 E21.65152
G1 X25.07 Y57.793 E21.69628
G1 X25.169 Y57.275 E21.72698
G1 X25.492 Y55.86 E21.81146
G1 X25.701 Y55.12 E21.85621
G1 X25.891 Y54.623 E21.88718
G1 X26.522 Y53.132 E21.98142
G1 X26.858 Y52.44 E22.02619
G1 X27.129 Y51.989 E22.05682
G1 X28.174 Y50.378 E22.16859
G1 X28.741 Y49.615 E22.22392
G1 X29.473 Y48.753 E22.28974
G1 X29.913 Y48.279 E22.32739
G1 X30.826 Y47.377 E22.40209
G1 X31.307 Y46.942 E22.43983
G1 X32.442 Y46.002 E22.52561
G1 X32.956 Y45.613 E22.56313
G0 F3600 X33.183 Y45.942
G1 F1800 X34.587 Y44.972 E22.66246
G1 X35.246 Y44.568 E22.70745
G1 X37.977 Y43.097 E22.888
G1 X38.66 Y42.776 E22.93193
G1 X40.964 Y41.839 E23.0767
G1 X41.539 Y41.634 E23.11223
G1 X44.267 Y40.793 E23.27839
G1 X44.852 Y40.64 E23.31358
G1 X47.979 Y39.965 E23.49978
G1 X48.433 Y39.882 E23.52665
G1 X50.126 Y39.632 E23.62626
G1 X50.579 Y39.58 E23.6528
G1 X54.138 Y39.289 E23.86064
G1 X54.745 Y39.266 E23.89599
G1 X58.388 Y39.285 E24.10804
G1 X58.998 Y39.315 E24.14359
G1 X62.533 Y39.643 E24.35023
G1 X63.134 Y39.725 E24.38553
G1 X66.397 Y40.316 E24.57855
G1 X66.99 Y40.45 E24.61393
G1 X69.874 Y41.236 E24.78792
G1 X70.456 Y41.423 E24.8235
G1 X72.92 Y42.332 E24.97637
G1 X73.482 Y42.568 E25.01184
G1 X75.537 Y43.537 E25.14409
G1 X76.075 Y43.819 E25.17944
G1 X77.644 Y44.733 E25.28513
G1 X78.034 Y44.376 E25.31591
G1 X78.726 Y43.82 E25.36757
G1 X79.145 Y43.525 E25.3974
G1 X79.779 Y43.128 E25.44094
G1 X80.709 Y42.698 E25.50058
G1 X81.668 Y42.337 E25.56022
G1 X82.381 Y42.111 E25.60376
G1 X83.114 Y41.963 E25.64728
G1 X83.734 Y41.899 E25.68356
G1 X84.502 Y41.855 E25.72833
G1 X85.25 Y41.853 E25.77187
G1 X85.994 Y41.93 E25.81541
G1 X86.589 Y42.05 E25.85074
G1 X87.584 Y42.297 E25.91041
G1 X88.299 Y42.516 E25.95393
G1 X88.987 Y42.81 E25.99748
G1 X89.753 Y43.249 E26.04887
G1 X90.606 Y43.812 E26.10836
G1 X91.207 Y44.257 E26.15189
G1 X91.758 Y44.763 E26.19543
G1 X92.351 Y45.455 E26.24847
G1 X92.965 Y46.274 E26.30805
G1 X93.381 Y46.896 E26.35161
G1 X93.728 Y47.558 E26.39511
G1 X94.052 Y48.408 E26.44806
G1 X94.354 Y49.386 E26.50763
G1 X94.537 Y50.111 E26.55116
G1 X94.64 Y50.852 E26.5947
G1 X94.666 Y51.459 E26.63006
G1 X94.647 Y68.682 E27.63253
G1 X94.606 Y69.429 E27.67608
G1 X94.486 Y70.167 E27.7196
G1 X94.334 Y70.745 E27.75438
G1 X94.106 Y71.481 E27.79923
G1 X93.846 Y72.183 E27.8428
G1 X93.514 Y72.853 E27.88633
G1 X93.194 Y73.365 E27.92147
G1 X92.616 Y74.209 E27.98101
G1 X92.161 Y74.803 E28.02456
G1 X91.646 Y75.345 E28.06808
G1 X90.954 Y75.918 E28.12037
G1 X90.125 Y76.52 E28.18001
G1 X89.497 Y76.927 E28.22356
G1 X88.829 Y77.264 E28.26711
G1 X88.275 Y77.48 E28.30172
G1 X87.549 Y77.728 E28.34638
G1 X86.829 Y77.932 E28.38994
G1 X86.092 Y78.057 E28.43344
G1 X85.477 Y78.101 E28.46933
G1 X84.453 Y78.129 E28.52896
G1 X83.706 Y78.11 E28.57245
G1 X82.68 Y77.951 E28.63288
G1 X82.18 Y77.835 E28.66276
G1 X81.461 Y77.627 E28.70632
G1 X80.76 Y77.339 E28.75043
G1 X80.065 Y77.009 E28.79522
G1 X79.407 Y76.653 E28.83876
G1 X78.791 Y76.228 E28.88232
G1 X78.394 Y75.898 E28.91237
G1 X77.665 Y75.245 E28.96933
G1 X77.447 Y75.382 E28.98432
G1 X74.654 Y76.895 E29.16921
G1 X73.957 Y77.224 E29.21407
G1 X71.653 Y78.161 E29.35884
G1 X71.078 Y78.366 E29.39437
G1 X68.35 Y79.207 E29.56053
G1 X67.765 Y79.36 E29.59572
G1 X64.638 Y80.035 E29.78192
G1 X64.184 Y80.118 E29.80879
G1 X62.491 Y80.368 E29.9084
G1 X62.039 Y80.42 E29.93488
G1 X58.481 Y80.711 E30.14267
G1 X57.873 Y80.734 E30.17808
G1 X54.23 Y80.715 E30.39012
G1 X53.62 Y80.685 E30.42567
G1 X50.084 Y80.357 E30.63237
G1 X49.483 Y80.275 E30.66768
G1 X46.22 Y79.684 E30.86069
G1 X45.627 Y79.55 E30.89608
G1 X42.743 Y78.764 E31.07006
G1 X42.161 Y78.577 E31.10564
G1 X39.697 Y77.668 E31.25851
G1 X39.135 Y77.432 E31.29399
G1 X37.08 Y76.463 E31.42623
G1 X36.542 Y76.181 E31.46158
G1 X34.856 Y75.199 E31.57515
G1 X34.338 Y74.866 E31.61099
G1 X32.969 Y73.898 E31.70858
G1 X32.488 Y73.526 E31.74398
G1 X31.383 Y72.591 E31.82823
G1 X30.936 Y72.177 E31.86369
G1 X30.046 Y71.28 E31.93724
G1 X29.451 Y70.598 E31.98992
G1 X28.172 Y68.923 E32.11259
G1 X27.584 Y68.015 E32.17555
G1 X26.951 Y66.849 E32.25277
G1 X26.57 Y66.024 E32.30567
G1 X26.145 Y64.92 E32.37452
G1 X25.873 Y64.045 E32.42786
G1 X25.617 Y62.983 E32.49144
G1 X25.459 Y62.059 E32.546
G1 X25.352 Y61.018 E32.60691
G1 X25.323 Y59.957 E32.66869
G1 X25.391 Y58.577 E32.74911
G1 X25.468 Y57.833 E32.79265
G1 X25.559 Y57.364 E32.82046
G1 X25.882 Y55.949 E32.90493
G1 X26.087 Y55.23 E32.94845
G1 X26.26 Y54.779 E32.97657
G1 X26.891 Y53.288 E33.0708
G1 X27.218 Y52.615 E33.11435
G1 X27.464 Y52.207 E33.14209
G1 X28.509 Y50.596 E33.25385
G1 X29.046 Y49.874 E33.30623
G1 X29.778 Y49.012 E33.37205
G1 X30.194 Y48.563 E33.40768
G1 X31.107 Y47.661 E33.48238
G1 X31.562 Y47.25 E33.51807
G1 X32.697 Y46.31 E33.60384
G1 X33.183 Y45.942 E33.63933
G0 F3600 X33.41 Y46.271
G1 F1800 X34.814 Y45.301 E33.73865
G1 X35.436 Y44.92 E33.78111
G1 X38.167 Y43.449 E33.96166
G1 X38.811 Y43.146 E34.00309
G1 X41.115 Y42.209 E34.14786
G1 X41.657 Y42.016 E34.18134
G1 X44.385 Y41.175 E34.3475
G1 X44.936 Y41.031 E34.38065
G1 X48.063 Y40.356 E34.56685
G1 X48.492 Y40.278 E34.59223
G1 X50.185 Y40.028 E34.69184
G1 X50.611 Y39.979 E34.7168
G1 X54.17 Y39.688 E34.92464
G1 X54.742 Y39.666 E34.95796
G1 X58.385 Y39.685 E35.17001
G1 X58.961 Y39.713 E35.20357
G1 X62.496 Y40.041 E35.41021
G1 X63.062 Y40.119 E35.44347
G1 X66.325 Y40.71 E35.63648
G1 X66.884 Y40.836 E35.66983
G1 X69.768 Y41.622 E35.84382
G1 X70.317 Y41.798 E35.87738
G1 X72.781 Y42.707 E36.03024
G1 X73.312 Y42.929 E36.06374
G1 X75.367 Y43.898 E36.19598
G1 X75.874 Y44.165 E36.22934
G1 X77.56 Y45.147 E36.3429
G1 X77.691 Y45.232 E36.35199
G1 X78.304 Y44.672 E36.40032
G1 X78.956 Y44.147 E36.44904
G1 X79.375 Y43.852 E36.47887
G1 X79.992 Y43.468 E36.52117
G1 X80.85 Y43.072 E36.57617
G1 X81.809 Y42.711 E36.63581
G1 X82.502 Y42.493 E36.6781
G1 X83.214 Y42.352 E36.72034
G1 X83.756 Y42.299 E36.75204
G1 X84.524 Y42.255 E36.79682
G1 X85.251 Y42.253 E36.83913
G1 X85.973 Y42.331 E36.8814
G1 X86.492 Y42.438 E36.91224
G1 X87.487 Y42.685 E36.97192
G1 X88.181 Y42.899 E37.01419
G1 X88.848 Y43.187 E37.05648
G1 X89.533 Y43.583 E37.10253
G1 X90.386 Y44.146 E37.16202
G1 X90.969 Y44.579 E37.20429
G1 X91.501 Y45.073 E37.24654
G1 X92.031 Y45.695 E37.29411
G1 X92.645 Y46.514 E37.35369
G1 X93.048 Y47.118 E37.39595
G1 X93.382 Y47.763 E37.43823
G1 X93.67 Y48.526 E37.48569
G1 X93.972 Y49.504 E37.54527
G1 X94.148 Y50.208 E37.58751
G1 X94.245 Y50.928 E37.6298
G1 X94.266 Y51.458 E37.66067
G1 X94.247 Y68.681 E38.66314
G1 X94.206 Y69.406 E38.7054
G1 X94.086 Y70.123 E38.74772
G1 X93.951 Y70.627 E38.77809
G1 X93.723 Y71.363 E38.82293
G1 X93.471 Y72.044 E38.8652
G1 X93.145 Y72.693 E38.90747
G1 X92.864 Y73.139 E38.93815
G1 X92.286 Y73.983 E38.9977
G1 X91.844 Y74.559 E39.03996
G1 X91.34 Y75.083 E39.08227
G1 X90.719 Y75.594 E39.12908
G1 X89.89 Y76.196 E39.18872
G1 X89.28 Y76.59 E39.23098
G1 X88.63 Y76.915 E39.27328
G1 X88.146 Y77.102 E39.30348
G1 X87.42 Y77.35 E39.34814
G1 X86.72 Y77.546 E39.39045
G1 X86.004 Y77.665 E39.43269
G1 X85.466 Y77.702 E39.46408
G1 X84.442 Y77.73 E39.52371
G1 X83.716 Y77.709 E39.56598
G1 X82.77 Y77.561 E39.62171
G1 X82.27 Y77.445 E39.65159
G1 X81.573 Y77.242 E39.69384
G1 X80.931 Y76.978 E39.73425
G1 X80.236 Y76.648 E39.77903
G1 X79.598 Y76.301 E39.8213
G1 X79.002 Y75.886 E39.86357
G1 X78.661 Y75.6 E39.88948
G1 X77.709 Y74.746 E39.96392
G1 X77.257 Y75.03 E39.99499
G1 X74.464 Y76.543 E40.17988
G1 X73.806 Y76.854 E40.22224
G1 X71.502 Y77.791 E40.36701
G1 X70.96 Y77.984 E40.4005
G1 X68.232 Y78.825 E40.56665
G1 X67.681 Y78.969 E40.5998
G1 X64.554 Y79.644 E40.786
G1 X64.125 Y79.722 E40.81138
G1 X62.432 Y79.972 E40.91099
G1 X62.006 Y80.021 E40.93595
G1 X58.448 Y80.312 E41.14374
G1 X57.876 Y80.334 E41.17705
G1 X54.233 Y80.315 E41.3891
G1 X53.657 Y80.287 E41.42266
G1 X50.121 Y79.959 E41.62936
G1 X49.555 Y79.881 E41.66262
