;FLAVOR:RepRap
;TIME:3670
;Filament used: 4.06889m
;Layer height: 0.2
;Generated with Cura_SteamEngine master
M190 S60
M104 S195
M109 S195
G28 ;Home
G1 Z15.0 F6000 ;Move the platform down 15mm
;Prime the extruder
G92 E0
G1 F200 E3
G92 E0
;LAYER_COUNT:437
;LAYER:0
M107
G1 F1500 E-6.5
G0 F3600 X42.191 Y51.32 Z0.35
;TYPE:SKIRT
G1 F1500 E0
G1 F1800 X42.844 Y50.876 E0.04596
G1 X43.699 Y50.426 E0.1022
G1 X44.144 Y50.226 E0.1306
G1 X44.88 Y49.939 E0.17658
G1 X45.641 Y49.728 E0.22254
G1 X46.42 Y49.595 E0.26854
G1 X47.353 Y49.54 E0.32294
G1 X71.091 Y49.572 E1.70462
G1 X71.879 Y49.613 E1.75054
G1 X72.66 Y49.734 E1.79655
G1 X73.424 Y49.932 E1.84248
G1 X74.164 Y50.208 E1.88845
G1 X74.873 Y50.556 E1.93442
G1 X75.542 Y50.975 E1.98037
G1 X75.897 Y51.237 E2.00605
G1 X76.26 Y51.522 E2.03291
G1 X76.855 Y52.04 E2.07883
G1 X77.396 Y52.616 E2.12483
G1 X77.875 Y53.244 E2.1708
G1 X78.288 Y53.917 E2.21676
G1 X78.631 Y54.628 E2.26271
G1 X78.953 Y55.549 E2.3195
G1 X79.049 Y55.891 E2.34017
G1 X79.223 Y56.661 E2.38612
G1 X79.319 Y57.445 E2.43209
G1 X79.339 Y58.024 E2.46581
G1 X79.326 Y62.15 E2.70597
G1 X79.284 Y62.938 E2.7519
G1 X79.162 Y63.718 E2.79785
G1 X78.961 Y64.482 E2.84383
G1 X78.685 Y65.222 E2.8898
G1 X78.335 Y65.93 E2.93577
G1 X78.081 Y66.353 E2.96449
G1 X77.812 Y66.77 E2.99338
G1 X77.35 Y67.411 E3.03937
G1 X76.827 Y68.002 E3.0853
G1 X76.246 Y68.538 E3.13131
G1 X75.614 Y69.011 E3.17726
G1 X74.938 Y69.419 E3.22322
G1 X74.455 Y69.656 E3.25453
G1 X74.237 Y69.754 E3.26844
G1 X73.501 Y70.041 E3.31442
G1 X72.74 Y70.252 E3.36039
G1 X71.962 Y70.385 E3.40633
G1 X71.046 Y70.44 E3.45974
G1 X47.349 Y70.46 E4.83903
G1 X46.56 Y70.421 E4.88501
G1 X45.779 Y70.302 E4.931
G1 X45.263 Y70.178 E4.96188
G1 X44.981 Y70.1 E4.97891
G1 X44.231 Y69.851 E5.02491
G1 X43.511 Y69.528 E5.07084
G1 X42.827 Y69.133 E5.11682
G1 X42.186 Y68.672 E5.16277
G1 X41.595 Y68.148 E5.20875
G1 X41.302 Y67.844 E5.23332
G1 X41.005 Y67.519 E5.25895
G1 X40.503 Y66.91 E5.30488
G1 X40.064 Y66.253 E5.35088
G1 X39.695 Y65.555 E5.39683
G1 X39.397 Y64.823 E5.44283
G1 X39.176 Y64.066 E5.48873
G1 X39.032 Y63.289 E5.53473
G1 X38.964 Y62.35 E5.58953
G1 X38.913 Y58.051 E5.83977
G1 X38.943 Y57.261 E5.88578
G1 X39.053 Y56.479 E5.93175
G1 X39.242 Y55.713 E5.97767
G1 X39.579 Y54.801 E6.03426
G1 X39.764 Y54.383 E6.06087
G1 X40.12 Y53.678 E6.10684
G1 X40.545 Y53.013 E6.15277
G1 X41.036 Y52.394 E6.19876
G1 X41.586 Y51.827 E6.24474
G1 X42.191 Y51.32 E6.29068
G0 F3600 X42.512 Y51.579
G1 F1800 X43.155 Y51.156 E6.33548
G1 X43.863 Y50.79 E6.38187
G1 X44.308 Y50.59 E6.41027
G1 X45.025 Y50.312 E6.45503
G1 X45.767 Y50.109 E6.49981
G1 X46.527 Y49.985 E6.54463
G1 X47.352 Y49.94 E6.59272
G1 X71.09 Y49.972 E7.97439
G1 X71.858 Y50.013 E8.01916
G1 X72.618 Y50.134 E8.06395
G1 X73.361 Y50.332 E8.10871
G1 X74.079 Y50.607 E8.15346
G1 X74.765 Y50.955 E8.19823
G1 X75.65 Y51.552 E8.26037
G1 X76.013 Y51.837 E8.28723
G1 X76.592 Y52.342 E8.33195
G1 X77.116 Y52.906 E8.37676
G1 X77.579 Y53.52 E8.42152
G1 X77.975 Y54.179 E8.46627
G1 X78.301 Y54.876 E8.51106
G1 X78.568 Y55.657 E8.5591
G1 X78.664 Y55.999 E8.57977
G1 X78.833 Y56.749 E8.62452
G1 X78.923 Y57.513 E8.6693
G1 X78.939 Y58.022 E8.69894
G1 X78.926 Y62.148 E8.9391
G1 X78.884 Y62.916 E8.98386
G1 X78.762 Y63.676 E9.02867
G1 X78.562 Y64.418 E9.0734
G1 X78.286 Y65.136 E9.11817
G1 X77.744 Y66.136 E9.18437
G1 X77.475 Y66.553 E9.21326
G1 X77.025 Y67.177 E9.25804
G1 X76.513 Y67.751 E9.30281
G1 X75.944 Y68.268 E9.34755
G1 X75.324 Y68.724 E9.39235
G1 X74.661 Y69.113 E9.43709
G1 X74.291 Y69.291 E9.46099
G1 X74.073 Y69.389 E9.4749
G1 X73.356 Y69.668 E9.51968
G1 X72.614 Y69.87 E9.56444
G1 X71.855 Y69.995 E9.60922
G1 X71.045 Y70.04 E9.65644
G1 X47.348 Y70.06 E11.03573
G1 X46.58 Y70.021 E11.08049
G1 X45.82 Y69.902 E11.12526
G1 X45.369 Y69.792 E11.15228
G1 X45.087 Y69.714 E11.16931
G1 X44.358 Y69.471 E11.21404
G1 X43.657 Y69.153 E11.25884
G1 X42.993 Y68.764 E11.30363
G1 X42.374 Y68.309 E11.34835
G1 X41.597 Y67.574 E11.4106
G1 X41.3 Y67.249 E11.43623
G1 X40.812 Y66.655 E11.48097
G1 X40.387 Y66.014 E11.52574
G1 X40.032 Y65.331 E11.57054
G1 X39.749 Y64.616 E11.6153
G1 X39.542 Y63.875 E11.66008
G1 X39.413 Y63.117 E11.70484
G1 X39.364 Y62.345 E11.74986
G1 X39.313 Y58.046 E12.0001
G1 X39.343 Y57.277 E12.0449
G1 X39.454 Y56.516 E12.08966
G1 X39.643 Y55.77 E12.13445
G1 X39.945 Y54.963 E12.18461
G1 X40.13 Y54.545 E12.21121
G1 X40.478 Y53.859 E12.25598
G1 X40.894 Y53.212 E12.30076
G1 X41.376 Y52.613 E12.34551
G1 X41.917 Y52.066 E12.39029
G1 X42.512 Y51.579 E12.43504
G0 F3600 X42.832 Y51.841
G1 F1800 X43.464 Y51.44 E12.47861
G1 X44.027 Y51.155 E12.51533
G1 X44.472 Y50.955 E12.54373
G1 X45.17 Y50.685 E12.58729
G1 X45.893 Y50.492 E12.63085
G1 X46.632 Y50.376 E12.67439
G1 X47.351 Y50.34 E12.71629
G1 X71.089 Y50.372 E14.09797
G1 X71.836 Y50.413 E14.14151
G1 X72.575 Y50.533 E14.18509
G1 X73.296 Y50.732 E14.22862
G1 X73.992 Y51.006 E14.27216
G1 X74.655 Y51.353 E14.31572
G1 X75.403 Y51.866 E14.36851
G1 X75.766 Y52.151 E14.39537
G1 X76.329 Y52.644 E14.43893
G1 X76.836 Y53.194 E14.48247
G1 X77.281 Y53.795 E14.526
G1 X77.66 Y54.44 E14.56954
G1 X77.968 Y55.122 E14.6131
G1 X78.183 Y55.765 E14.65256
G1 X78.279 Y56.107 E14.67323
G1 X78.442 Y56.837 E14.71677
G1 X78.526 Y57.58 E14.76029
G1 X78.539 Y58.021 E14.78597
G1 X78.526 Y62.147 E15.02613
G1 X78.484 Y62.894 E15.06968
G1 X78.362 Y63.632 E15.11322
G1 X78.162 Y64.353 E15.15677
G1 X77.886 Y65.048 E15.20029
G1 X77.408 Y65.92 E15.25817
G1 X77.139 Y66.337 E15.28706
G1 X76.701 Y66.943 E15.33058
G1 X76.2 Y67.498 E15.3741
G1 X75.643 Y67.998 E15.41766
G1 X75.036 Y68.434 E15.46116
G1 X74.127 Y68.927 E15.52135
G1 X73.909 Y69.025 E15.53526
G1 X73.211 Y69.294 E15.5788
G1 X72.489 Y69.488 E15.62232
G1 X71.75 Y69.604 E15.66586
G1 X71.045 Y69.64 E15.70695
G1 X47.348 Y69.66 E17.08624
G1 X46.601 Y69.621 E17.12977
G1 X45.862 Y69.502 E17.17334
G1 X45.476 Y69.407 E17.19648
G1 X45.194 Y69.329 E17.21351
G1 X44.485 Y69.091 E17.25704
G1 X43.805 Y68.779 E17.30059
G1 X43.162 Y68.396 E17.34415
G1 X42.564 Y67.947 E17.38768
G1 X41.893 Y67.304 E17.44177
G1 X41.596 Y66.979 E17.46739
G1 X41.121 Y66.401 E17.51094
G1 X40.711 Y65.775 E17.5545
G1 X40.37 Y65.109 E17.59805
G1 X40.103 Y64.411 E17.64154
G1 X39.911 Y63.688 E17.68509
G1 X39.797 Y62.948 E17.72867
G1 X39.763 Y62.34 E17.76411
G1 X39.712 Y58.041 E18.01435
G1 X39.744 Y57.294 E18.05787
G1 X39.854 Y56.554 E18.10142
G1 X40.043 Y55.83 E18.14497
G1 X40.311 Y55.125 E18.18887
G1 X40.496 Y54.707 E18.21547
G1 X40.835 Y54.04 E18.25902
G1 X41.243 Y53.413 E18.30256
G1 X41.716 Y52.833 E18.34613
G1 X42.247 Y52.307 E18.38963
G1 X42.832 Y51.841 E18.43316
G0 F3600 X43.151 Y52.106
G1 F1800 X43.771 Y51.727 E18.47546
G1 X44.191 Y51.52 E18.50271
G1 X44.636 Y51.32 E18.53111
G1 X45.314 Y51.059 E18.5734
G1 X46.017 Y50.874 E18.61571
G1 X46.735 Y50.768 E18.65795
G1 X47.351 Y50.74 E18.69384
G1 X71.089 Y50.772 E20.07552
G1 X71.814 Y50.813 E20.11779
G1 X72.53 Y50.933 E20.16004
G1 X73.229 Y51.132 E20.20234
G1 X73.902 Y51.406 E20.24464
G1 X74.54 Y51.752 E20.28688
G1 X75.156 Y52.181 E20.33058
G1 X75.519 Y52.466 E20.35744
G1 X76.064 Y52.945 E20.39967
G1 X76.554 Y53.482 E20.44198
G1 X76.982 Y54.068 E20.48422
G1 X77.343 Y54.699 E20.52653
G1 X77.632 Y55.365 E20.56879
G1 X77.797 Y55.873 E20.59988
G1 X77.893 Y56.215 E20.62056
G1 X78.051 Y56.924 E20.66284
G1 X78.13 Y57.646 E20.70511
G1 X78.139 Y58.02 E20.72689
G1 X78.126 Y62.146 E20.96704
G1 X78.084 Y62.871 E21.00931
G1 X77.962 Y63.587 E21.05159
G1 X77.762 Y64.285 E21.09385
G1 X77.487 Y64.958 E21.13617
G1 X77.072 Y65.703 E21.1858
G1 X76.803 Y66.12 E21.21469
G1 X76.376 Y66.708 E21.25698
G1 X75.888 Y67.245 E21.29922
G1 X75.343 Y67.725 E21.34149
G1 X74.749 Y68.143 E21.38376
G1 X73.963 Y68.562 E21.43561
G1 X73.745 Y68.66 E21.44952
G1 X73.067 Y68.921 E21.49181
G1 X72.365 Y69.105 E21.53405
G1 X71.646 Y69.212 E21.57636
G1 X71.045 Y69.24 E21.61138
G1 X47.348 Y69.26 E22.99067
G1 X46.622 Y69.221 E23.03298
G1 X45.583 Y69.021 E23.09457
G1 X45.301 Y68.943 E23.1116
G1 X44.612 Y68.711 E23.15392
G1 X43.953 Y68.405 E23.19621
G1 X43.332 Y68.029 E23.23846
G1 X42.756 Y67.586 E23.28076
G1 X42.188 Y67.034 E23.32686
G1 X41.891 Y66.709 E23.35248
G1 X41.431 Y66.147 E23.39475
G1 X41.036 Y65.538 E23.437
G1 X40.71 Y64.888 E23.47933
G1 X40.458 Y64.207 E23.52159
G1 X40.282 Y63.503 E23.56383
G1 X40.184 Y62.783 E23.60613
G1 X40.163 Y62.335 E23.63223
G1 X40.112 Y58.036 E23.88247
G1 X40.144 Y57.311 E23.92471
G1 X40.255 Y56.593 E23.967
G1 X40.444 Y55.891 E24.00932
G1 X40.677 Y55.287 E24.047
G1 X40.862 Y54.869 E24.0736
G1 X41.192 Y54.222 E24.11588
G1 X41.591 Y53.615 E24.15816
G1 X42.054 Y53.056 E24.2004
G1 X42.576 Y52.551 E24.24268
G1 X43.151 Y52.106 E24.285
G0 F3600 X43.468 Y52.375
G1 F1800 X44.355 Y51.885 E24.34398
G1 X44.8 Y51.685 E24.37238
G1 X45.458 Y51.433 E24.41339
G1 X46.14 Y51.258 E24.45437
G1 X46.837 Y51.161 E24.49533
G1 X47.35 Y51.14 E24.52522
G1 X71.088 Y51.172 E25.90689
G1 X71.791 Y51.213 E25.94788
G1 X72.485 Y51.333 E25.98888
G1 X73.16 Y51.531 E26.02982
G1 X73.809 Y51.805 E26.07082
G1 X74.423 Y52.15 E26.11182
G1 X74.909 Y52.495 E26.14651
G1 X75.272 Y52.78 E26.17337
G1 X75.8 Y53.246 E26.21436
G1 X76.272 Y53.768 E26.25532
G1 X76.682 Y54.341 E26.29633
G1 X77.024 Y54.956 E26.33729
G1 X77.294 Y55.606 E26.37826
G1 X77.412 Y55.981 E26.40114
G1 X77.508 Y56.323 E26.42182
G1 X77.66 Y57.011 E26.46283
G1 X77.739 Y58.019 E26.52168
G1 X77.726 Y62.145 E26.76183
G1 X77.684 Y62.847 E26.80277
G1 X77.562 Y63.541 E26.84378
G1 X77.363 Y64.216 E26.88474
G1 X77.088 Y64.864 E26.92571
G1 X76.736 Y65.486 E26.96731
G1 X76.467 Y65.903 E26.9962
G1 X76.052 Y66.472 E27.03719
G1 X75.576 Y66.99 E27.07813
G1 X75.044 Y67.451 E27.11911
G1 X74.463 Y67.849 E27.1601
G1 X73.799 Y68.197 E27.20373
G1 X73.581 Y68.295 E27.21765
G1 X72.924 Y68.547 E27.2586
G1 X72.242 Y68.722 E27.29958
G1 X71.545 Y68.819 E27.34054
G1 X71.044 Y68.84 E27.36973
G1 X47.347 Y68.86 E28.74902
G1 X46.644 Y68.821 E28.79
G1 X45.689 Y68.636 E28.84662
G1 X45.407 Y68.558 E28.86365
G1 X44.74 Y68.332 E28.90464
G1 X44.104 Y68.032 E28.94557
G1 X43.505 Y67.661 E28.98658
G1 X42.952 Y67.226 E29.02754
G1 X42.483 Y66.764 E29.06585
G1 X42.186 Y66.439 E29.09148
G1 X41.742 Y65.894 E29.1324
G1 X41.362 Y65.301 E29.17339
G1 X41.051 Y64.669 E29.21439
G1 X40.815 Y64.006 E29.25535
G1 X40.655 Y63.32 E29.29635
G1 X40.563 Y62.331 E29.35416
G1 X40.512 Y58.032 E29.60441
G1 X40.544 Y57.328 E29.64543
G1 X40.655 Y56.633 E29.68639
G1 X40.844 Y55.955 E29.72736
G1 X41.042 Y55.449 E29.75899
G1 X41.227 Y55.031 E29.78559
G1 X41.548 Y54.404 E29.82659
G1 X41.938 Y53.818 E29.86756
G1 X42.392 Y53.28 E29.90854
G1 X42.904 Y52.797 E29.94951
G1 X43.468 Y52.375 E29.99051
G0 F3600 X43.783 Y52.647
G1 F1800 X44.519 Y52.25 E30.03918
G1 X44.964 Y52.05 E30.06758
G1 X45.601 Y51.808 E30.10724
G1 X46.261 Y51.642 E30.14685
G1 X46.936 Y51.554 E30.18647
G1 X47.35 Y51.54 E30.21058
G1 X71.088 Y51.572 E31.59226
G1 X71.767 Y51.613 E31.63185
G1 X72.438 Y51.733 E31.67153
G1 X73.089 Y51.931 E31.71113
G1 X73.713 Y52.204 E31.75078
G1 X74.3 Y52.548 E31.79038
G1 X74.662 Y52.81 E31.81639
G1 X75.025 Y53.095 E31.84325
G1 X75.535 Y53.546 E31.88288
G1 X75.988 Y54.054 E31.92249
G1 X76.379 Y54.612 E31.96215
G1 X76.702 Y55.211 E32.00176
G1 X77.027 Y56.09 E32.05631
G1 X77.123 Y56.432 E32.07699
G1 X77.268 Y57.097 E32.1166
G1 X77.339 Y58.017 E32.17031
G1 X77.326 Y62.143 E32.41047
G1 X77.284 Y62.823 E32.45012
G1 X77.162 Y63.493 E32.48976
G1 X76.963 Y64.144 E32.52938
G1 X76.689 Y64.767 E32.569
G1 X76.4 Y65.269 E32.60271
G1 X76.131 Y65.686 E32.6316
G1 X75.729 Y66.236 E32.67125
G1 X75.265 Y66.734 E32.71087
G1 X74.746 Y67.175 E32.75051
G1 X74.179 Y67.552 E32.79014
G1 X73.635 Y67.832 E32.82575
G1 X73.417 Y67.93 E32.83966
G1 X72.781 Y68.172 E32.87927
G1 X72.12 Y68.338 E32.91894
G1 X71.445 Y68.426 E32.95856
G1 X71.044 Y68.44 E32.98191
G1 X47.347 Y68.46 E34.3612
G1 X46.667 Y68.421 E34.40085
G1 X45.796 Y68.25 E34.45251
G1 X45.514 Y68.172 E34.46954
G1 X44.869 Y67.952 E34.50921
G1 X44.255 Y67.659 E34.54881
G1 X43.679 Y67.295 E34.58847
G1 X43.15 Y66.866 E34.62811
G1 X42.778 Y66.495 E34.65869
G1 X42.481 Y66.17 E34.68432
G1 X42.052 Y65.641 E34.72396
G1 X41.688 Y65.066 E34.76357
G1 X41.394 Y64.452 E34.80319
G1 X41.174 Y63.807 E34.84286
G1 X41.031 Y63.142 E34.88245
G1 X40.963 Y62.326 E34.93011
G1 X40.912 Y58.027 E35.18035
G1 X40.944 Y57.347 E35.21998
G1 X41.056 Y56.675 E35.25963
G1 X41.245 Y56.021 E35.29925
G1 X41.408 Y55.611 E35.32493
G1 X41.593 Y55.193 E35.35154
G1 X41.905 Y54.587 E35.39121
G1 X42.285 Y54.023 E35.4308
G1 X42.729 Y53.506 E35.47046
G1 X43.231 Y53.046 E35.51009
G1 X43.783 Y52.647 E35.54974
G0 F3600 X44.095 Y52.924
G1 F1800 X44.683 Y52.615 E35.5884
G1 X45.128 Y52.415 E35.6168
G1 X45.743 Y52.182 E35.65508
G1 X46.381 Y52.026 E35.69331
G1 X47.349 Y51.94 E35.74987
G1 X71.087 Y51.972 E37.13155
G1 X71.743 Y52.013 E37.1698
G1 X72.389 Y52.133 E37.20805
G1 X73.015 Y52.331 E37.24626
G1 X73.613 Y52.603 E37.2845
G1 X74.415 Y53.125 E37.3402
G1 X74.778 Y53.41 E37.36706
G1 X75.269 Y53.846 E37.40528
G1 X75.703 Y54.339 E37.44351
G1 X76.075 Y54.881 E37.48177
G1 X76.378 Y55.464 E37.52002
G1 X76.642 Y56.198 E37.56542
G1 X76.738 Y56.54 E37.5861
G1 X76.877 Y57.182 E37.62433
G1 X76.939 Y58.016 E37.67301
G1 X76.926 Y62.142 E37.91316
G1 X76.884 Y62.798 E37.95142
G1 X76.763 Y63.443 E37.98962
G1 X76.564 Y64.069 E38.02785
G1 X76.29 Y64.667 E38.06614
G1 X76.064 Y65.052 E38.09212
G1 X75.795 Y65.469 E38.12101
G1 X75.406 Y65.999 E38.15927
G1 X74.955 Y66.477 E38.19753
G1 X74.45 Y66.897 E38.23576
G1 X73.898 Y67.252 E38.27396
G1 X73.471 Y67.467 E38.30178
G1 X73.253 Y67.565 E38.31569
G1 X72.639 Y67.798 E38.35392
G1 X72 Y67.954 E38.39221
G1 X71.044 Y68.04 E38.44807
G1 X47.347 Y68.06 E39.82736
G1 X46.691 Y68.021 E39.86561
G1 X45.902 Y67.865 E39.91243
G1 X45.62 Y67.787 E39.92946
G1 X44.999 Y67.573 E39.96769
G1 X44.408 Y67.286 E40.00593
G1 X43.857 Y66.929 E40.04414
G1 X43.352 Y66.508 E40.08241
G1 X43.074 Y66.225 E40.1055
G1 X42.777 Y65.9 E40.13113
G1 X42.364 Y65.389 E40.16937
G1 X42.016 Y64.831 E40.20765
G1 X41.739 Y64.236 E40.24585
G1 X41.536 Y63.611 E40.2841
G1 X41.41 Y62.966 E40.32235
G1 X41.363 Y62.321 E40.35999
G1 X41.312 Y58.022 E40.61023
G1 X41.345 Y57.366 E40.64846
G1 X41.456 Y56.718 E40.68673
G1 X41.646 Y56.089 E40.72498
G1 X41.774 Y55.773 E40.74482
G1 X41.959 Y55.355 E40.77143
G1 X42.261 Y54.771 E40.80969
G1 X42.632 Y54.229 E40.84792
G1 X43.065 Y53.735 E40.88616
G1 X43.556 Y53.298 E40.92442
G1 X44.095 Y52.924 E40.9626
G0 F3600 X44.847 Y52.979
G1 F1800 X45.292 Y52.779 E40.991
G1 X45.884 Y52.557 E41.0278
G1 X46.499 Y52.412 E41.06458
G1 X47.349 Y52.34 E41.11423
G1 X71.087 Y52.372 E42.49591
G1 X71.718 Y52.413 E42.53271
G1 X72.338 Y52.533 E42.56947
G1 X72.939 Y52.73 E42.60628
G1 X73.51 Y53.002 E42.6431
G1 X74.168 Y53.439 E42.68907
G1 X74.531 Y53.724 E42.71593
G1 X75.002 Y54.145 E42.7527
G1 X75.417 Y54.622 E42.78951
G1 X75.768 Y55.148 E42.82631
G1 X76.05 Y55.714 E42.86312
G1 X76.257 Y56.306 E42.89962
G1 X76.353 Y56.648 E42.9203
G1 X76.485 Y57.266 E42.95708
G1 X76.539 Y58.015 E43.00079
G1 X76.526 Y62.141 E43.24094
G1 X76.484 Y62.771 E43.2777
G1 X76.363 Y63.392 E43.31452
G1 X76.164 Y63.992 E43.35131
G1 X75.892 Y64.562 E43.38807
G1 X75.728 Y64.835 E43.40661
G1 X75.459 Y65.252 E43.4355
G1 X75.083 Y65.761 E43.47233
G1 X74.646 Y66.218 E43.50913
G1 X74.155 Y66.616 E43.54592
G1 X73.618 Y66.949 E43.5827
G1 X73.307 Y67.102 E43.60287
G1 X73.089 Y67.2 E43.61678
G1 X72.497 Y67.423 E43.65361
G1 X71.882 Y67.568 E43.69038
G1 X71.043 Y67.64 E43.7394
G1 X47.346 Y67.66 E45.11869
G1 X46.715 Y67.621 E45.15548
G1 X46.009 Y67.479 E45.1974
G1 X45.727 Y67.401 E45.21443
G1 X45.13 Y67.194 E45.25121
G1 X44.563 Y66.914 E45.28802
G1 X44.037 Y66.564 E45.32479
G1 X43.369 Y65.955 E45.3774
G1 X43.072 Y65.63 E45.40303
G1 X42.676 Y65.137 E45.43984
G1 X42.345 Y64.599 E45.4766
G1 X42.085 Y64.022 E45.51344
G1 X41.9 Y63.418 E45.55021
G1 X41.792 Y62.795 E45.58701
G1 X41.763 Y62.316 E45.61494
G1 X41.712 Y58.017 E45.86518
G1 X41.745 Y57.386 E45.90196
G1 X41.857 Y56.764 E45.93875
G1 X42.14 Y55.934 E45.98979
G1 X42.325 Y55.516 E46.01639
G1 X42.617 Y54.956 E46.05315
G1 X42.977 Y54.436 E46.08997
G1 X43.4 Y53.966 E46.12677
G1 X43.879 Y53.554 E46.16355
