;FLAVOR:RepRap
;TIME:2077
;Filament used: 2.21188m
;Layer height: 0.2
;Generated with Cura_SteamEngine master
M190 S60
M104 S195
M109 S195
G28 ;Home
G1 Z15.0 F6000 ;Move the platform down 15mm
;Prime the extruder
G92 E0
G1 F200 E3
G92 E0
;LAYER_COUNT:24
;LAYER:0
M107
G1 F1500 E-6.5
G0 F3600 X31.483 Y20.147 Z0.35
;TYPE:SKIRT
G1 F1500 E0
G1 F1800 X32.069 Y19.618 E0.04595
G1 X32.705 Y19.151 E0.09188
G1 X33.386 Y18.75 E0.13788
G1 X34.103 Y18.42 E0.18382
G1 X34.85 Y18.164 E0.22978
G1 X35.62 Y17.986 E0.27578
G1 X36.403 Y17.886 E0.32172
G1 X37.192 Y17.865 E0.36766
G1 X37.98 Y17.925 E0.41366
G1 X38.757 Y18.064 E0.45961
G1 X39.516 Y18.281 E0.50555
G1 X40.25 Y18.573 E0.55153
G1 X40.95 Y18.938 E0.59748
G1 X41.61 Y19.372 E0.64346
G1 X42.222 Y19.871 E0.68942
G1 X42.781 Y20.429 E0.73539
G1 X43.177 Y20.903 E0.77134
G1 X48.699 Y28.071 E1.29801
G1 X56.715 Y37.717 E2.02802
G1 X63.511 Y45.283 E2.61997
G1 X71.413 Y53.46 E3.28183
G1 X79.599 Y61.295 E3.94137
G1 X88.141 Y68.863 E4.60563
G1 X96.417 Y75.659 E5.22893
G1 X97.001 Y76.19 E5.27487
G1 X97.529 Y76.778 E5.32087
G1 X97.994 Y77.416 E5.36682
G1 X98.856 Y78.734 E5.45849
G1 X99.826 Y79.992 E5.55095
G1 X100.824 Y81.084 E5.63706
G1 X102.63 Y82.683 E5.77746
G1 X104.933 Y84.259 E5.93988
G1 X105.561 Y84.737 E5.98582
G1 X106.138 Y85.277 E6.03182
G1 X106.657 Y85.872 E6.07777
G1 X107.114 Y86.516 E6.12374
G1 X107.502 Y87.203 E6.16966
G1 X107.82 Y87.927 E6.21569
G1 X108.062 Y88.678 E6.26161
G1 X108.228 Y89.45 E6.30758
G1 X108.314 Y90.235 E6.35354
G1 X108.321 Y91.025 E6.39952
G1 X108.248 Y91.811 E6.44547
G1 X108.096 Y92.586 E6.49144
G1 X107.866 Y93.341 E6.53738
G1 X107.561 Y94.07 E6.58337
G1 X107.183 Y94.764 E6.62937
G1 X106.738 Y95.416 E6.67532
G1 X106.229 Y96.019 E6.72125
G1 X105.662 Y96.569 E6.76722
G1 X105.041 Y97.058 E6.81323
G1 X104.375 Y97.481 E6.85915
G1 X103.669 Y97.835 E6.90512
G1 X102.931 Y98.117 E6.95111
G1 X102.169 Y98.321 E6.99702
G1 X101.389 Y98.448 E7.04302
G1 X100.601 Y98.496 E7.08897
G1 X100.016 Y98.479 E7.12304
G1 X97.493 Y98.313 E7.2702
G1 X96.98 Y98.262 E7.30021
G1 X92.611 Y97.683 E7.55673
G1 X91.943 Y97.565 E7.59622
G1 X87.395 Y96.554 E7.8674
G1 X86.775 Y96.389 E7.90474
G1 X83.085 Y95.243 E8.12964
G1 X82.635 Y95.088 E8.15734
G1 X80.301 Y94.204 E8.30261
G1 X79.975 Y94.072 E8.32308
G1 X77.951 Y93.199 E8.45138
G1 X77.523 Y92.999 E8.47887
G1 X73.849 Y91.143 E8.71846
G1 X73.384 Y90.888 E8.74933
G1 X70.886 Y89.405 E8.91841
G1 X70.471 Y89.141 E8.94704
G1 X67.41 Y87.052 E9.16275
G1 X66.949 Y86.712 E9.19609
G1 X63.865 Y84.257 E9.42552
G1 X63.486 Y83.934 E9.45451
G1 X61.507 Y82.141 E9.60994
G1 X61.126 Y81.772 E9.64081
G1 X58.068 Y78.597 E9.89739
G1 X57.734 Y78.228 E9.92636
G1 X56.31 Y76.547 E10.05459
G1 X56.002 Y76.158 E10.08347
G1 X53.374 Y72.622 E10.3399
G1 X53.206 Y72.388 E10.35667
G1 X50.467 Y68.403 E10.63812
G1 X48.598 Y65.977 E10.81637
G1 X46.618 Y63.624 E10.99537
G1 X44.527 Y61.334 E11.17586
G1 X42.378 Y59.176 E11.35313
G1 X38.607 Y55.774 E11.64874
G1 X36.782 Y54.288 E11.78572
G1 X32.7 Y51.287 E12.08062
G1 X30.175 Y49.638 E12.25615
G1 X27.484 Y48.034 E12.43849
G1 X24.807 Y46.589 E12.61556
G1 X21.369 Y44.933 E12.83767
G1 X20.676 Y44.555 E12.88362
G1 X20.025 Y44.109 E12.92955
G1 X19.422 Y43.599 E12.97552
G1 X18.873 Y43.03 E13.02154
G1 X18.385 Y42.41 E13.06747
G1 X17.963 Y41.742 E13.11346
G1 X17.61 Y41.036 E13.1594
G1 X17.33 Y40.298 E13.20534
G1 X17.126 Y39.535 E13.25131
G1 X17 Y38.755 E13.2973
G1 X16.954 Y37.967 E13.34324
G1 X16.988 Y37.178 E13.38921
G1 X17.101 Y36.396 E13.4352
G1 X17.293 Y35.63 E13.48117
G1 X17.562 Y34.888 E13.5271
G1 X17.904 Y34.176 E13.57308
G1 X18.316 Y33.502 E13.61906
G1 X18.794 Y32.874 E13.665
G1 X19.239 Y32.39 E13.70326
G1 X31.483 Y20.147 E14.71108
G0 F3600 X31.766 Y20.43
G1 F1800 X32.337 Y19.915 E14.75584
G1 X32.959 Y19.463 E14.80059
G1 X33.624 Y19.077 E14.84535
G1 X34.326 Y18.762 E14.89013
G1 X35.057 Y18.522 E14.93491
G1 X35.809 Y18.359 E14.9797
G1 X36.573 Y18.275 E15.02444
G1 X37.342 Y18.271 E15.0692
G1 X38.108 Y18.347 E15.114
G1 X38.861 Y18.501 E15.15874
G1 X39.594 Y18.733 E15.20349
G1 X40.3 Y19.04 E15.2483
G1 X40.969 Y19.419 E15.29305
G1 X41.596 Y19.865 E15.33784
G1 X42.173 Y20.373 E15.38258
G1 X42.86 Y21.147 E15.44282
G1 X48.395 Y28.331 E15.97068
G1 X56.405 Y37.971 E16.7002
G1 X63.221 Y45.559 E17.29388
G1 X71.118 Y53.731 E17.95534
G1 X79.339 Y61.6 E18.61771
G1 X87.877 Y69.164 E19.28164
G1 X96.163 Y75.968 E19.90569
G1 X96.731 Y76.486 E19.95044
G1 X97.243 Y77.061 E19.99525
G1 X97.659 Y77.635 E20.03651
G1 X98.529 Y78.964 E20.12897
G1 X99.519 Y80.248 E20.22334
G1 X100.541 Y81.367 E20.31155
G1 X102.387 Y83.001 E20.45504
G1 X104.707 Y84.589 E20.61868
G1 X105.318 Y85.056 E20.66344
G1 X105.878 Y85.583 E20.7082
G1 X106.38 Y86.166 E20.75298
G1 X106.818 Y86.798 E20.79774
G1 X107.189 Y87.472 E20.84252
G1 X107.488 Y88.181 E20.8873
G1 X107.711 Y88.917 E20.93207
G1 X107.857 Y89.672 E20.97683
G1 X107.924 Y90.439 E21.02164
G1 X107.91 Y91.208 E21.06641
G1 X107.817 Y91.971 E21.11115
G1 X107.646 Y92.721 E21.15592
G1 X107.397 Y93.449 E21.2007
G1 X107.074 Y94.147 E21.24547
G1 X106.681 Y94.808 E21.29023
G1 X106.221 Y95.424 E21.33498
G1 X105.699 Y95.989 E21.37975
G1 X105.122 Y96.498 E21.42453
G1 X104.495 Y96.943 E21.46929
G1 X103.825 Y97.321 E21.51406
G1 X103.119 Y97.627 E21.55885
G1 X102.386 Y97.859 E21.6036
G1 X101.632 Y98.013 E21.64839
G1 X100.867 Y98.088 E21.69313
G1 X100.042 Y98.08 E21.74115
G1 X97.519 Y97.914 E21.88832
G1 X97.033 Y97.866 E21.91675
G1 X92.664 Y97.287 E22.17327
G1 X92.03 Y97.175 E22.21075
G1 X87.482 Y96.164 E22.48192
G1 X86.893 Y96.007 E22.5174
G1 X83.203 Y94.861 E22.7423
G1 X82.777 Y94.714 E22.76853
G1 X80.443 Y93.83 E22.9138
G1 X80.133 Y93.705 E22.93325
G1 X78.109 Y92.832 E23.06155
G1 X77.703 Y92.642 E23.08764
G1 X74.029 Y90.786 E23.32723
G1 X73.588 Y90.544 E23.35651
G1 X71.09 Y89.061 E23.5256
G1 X70.697 Y88.81 E23.55274
G1 X67.636 Y86.721 E23.76844
G1 X67.198 Y86.399 E23.80008
G1 X64.114 Y83.944 E24.02952
G1 X63.754 Y83.638 E24.05702
G1 X61.775 Y81.845 E24.21245
G1 X61.414 Y81.494 E24.24176
G1 X58.356 Y78.319 E24.49834
G1 X58.04 Y77.969 E24.52579
G1 X56.616 Y76.288 E24.65402
G1 X56.323 Y75.919 E24.68144
G1 X53.695 Y72.383 E24.93787
G1 X53.536 Y72.161 E24.95377
G1 X50.796 Y68.175 E25.2353
G1 X48.915 Y65.734 E25.41467
G1 X46.924 Y63.368 E25.59465
G1 X44.8 Y61.042 E25.77799
G1 X42.656 Y58.888 E25.95489
G1 X38.876 Y55.478 E26.2512
G1 X37.009 Y53.957 E26.39137
G1 X32.942 Y50.968 E26.68514
G1 X30.381 Y49.296 E26.86316
G1 X27.698 Y47.696 E27.04499
G1 X24.975 Y46.226 E27.2251
G1 X21.543 Y44.573 E27.44682
G1 X20.868 Y44.204 E27.4916
G1 X20.235 Y43.766 E27.5364
G1 X19.652 Y43.266 E27.58111
G1 X19.123 Y42.707 E27.6259
G1 X18.655 Y42.097 E27.67065
G1 X18.253 Y41.441 E27.71544
G1 X17.921 Y40.747 E27.76022
G1 X17.663 Y40.022 E27.80501
G1 X17.482 Y39.275 E27.84974
G1 X17.379 Y38.513 E27.8945
G1 X17.356 Y37.744 E27.93928
G1 X17.413 Y36.977 E27.98405
G1 X17.549 Y36.22 E28.02881
G1 X17.763 Y35.481 E28.07359
G1 X18.052 Y34.768 E28.11837
G1 X18.414 Y34.09 E28.16311
G1 X18.844 Y33.452 E28.20789
G1 X19.522 Y32.673 E28.268
G1 X31.766 Y20.43 E29.27582
G0 F3600 X32.048 Y20.713
G1 F1800 X32.605 Y20.213 E29.31939
G1 X33.212 Y19.775 E29.36296
G1 X33.862 Y19.405 E29.40649
G1 X34.547 Y19.106 E29.44999
G1 X35.261 Y18.882 E29.49355
G1 X35.994 Y18.735 E29.53706
G1 X36.74 Y18.668 E29.58066
G1 X37.487 Y18.68 E29.62414
G1 X38.23 Y18.772 E29.66772
G1 X38.958 Y18.943 E29.71125
G1 X39.664 Y19.191 E29.7548
G1 X40.34 Y19.512 E29.79836
G1 X40.977 Y19.904 E29.84189
G1 X41.569 Y20.361 E29.88542
G1 X42.108 Y20.879 E29.92893
G1 X42.543 Y21.391 E29.96804
G1 X48.067 Y28.561 E30.49486
G1 X56.108 Y38.237 E31.22715
G1 X62.932 Y45.836 E31.82161
G1 X70.85 Y54.028 E32.48476
G1 X79.068 Y61.893 E33.14685
G1 X87.612 Y69.464 E33.81131
G1 X95.909 Y76.277 E34.43618
G1 X96.461 Y76.782 E34.47973
G1 X96.956 Y77.343 E34.52328
G1 X97.324 Y77.854 E34.55993
G1 X98.205 Y79.2 E34.65356
G1 X99.206 Y80.499 E34.74902
G1 X100.262 Y81.655 E34.84015
G1 X102.138 Y83.316 E34.98599
G1 X104.481 Y84.919 E35.15123
G1 X105.075 Y85.374 E35.19478
G1 X105.617 Y85.89 E35.23834
G1 X106.101 Y86.46 E35.28186
G1 X106.521 Y87.079 E35.3254
G1 X106.873 Y87.739 E35.36894
G1 X107.152 Y88.433 E35.41248
G1 X107.356 Y89.153 E35.45604
G1 X107.481 Y89.89 E35.49955
G1 X107.528 Y90.637 E35.54311
G1 X107.494 Y91.384 E35.58663
G1 X107.381 Y92.124 E35.63021
G1 X107.189 Y92.847 E35.67375
G1 X106.922 Y93.545 E35.71724
G1 X106.581 Y94.212 E35.76085
G1 X106.171 Y94.837 E35.80435
G1 X105.697 Y95.416 E35.84791
G1 X105.164 Y95.941 E35.89145
G1 X104.578 Y96.405 E35.93496
G1 X103.946 Y96.805 E35.97849
G1 X103.274 Y97.135 E36.02207
G1 X102.571 Y97.391 E36.06562
G1 X101.845 Y97.571 E36.10915
G1 X101.104 Y97.672 E36.15268
G1 X100.068 Y97.681 E36.21298
G1 X97.545 Y97.515 E36.36015
G1 X97.085 Y97.469 E36.38706
G1 X92.716 Y96.89 E36.64358
G1 X92.117 Y96.784 E36.67899
G1 X87.569 Y95.773 E36.95017
G1 X87.012 Y95.625 E36.98372
G1 X83.322 Y94.479 E37.20861
G1 X82.919 Y94.34 E37.23342
G1 X80.585 Y93.456 E37.37869
G1 X80.292 Y93.338 E37.39708
G1 X78.268 Y92.465 E37.52538
G1 X77.884 Y92.285 E37.55006
G1 X74.21 Y90.429 E37.78965
G1 X73.793 Y90.2 E37.81734
G1 X71.295 Y88.717 E37.98643
G1 X70.922 Y88.48 E38.01215
G1 X67.861 Y86.391 E38.22785
G1 X67.447 Y86.086 E38.25778
G1 X64.363 Y83.631 E38.48722
G1 X64.023 Y83.342 E38.51319
G1 X62.044 Y81.549 E38.66862
G1 X61.702 Y81.217 E38.69637
G1 X58.644 Y78.042 E38.95294
G1 X58.345 Y77.711 E38.97891
G1 X56.921 Y76.03 E39.10714
G1 X56.644 Y75.681 E39.13307
G1 X54.016 Y72.145 E39.3895
G1 X53.866 Y71.935 E39.40452
G1 X51.119 Y67.939 E39.68677
G1 X49.224 Y65.479 E39.86751
G1 X47.219 Y63.097 E40.04873
G1 X45.097 Y60.772 E40.23195
G1 X42.935 Y58.6 E40.41033
G1 X39.135 Y55.173 E40.70817
G1 X37.259 Y53.645 E40.849
G1 X33.164 Y50.635 E41.14481
G1 X30.588 Y48.953 E41.32388
G1 X27.905 Y47.353 E41.5057
G1 X25.168 Y45.876 E41.68673
G1 X21.716 Y44.213 E41.90975
G1 X21.061 Y43.852 E41.95328
G1 X20.447 Y43.424 E41.99685
G1 X19.883 Y42.933 E42.04037
G1 X19.374 Y42.385 E42.0839
G1 X18.927 Y41.785 E42.12745
G1 X18.546 Y41.141 E42.17101
G1 X18.237 Y40.46 E42.21453
G1 X18.001 Y39.75 E42.25808
G1 X17.843 Y39.019 E42.30161
G1 X17.764 Y38.275 E42.34516
G1 X17.764 Y37.527 E42.3887
G1 X17.845 Y36.783 E42.43226
G1 X18.004 Y36.052 E42.4758
G1 X18.24 Y35.343 E42.5193
G1 X18.551 Y34.662 E42.56287
G1 X18.933 Y34.019 E42.6064
G1 X19.381 Y33.42 E42.64994
G1 X19.804 Y32.956 E42.68649
G1 X32.048 Y20.713 E43.69431
G0 F3600 X32.331 Y20.996
G1 F1800 X32.872 Y20.511 E43.7366
G1 X33.463 Y20.089 E43.77887
G1 X34.097 Y19.735 E43.82113
G1 X34.766 Y19.452 E43.86341
G1 X35.462 Y19.244 E43.90569
G1 X36.177 Y19.114 E43.94799
G1 X36.902 Y19.064 E43.99029
G1 X37.628 Y19.093 E44.03258
G1 X38.346 Y19.202 E44.07485
G1 X39.047 Y19.389 E44.11708
G1 X39.724 Y19.652 E44.15935
G1 X40.368 Y19.988 E44.20163
G1 X40.972 Y20.393 E44.24396
G1 X41.527 Y20.862 E44.28625
G1 X42.226 Y21.635 E44.34691
G1 X47.762 Y28.821 E44.8749
G1 X55.809 Y38.505 E45.60777
G1 X62.63 Y46.099 E46.2019
G1 X70.568 Y54.313 E46.86677
G1 X78.782 Y62.174 E47.52853
G1 X87.362 Y69.776 E48.19576
G1 X95.655 Y76.586 E48.82035
G1 X96.191 Y77.077 E48.86266
G1 X96.669 Y77.624 E48.90494
G1 X96.99 Y78.073 E48.93706
G1 X97.884 Y79.439 E49.03209
G1 X98.904 Y80.762 E49.12932
G1 X99.974 Y81.933 E49.22165
G1 X101.895 Y83.634 E49.37099
G1 X104.255 Y85.249 E49.53744
G1 X104.831 Y85.692 E49.57974
G1 X105.355 Y86.195 E49.62202
G1 X105.82 Y86.753 E49.66429
G1 X106.222 Y87.358 E49.70657
G1 X106.554 Y88.004 E49.74885
G1 X106.813 Y88.682 E49.79109
G1 X106.997 Y89.385 E49.83339
G1 X107.101 Y90.104 E49.87567
G1 X107.127 Y90.83 E49.91796
G1 X107.072 Y91.554 E49.96022
G1 X106.938 Y92.268 E50.0025
G1 X106.726 Y92.963 E50.0448
G1 X106.44 Y93.631 E50.08709
G1 X106.081 Y94.262 E50.12935
G1 X105.656 Y94.851 E50.17162
G1 X105.168 Y95.389 E50.2139
G1 X104.624 Y95.871 E50.2562
G1 X104.031 Y96.29 E50.29847
G1 X103.395 Y96.641 E50.34075
G1 X102.724 Y96.92 E50.38305
G1 X102.027 Y97.123 E50.4253
G1 X101.312 Y97.249 E50.46756
G1 X100.587 Y97.296 E50.50985
G1 X100.095 Y97.282 E50.5385
G1 X97.572 Y97.116 E50.68566
G1 X97.138 Y97.073 E50.71105
G1 X92.769 Y96.494 E50.96757
G1 X92.204 Y96.394 E51.00097
G1 X87.656 Y95.383 E51.27215
G1 X87.13 Y95.243 E51.30383
G1 X83.44 Y94.097 E51.52873
G1 X83.06 Y93.966 E51.55212
G1 X80.726 Y93.082 E51.69739
G1 X80.45 Y92.97 E51.71473
G1 X78.426 Y92.097 E51.84303
G1 X78.064 Y91.928 E51.86628
G1 X74.39 Y90.072 E52.10586
G1 X73.997 Y89.856 E52.13196
G1 X71.499 Y88.373 E52.30105
G1 X71.148 Y88.149 E52.32529
G1 X68.087 Y86.06 E52.54099
G1 X67.696 Y85.773 E52.56922
G1 X64.612 Y83.318 E52.79866
G1 X64.292 Y83.045 E52.82314
G1 X62.313 Y81.252 E52.97858
G1 X61.99 Y80.939 E53.00475
G1 X58.932 Y77.764 E53.26133
G1 X58.65 Y77.452 E53.28581
G1 X57.226 Y75.771 E53.41404
G1 X56.965 Y75.442 E53.43849
G1 X54.337 Y71.906 E53.69492
G1 X54.195 Y71.708 E53.7091
G1 X51.439 Y67.698 E53.99231
G1 X49.532 Y65.224 E54.17413
G1 X47.525 Y62.839 E54.35556
G1 X45.392 Y60.503 E54.53968
G1 X43.203 Y58.304 E54.72028
G1 X39.394 Y54.868 E55.01886
G1 X37.509 Y53.332 E55.16039
G1 X33.386 Y50.302 E55.4582
G1 X30.814 Y48.622 E55.63701
G1 X28.094 Y47.001 E55.82131
G1 X25.336 Y45.512 E56.00375
G1 X21.89 Y43.852 E56.22638
G1 X21.254 Y43.501 E56.26866
G1 X20.66 Y43.083 E56.31094
G1 X20.116 Y42.602 E56.3532
G1 X19.628 Y42.064 E56.39548
G1 X19.202 Y41.475 E56.43779
G1 X18.844 Y40.844 E56.48002
G1 X18.557 Y40.176 E56.52234
G1 X18.345 Y39.482 E56.56457
G1 X18.21 Y38.768 E56.60687
G1 X18.155 Y38.043 E56.64919
G1 X18.18 Y37.318 E56.69141
G1 X18.285 Y36.599 E56.73371
G1 X18.468 Y35.896 E56.77599
G1 X18.727 Y35.217 E56.81829
G1 X19.059 Y34.571 E56.86056
G1 X19.46 Y33.965 E56.90286
G1 X20.087 Y33.239 E56.95869
G1 X32.331 Y20.996 E57.96651
G0 F3600 X32.614 Y21.279
G1 F1800 X33.139 Y20.81 E58.00749
G1 X33.714 Y20.404 E58.04846
G1 X34.332 Y20.066 E58.08946
G1 X34.983 Y19.799 E58.13041
G1 X35.661 Y19.609 E58.17139
G1 X36.356 Y19.496 E58.21238
G1 X37.059 Y19.463 E58.25334
G1 X37.762 Y19.51 E58.29435
G1 X38.454 Y19.636 E58.33529
G1 X39.128 Y19.84 E58.37628
G1 X39.774 Y20.119 E58.41724
G1 X40.385 Y20.47 E58.45825
G1 X40.952 Y20.887 E58.49922
G1 X41.468 Y21.366 E58.5402
G1 X41.909 Y21.879 E58.57957
G1 X47.445 Y29.064 E59.10752
G1 X55.501 Y38.759 E59.84121
G1 X62.342 Y46.376 E60.43712
G1 X70.286 Y54.597 E61.10252
G1 X78.509 Y62.466 E61.76498
G1 X87.099 Y70.077 E62.43299
G1 X95.402 Y76.895 E63.05832
G1 X95.919 Y77.372 E63.09927
G1 X96.38 Y77.905 E63.14029
G1 X96.655 Y78.292 E63.16792
G1 X97.55 Y79.66 E63.26307
G1 X98.603 Y81.026 E63.36346
G1 X99.695 Y82.221 E63.45768
G1 X101.646 Y83.948 E63.60934
G1 X104.029 Y85.579 E63.77742
G1 X104.587 Y86.009 E63.81842
G1 X105.092 Y86.5 E63.85942
G1 X105.538 Y87.044 E63.90036
G1 X105.92 Y87.636 E63.94137
G1 X106.232 Y88.267 E63.98234
G1 X106.471 Y88.929 E64.02331
G1 X106.633 Y89.614 E64.06428
G1 X106.716 Y90.313 E64.10525
G1 X106.72 Y91.017 E64.14623
G1 X106.643 Y91.717 E64.18722
G1 X106.488 Y92.403 E64.22815
G1 X106.256 Y93.068 E64.26915
G1 X105.95 Y93.702 E64.31012
G1 X105.575 Y94.298 E64.35111
G1 X105.134 Y94.846 E64.39205
G1 X104.634 Y95.342 E64.43304
G1 X104.081 Y95.777 E64.474
G1 X103.482 Y96.147 E64.51498
G1 X102.845 Y96.447 E64.55596
G1 X102.178 Y96.672 E64.59693
G1 X101.49 Y96.821 E64.63791
G1 X100.789 Y96.891 E64.67891
G1 X100.121 Y96.883 E64.71779
G1 X97.598 Y96.717 E64.86496
G1 X97.19 Y96.676 E64.88883
G1 X92.821 Y96.097 E65.14535
G1 X92.291 Y96.003 E65.17668
G1 X87.743 Y94.992 E65.44786
G1 X87.249 Y94.861 E65.47761
G1 X83.559 Y93.715 E65.70251
G1 X83.202 Y93.592 E65.72448
G1 X80.868 Y92.708 E65.86975
G1 X80.608 Y92.603 E65.88607
G1 X78.584 Y91.73 E66.01437
G1 X78.244 Y91.571 E66.03622
G1 X74.57 Y89.715 E66.2758
G1 X74.201 Y89.512 E66.30032
G1 X71.703 Y88.029 E66.46941
G1 X71.373 Y87.819 E66.49217
G1 X68.312 Y85.73 E66.70788
G1 X67.946 Y85.46 E66.73435
G1 X64.862 Y83.005 E66.96378
G1 X64.56 Y82.749 E66.98683
G1 X62.581 Y80.956 E67.14226
G1 X62.278 Y80.662 E67.16683
G1 X59.22 Y77.487 E67.42341
G1 X58.955 Y77.193 E67.44645
G1 X57.531 Y75.512 E67.57468
G1 X57.286 Y75.203 E67.59763
G1 X54.658 Y71.667 E67.85407
