;FLAVOR:RepRap
;TIME:9806
;Filament used: 11.1697m
;Layer height: 0.2
;Generated with Cura_SteamEngine master
M190 S50
M104 S195
M109 S195
G28 ;Home
G1 Z15.0 F6000 ;Move the platform down 15mm
;Prime the extruder
G92 E0
G1 F200 E3
G92 E0
;LAYER_COUNT:117
;LAYER:0
M107
G1 F1500 E-6.5
G0 F3600 X7.781 Y6.713 Z0.35
;TYPE:SKIRT
G1 F1500 E0
G1 F1800 X8.293 Y6.112 E0.04595
G1 X8.679 Y5.73 E0.07756
G1 X8.999 Y5.435 E0.1029
G1 X9.677 Y4.877 E0.15401
G1 X10.204 Y4.491 E0.19203
G1 X10.864 Y4.058 E0.23797
G1 X11.214 Y3.864 E0.26126
G1 X11.987 Y3.462 E0.31198
G1 X12.705 Y3.133 E0.35795
G1 X13.241 Y2.943 E0.39105
G1 X14.072 Y2.681 E0.44176
G1 X14.836 Y2.482 E0.48772
G1 X15.558 Y2.367 E0.53027
G1 X16.641 Y2.247 E0.59369
G1 X17.504 Y2.2 E0.644
G1 X103.155 Y2.243 E5.62933
G1 X103.944 Y2.283 E5.67532
G1 X104.724 Y2.403 E5.72125
G1 X105.169 Y2.509 E5.74788
G1 X106.431 Y2.847 E5.82392
G1 X107.182 Y3.089 E5.86985
G1 X108.174 Y3.547 E5.93344
G1 X109.128 Y4.072 E5.99682
G1 X109.799 Y4.488 E6.04278
G1 X110.629 Y5.148 E6.1045
G1 X111.592 Y6.028 E6.18043
G1 X112.147 Y6.59 E6.2264
G1 X112.623 Y7.177 E6.27039
G1 X113.009 Y7.704 E6.30841
G1 X113.442 Y8.364 E6.35436
G1 X113.636 Y8.714 E6.37765
G1 X114.038 Y9.487 E6.42836
G1 X114.367 Y10.205 E6.47433
G1 X114.557 Y10.741 E6.50743
G1 X114.819 Y11.572 E6.55815
G1 X115.018 Y12.336 E6.6041
G1 X115.133 Y13.058 E6.64666
G1 X115.253 Y14.141 E6.71008
G1 X115.3 Y15.004 E6.76038
G1 X115.257 Y105.655 E12.03675
G1 X115.217 Y106.443 E12.08267
G1 X115.097 Y107.224 E12.12866
G1 X114.991 Y107.669 E12.15529
G1 X114.653 Y108.931 E12.23133
G1 X114.411 Y109.682 E12.27726
G1 X113.954 Y110.671 E12.34067
G1 X113.43 Y111.624 E12.40397
G1 X113.015 Y112.296 E12.44994
G1 X112.353 Y113.128 E12.51183
G1 X111.472 Y114.092 E12.58784
G1 X110.91 Y114.647 E12.63382
G1 X110.323 Y115.123 E12.6778
G1 X109.796 Y115.509 E12.71583
G1 X109.136 Y115.942 E12.76177
G1 X108.786 Y116.136 E12.78506
G1 X108.013 Y116.538 E12.83578
G1 X107.295 Y116.867 E12.88175
G1 X106.759 Y117.057 E12.91485
G1 X105.928 Y117.319 E12.96556
G1 X105.164 Y117.518 E13.01151
G1 X104.442 Y117.633 E13.05407
G1 X103.359 Y117.753 E13.11749
G1 X102.496 Y117.8 E13.1678
G1 X16.845 Y117.757 E18.15313
G1 X16.056 Y117.717 E18.19912
G1 X15.276 Y117.597 E18.24505
G1 X14.831 Y117.491 E18.27168
G1 X13.569 Y117.153 E18.34772
G1 X12.818 Y116.911 E18.39365
G1 X11.826 Y116.453 E18.45724
G1 X10.872 Y115.928 E18.52062
G1 X10.201 Y115.512 E18.56658
G1 X9.371 Y114.852 E18.6283
G1 X8.408 Y113.972 E18.70423
G1 X7.853 Y113.41 E18.7502
G1 X7.379 Y112.825 E18.79403
G1 X6.992 Y112.297 E18.83213
G1 X6.558 Y111.637 E18.87811
G1 X6.361 Y111.281 E18.90179
G1 X5.96 Y110.509 E18.95242
G1 X5.632 Y109.791 E18.99837
G1 X5.443 Y109.259 E19.03123
G1 X5.181 Y108.428 E19.08195
G1 X4.982 Y107.664 E19.1279
G1 X4.867 Y106.942 E19.17045
G1 X4.747 Y105.859 E19.23387
G1 X4.7 Y104.996 E19.28418
G1 X4.743 Y14.345 E24.56054
G1 X4.783 Y13.557 E24.60647
G1 X4.903 Y12.776 E24.65246
G1 X5.009 Y12.331 E24.67909
G1 X5.347 Y11.069 E24.75513
G1 X5.589 Y10.318 E24.80106
G1 X5.885 Y9.637 E24.84428
G1 X6.174 Y9.051 E24.88231
G1 X6.559 Y8.361 E24.9283
G1 X6.985 Y7.749 E24.9717
G1 X7.781 Y6.713 E25.04774
G0 F3600 X8.098 Y6.956
G1 F1800 X8.598 Y6.372 E25.09249
G1 X8.95 Y6.024 E25.1213
G1 X9.27 Y5.729 E25.14663
G1 X9.913 Y5.2 E25.1951
G1 X10.44 Y4.814 E25.23312
G1 X11.399 Y4.219 E25.29881
G1 X12.172 Y3.817 E25.34952
G1 X12.872 Y3.498 E25.3943
G1 X13.361 Y3.324 E25.42451
G1 X14.192 Y3.062 E25.47522
G1 X14.936 Y2.87 E25.51995
G1 X15.602 Y2.765 E25.55919
G1 X16.685 Y2.645 E25.62261
G1 X17.504 Y2.6 E25.67036
G1 X103.155 Y2.643 E30.65569
G1 X103.923 Y2.683 E30.70045
G1 X104.683 Y2.803 E30.74524
G1 X105.065 Y2.895 E30.76811
G1 X106.327 Y3.233 E30.84415
G1 X107.059 Y3.47 E30.88894
G1 X107.981 Y3.898 E30.9481
G1 X108.935 Y4.423 E31.01148
G1 X109.588 Y4.828 E31.05621
G1 X110.359 Y5.443 E31.11361
G1 X111.322 Y6.323 E31.18954
G1 X111.862 Y6.871 E31.23432
G1 X112.3 Y7.413 E31.27488
G1 X112.686 Y7.94 E31.3129
G1 X113.281 Y8.899 E31.37859
G1 X113.683 Y9.672 E31.42931
G1 X114.002 Y10.372 E31.47408
G1 X114.176 Y10.861 E31.50429
G1 X114.438 Y11.692 E31.55501
G1 X114.63 Y12.436 E31.59973
G1 X114.735 Y13.102 E31.63898
G1 X114.855 Y14.185 E31.7024
G1 X114.9 Y15.004 E31.75014
G1 X114.857 Y105.655 E37.0265
G1 X114.817 Y106.423 E37.07127
G1 X114.697 Y107.182 E37.11599
G1 X114.605 Y107.565 E37.13892
G1 X114.267 Y108.827 E37.21496
G1 X114.03 Y109.559 E37.25975
G1 X113.603 Y110.478 E37.31873
G1 X113.079 Y111.431 E37.38203
G1 X112.674 Y112.085 E37.4268
G1 X112.057 Y112.858 E37.48437
G1 X111.176 Y113.822 E37.56038
G1 X110.629 Y114.362 E37.60512
G1 X110.087 Y114.8 E37.64568
G1 X109.56 Y115.186 E37.68371
G1 X108.601 Y115.781 E37.7494
G1 X107.828 Y116.183 E37.80011
G1 X107.128 Y116.502 E37.84488
G1 X106.639 Y116.676 E37.87509
G1 X105.808 Y116.938 E37.92581
G1 X105.064 Y117.13 E37.97053
G1 X104.398 Y117.235 E38.00978
G1 X103.315 Y117.355 E38.0732
G1 X102.496 Y117.4 E38.12094
G1 X16.845 Y117.357 E43.10628
G1 X16.077 Y117.317 E43.15104
G1 X15.317 Y117.197 E43.19582
G1 X14.935 Y117.105 E43.21869
G1 X13.673 Y116.767 E43.29474
G1 X12.941 Y116.53 E43.33952
G1 X12.019 Y116.102 E43.39869
G1 X11.065 Y115.577 E43.46207
G1 X10.412 Y115.172 E43.50679
G1 X9.641 Y114.557 E43.5642
G1 X8.678 Y113.677 E43.64013
G1 X8.138 Y113.129 E43.68491
G1 X7.702 Y112.589 E43.7253
G1 X7.315 Y112.061 E43.76341
G1 X6.716 Y111.097 E43.82947
G1 X6.315 Y110.325 E43.8801
G1 X5.996 Y109.625 E43.92488
G1 X5.824 Y109.139 E43.95488
G1 X5.562 Y108.308 E44.0056
G1 X5.37 Y107.564 E44.05032
G1 X5.265 Y106.898 E44.08957
G1 X5.145 Y105.815 E44.15299
G1 X5.1 Y104.996 E44.20073
G1 X5.143 Y14.345 E49.47709
G1 X5.183 Y13.577 E49.52186
G1 X5.303 Y12.818 E49.56658
G1 X5.395 Y12.435 E49.58951
G1 X5.733 Y11.173 E49.66555
G1 X5.97 Y10.441 E49.71034
G1 X6.244 Y9.814 E49.75016
G1 X6.533 Y9.228 E49.7882
G1 X6.909 Y8.557 E49.83296
G1 X7.302 Y7.992 E49.87302
G1 X8.098 Y6.956 E49.94907
G0 F3600 X8.415 Y7.2
G1 F1800 X8.902 Y6.632 E49.99262
G1 X9.221 Y6.318 E50.01867
G1 X9.541 Y6.023 E50.044
G1 X10.15 Y5.523 E50.08987
G1 X10.677 Y5.137 E50.12789
G1 X11.583 Y4.574 E50.18998
G1 X12.356 Y4.172 E50.24069
G1 X13.037 Y3.862 E50.28424
G1 X13.481 Y3.706 E50.31163
G1 X14.312 Y3.444 E50.36235
G1 X15.037 Y3.257 E50.40593
G1 X15.646 Y3.163 E50.44179
G1 X16.729 Y3.043 E50.50522
G1 X17.504 Y3 E50.55039
G1 X103.155 Y3.043 E55.53573
G1 X103.901 Y3.083 E55.57922
G1 X104.962 Y3.281 E55.64204
G1 X106.224 Y3.619 E55.71808
G1 X106.935 Y3.851 E55.76161
G1 X107.788 Y4.248 E55.81638
G1 X108.742 Y4.773 E55.87976
G1 X109.377 Y5.168 E55.92328
G1 X110.089 Y5.739 E55.97641
G1 X111.052 Y6.619 E56.05234
G1 X111.577 Y7.152 E56.09588
G1 X111.977 Y7.65 E56.13306
G1 X112.363 Y8.177 E56.17108
G1 X112.926 Y9.083 E56.23317
G1 X113.328 Y9.856 E56.28388
G1 X113.638 Y10.537 E56.32743
G1 X113.794 Y10.981 E56.35483
G1 X114.056 Y11.812 E56.40554
G1 X114.243 Y12.537 E56.44912
G1 X114.337 Y13.146 E56.48499
G1 X114.457 Y14.229 E56.54841
G1 X114.5 Y15.003 E56.59353
G1 X114.457 Y105.654 E61.86989
G1 X114.417 Y106.401 E61.91344
G1 X114.219 Y107.462 E61.97626
G1 X113.881 Y108.724 E62.0523
G1 X113.649 Y109.435 E62.09583
G1 X113.253 Y110.286 E62.15047
G1 X112.729 Y111.239 E62.21377
G1 X112.334 Y111.874 E62.25729
G1 X111.762 Y112.588 E62.31054
G1 X110.881 Y113.552 E62.38656
G1 X110.348 Y114.077 E62.4301
G1 X109.85 Y114.477 E62.46728
G1 X109.323 Y114.863 E62.5053
G1 X108.417 Y115.426 E62.56739
G1 X107.644 Y115.828 E62.6181
G1 X106.963 Y116.138 E62.66165
G1 X106.519 Y116.294 E62.68905
G1 X105.688 Y116.556 E62.73976
G1 X104.963 Y116.743 E62.78334
G1 X104.354 Y116.837 E62.81921
G1 X103.271 Y116.957 E62.88263
G1 X102.496 Y117 E62.92781
G1 X16.845 Y116.957 E67.91315
G1 X16.099 Y116.917 E67.95663
G1 X15.038 Y116.719 E68.01945
G1 X13.776 Y116.381 E68.0955
G1 X13.065 Y116.149 E68.13903
G1 X12.212 Y115.752 E68.19379
G1 X11.258 Y115.227 E68.25717
G1 X10.623 Y114.832 E68.3007
G1 X9.911 Y114.261 E68.35382
G1 X8.948 Y113.381 E68.42975
G1 X8.423 Y112.848 E68.4733
G1 X8.024 Y112.352 E68.51035
G1 X7.637 Y111.824 E68.54845
G1 X7.071 Y110.913 E68.61088
G1 X6.67 Y110.141 E68.66151
G1 X6.361 Y109.459 E68.70509
G1 X6.206 Y109.019 E68.73224
G1 X5.944 Y108.188 E68.78296
G1 X5.757 Y107.463 E68.82654
G1 X5.663 Y106.854 E68.86241
G1 X5.543 Y105.771 E68.92583
G1 X5.5 Y104.997 E68.97095
G1 X5.543 Y14.346 E74.24731
G1 X5.583 Y13.599 E74.29085
G1 X5.781 Y12.538 E74.35368
G1 X6.119 Y11.276 E74.42972
G1 X6.351 Y10.565 E74.47325
G1 X6.603 Y9.991 E74.50974
G1 X6.892 Y9.405 E74.54777
G1 X7.258 Y8.753 E74.59129
G1 X7.619 Y8.236 E74.62799
G1 X8.415 Y7.2 E74.70404
G0 F3600 X8.732 Y7.444
G1 F1800 X9.206 Y6.893 E74.74634
G1 X9.493 Y6.612 E74.76972
G1 X9.813 Y6.317 E74.79505
G1 X10.386 Y5.845 E74.83826
G1 X10.913 Y5.459 E74.87629
G1 X11.768 Y4.928 E74.93487
G1 X12.541 Y4.526 E74.98558
G1 X13.203 Y4.227 E75.02786
G1 X13.601 Y4.087 E75.05242
G1 X14.432 Y3.825 E75.10313
G1 X15.136 Y3.645 E75.14543
G1 X15.69 Y3.56 E75.17805
G1 X16.773 Y3.44 E75.24147
G1 X17.503 Y3.4 E75.28403
G1 X103.154 Y3.443 E80.26936
G1 X103.88 Y3.483 E80.31168
G1 X104.858 Y3.668 E80.36962
G1 X106.12 Y4.006 E80.44566
G1 X106.811 Y4.232 E80.48798
G1 X107.595 Y4.599 E80.53836
G1 X108.549 Y5.124 E80.60174
G1 X109.165 Y5.508 E80.644
G1 X109.819 Y6.034 E80.69285
G1 X110.782 Y6.914 E80.76878
G1 X111.291 Y7.433 E80.81109
G1 X111.655 Y7.886 E80.84491
G1 X112.041 Y8.413 E80.88293
G1 X112.572 Y9.268 E80.94152
G1 X112.974 Y10.041 E80.99223
G1 X113.273 Y10.703 E81.03451
G1 X113.413 Y11.101 E81.05907
G1 X113.675 Y11.932 E81.10978
G1 X113.855 Y12.636 E81.15208
G1 X113.94 Y13.19 E81.1847
G1 X114.06 Y14.273 E81.24812
G1 X114.1 Y15.003 E81.29067
G1 X114.057 Y105.654 E86.56704
G1 X114.017 Y106.379 E86.6093
G1 X113.832 Y107.358 E86.66729
G1 X113.494 Y108.62 E86.74334
G1 X113.268 Y109.311 E86.78565
G1 X112.902 Y110.093 E86.83591
G1 X112.378 Y111.046 E86.89921
G1 X111.994 Y111.662 E86.94146
G1 X111.467 Y112.318 E86.99044
G1 X110.586 Y113.282 E87.06645
G1 X110.067 Y113.791 E87.10876
G1 X109.614 Y114.155 E87.14259
G1 X109.087 Y114.541 E87.18061
G1 X108.232 Y115.072 E87.23919
G1 X107.459 Y115.474 E87.2899
G1 X106.797 Y115.773 E87.33218
G1 X106.399 Y115.913 E87.35674
G1 X105.568 Y116.175 E87.40746
G1 X104.864 Y116.355 E87.44975
G1 X104.31 Y116.44 E87.48237
G1 X103.227 Y116.56 E87.5458
G1 X102.497 Y116.6 E87.58835
G1 X16.846 Y116.557 E92.57369
G1 X16.12 Y116.517 E92.61601
G1 X15.142 Y116.332 E92.67394
G1 X13.88 Y115.994 E92.74999
G1 X13.189 Y115.768 E92.7923
G1 X12.405 Y115.401 E92.84269
G1 X11.451 Y114.876 E92.90607
G1 X10.835 Y114.492 E92.94832
G1 X10.181 Y113.966 E92.99717
G1 X9.218 Y113.086 E93.0731
G1 X8.709 Y112.567 E93.11541
G1 X8.347 Y112.116 E93.14907
G1 X7.96 Y111.588 E93.18717
G1 X7.426 Y110.728 E93.2461
G1 X7.025 Y109.956 E93.29673
G1 X6.726 Y109.294 E93.33901
G1 X6.587 Y108.899 E93.36338
G1 X6.325 Y108.068 E93.4141
G1 X6.145 Y107.364 E93.45639
G1 X6.06 Y106.81 E93.48902
G1 X5.94 Y105.727 E93.55244
G1 X5.9 Y104.997 E93.59499
G1 X5.943 Y14.346 E98.87136
G1 X5.983 Y13.621 E98.91362
G1 X6.168 Y12.642 E98.97161
G1 X6.506 Y11.38 E99.04765
G1 X6.732 Y10.689 E99.08997
G1 X6.962 Y10.168 E99.12312
G1 X7.251 Y9.582 E99.16115
G1 X7.607 Y8.949 E99.20342
G1 X7.936 Y8.48 E99.23677
G1 X8.732 Y7.444 E99.31281
G0 F3600 X9.05 Y7.688
G1 F1800 X9.51 Y7.155 E99.35379
G1 X9.764 Y6.906 E99.37449
G1 X10.084 Y6.611 E99.39983
G1 X10.622 Y6.168 E99.44039
G1 X11.149 Y5.782 E99.47841
G1 X11.952 Y5.283 E99.53344
G1 X12.725 Y4.881 E99.58415
G1 X13.367 Y4.593 E99.62511
G1 X13.722 Y4.469 E99.647
G1 X14.553 Y4.207 E99.69771
G1 X15.235 Y4.034 E99.73866
G1 X15.734 Y3.958 E99.76804
G1 X16.817 Y3.838 E99.83147
G1 X17.503 Y3.8 E99.87146
G1 X103.154 Y3.843 E104.85679
G1 X103.857 Y3.883 E104.89778
G1 X104.755 Y4.054 E104.95099
G1 X106.017 Y4.392 E105.02703
G1 X106.686 Y4.613 E105.06804
G1 X107.402 Y4.949 E105.11407
G1 X108.356 Y5.474 E105.17745
G1 X108.953 Y5.848 E105.21846
G1 X109.549 Y6.329 E105.26304
G1 X110.512 Y7.209 E105.33897
G1 X111.004 Y7.713 E105.37996
G1 X111.332 Y8.122 E105.41048
G1 X111.718 Y8.649 E105.4485
G1 X112.217 Y9.452 E105.50353
G1 X112.619 Y10.225 E105.55424
G1 X112.907 Y10.867 E105.5952
G1 X113.031 Y11.222 E105.61708
G1 X113.293 Y12.053 E105.6678
G1 X113.466 Y12.735 E105.70875
G1 X113.542 Y13.234 E105.73813
G1 X113.662 Y14.317 E105.80155
G1 X113.7 Y15.003 E105.84154
G1 X113.657 Y105.654 E111.11791
G1 X113.617 Y106.357 E111.15889
G1 X113.446 Y107.255 E111.2121
G1 X113.108 Y108.517 E111.28814
G1 X112.887 Y109.186 E111.32915
G1 X112.552 Y109.9 E111.37506
G1 X112.028 Y110.853 E111.43836
G1 X111.654 Y111.45 E111.47936
G1 X111.172 Y112.049 E111.52411
G1 X110.291 Y113.013 E111.60013
G1 X109.787 Y113.504 E111.64108
G1 X109.378 Y113.832 E111.6716
G1 X108.851 Y114.218 E111.70962
G1 X108.048 Y114.717 E111.76465
G1 X107.275 Y115.119 E111.81536
G1 X106.633 Y115.407 E111.85632
G1 X106.278 Y115.531 E111.8782
G1 X105.447 Y115.793 E111.92892
G1 X104.765 Y115.966 E111.96987
G1 X104.266 Y116.042 E111.99925
G1 X103.183 Y116.162 E112.06267
G1 X102.497 Y116.2 E112.10266
G1 X16.846 Y116.157 E117.088
G1 X16.143 Y116.117 E117.12899
G1 X15.245 Y115.946 E117.18219
G1 X13.983 Y115.608 E117.25824
G1 X13.314 Y115.387 E117.29925
G1 X12.598 Y115.051 E117.34528
G1 X11.644 Y114.526 E117.40866
G1 X11.047 Y114.152 E117.44967
G1 X10.451 Y113.671 E117.49424
G1 X9.488 Y112.791 E117.57017
G1 X8.996 Y112.287 E117.61117
G1 X8.669 Y111.879 E117.6416
G1 X8.282 Y111.351 E117.67971
G1 X7.781 Y110.544 E117.73499
G1 X7.38 Y109.772 E117.78563
G1 X7.091 Y109.13 E117.82661
G1 X6.969 Y108.778 E117.84829
G1 X6.707 Y107.947 E117.89901
G1 X6.534 Y107.265 E117.93996
G1 X6.458 Y106.766 E117.96934
G1 X6.338 Y105.683 E118.03276
G1 X6.3 Y104.997 E118.07275
G1 X6.343 Y14.346 E123.34912
G1 X6.383 Y13.643 E123.3901
G1 X6.554 Y12.745 E123.44331
G1 X6.892 Y11.483 E123.51935
G1 X7.113 Y10.814 E123.56036
G1 X7.32 Y10.345 E123.5902
G1 X7.609 Y9.759 E123.62823
G1 X7.956 Y9.146 E123.66923
G1 X8.254 Y8.724 E123.6993
G1 X9.05 Y7.688 E123.77534
G0 F3600 X9.367 Y7.931
G1 F1800 X10.035 Y7.201 E123.83294
G1 X10.355 Y6.906 E123.85827
G1 X10.859 Y6.491 E123.89627
G1 X11.386 Y6.105 E123.93429
G1 X12.137 Y5.638 E123.98577
G1 X12.91 Y5.236 E124.03648
G1 X13.842 Y4.85 E124.0952
G1 X14.673 Y4.588 E124.14591
G1 X15.333 Y4.422 E124.18553
G1 X15.778 Y4.355 E124.21172
G1 X16.861 Y4.235 E124.27514
G1 X17.503 Y4.2 E124.31256
G1 X103.154 Y4.243 E129.2979
G1 X103.834 Y4.283 E129.33755
G1 X104.652 Y4.44 E129.38603
G1 X105.914 Y4.778 E129.46207
G1 X106.56 Y4.993 E129.5017
G1 X107.209 Y5.3 E129.54349
G1 X108.163 Y5.825 E129.60687
G1 X108.74 Y6.187 E129.64652
G1 X109.28 Y6.624 E129.68695
G1 X110.243 Y7.504 E129.76288
G1 X110.717 Y7.992 E129.80248
G1 X111.009 Y8.359 E129.82978
G1 X111.395 Y8.886 E129.8678
G1 X111.862 Y9.637 E129.91927
G1 X112.264 Y10.41 E129.96999
G1 X112.65 Y11.342 E130.0287
G1 X112.912 Y12.173 E130.07942
G1 X113.078 Y12.833 E130.11903
G1 X113.145 Y13.278 E130.14522
G1 X113.265 Y14.361 E130.20864
G1 X113.3 Y15.003 E130.24607
G1 X113.257 Y105.654 E135.52243
G1 X113.217 Y106.333 E135.56202
G1 X113.06 Y107.152 E135.61056
G1 X112.722 Y108.414 E135.6866
G1 X112.507 Y109.06 E135.72623
G1 X112.201 Y109.708 E135.76794
G1 X111.677 Y110.661 E135.83124
G1 X111.315 Y111.237 E135.87084
G1 X110.876 Y111.779 E135.91144
G1 X109.995 Y112.743 E135.98745
G1 X109.507 Y113.218 E136.02709
G1 X109.141 Y113.509 E136.05431
G1 X108.614 Y113.895 E136.09233
G1 X107.863 Y114.362 E136.1438
G1 X107.09 Y114.764 E136.19451
G1 X106.158 Y115.15 E136.25323
G1 X105.327 Y115.412 E136.30395
G1 X104.667 Y115.578 E136.34356
G1 X104.222 Y115.645 E136.36975
G1 X103.139 Y115.765 E136.43317
G1 X102.497 Y115.8 E136.4706
G1 X16.846 Y115.757 E141.45593
G1 X16.166 Y115.717 E141.49558
G1 X15.348 Y115.56 E141.54406
G1 X14.086 Y115.222 E141.62011
G1 X13.44 Y115.007 E141.65974
G1 X12.791 Y114.7 E141.70152
G1 X11.837 Y114.175 E141.7649
G1 X11.26 Y113.813 E141.80455
G1 X10.72 Y113.376 E141.84498
G1 X9.757 Y112.496 E141.92091
G1 X9.283 Y112.008 E141.96051
G1 X8.992 Y111.643 E141.98768
G1 X8.605 Y111.115 E142.02579
G1 X8.136 Y110.36 E142.07752
G1 X7.735 Y109.588 E142.12815
