;FLAVOR:RepRap
;TIME:110
;Filament used: 0.0706859m
;Layer height: 0.2
;Generated with Cura_SteamEngine master
M190 S60
M104 S195
M109 S195
G28 ;Home
G1 Z15.0 F6000 ;Move the platform down 15mm
;Prime the extruder
G92 E0
G1 F200 E3
G92 E0
;LAYER_COUNT:49
;LAYER:0
M107
G1 F1500 E-6.5
G0 F3600 X53.568 Y53.176 Z0.35
;TYPE:SKIRT
G1 F1500 E0
G1 F1800 X54.154 Y52.646 E0.04599
G1 X54.79 Y52.179 E0.09192
G1 X55.776 Y51.627 E0.15769
G1 X56.278 Y51.392 E0.18995
G1 X57.009 Y51.094 E0.2359
G1 X57.767 Y50.871 E0.28189
G1 X58.897 Y50.686 E0.34853
G1 X59.45 Y50.637 E0.38085
G1 X60.239 Y50.608 E0.4268
G1 X61.027 Y50.658 E0.47276
G1 X62.145 Y50.87 E0.53899
G1 X62.682 Y51.013 E0.57134
G1 X63.434 Y51.254 E0.6173
G1 X64.158 Y51.571 E0.66331
G1 X65.143 Y52.157 E0.73002
G1 X65.598 Y52.475 E0.76233
G1 X66.222 Y52.959 E0.80829
G1 X66.793 Y53.504 E0.85424
G1 X67.519 Y54.394 E0.92109
G1 X67.839 Y54.851 E0.95356
G1 X68.259 Y55.52 E0.99954
G1 X68.609 Y56.228 E1.04551
G1 X68.985 Y57.311 E1.11223
G1 X69.128 Y57.846 E1.14447
G1 X69.293 Y58.618 E1.19042
G1 X69.38 Y59.403 E1.23639
G1 X69.363 Y60.546 E1.30292
G1 X69.314 Y61.101 E1.33535
G1 X69.205 Y61.883 E1.38131
G1 X69.017 Y62.65 E1.42727
G1 X68.611 Y63.716 E1.49367
G1 X68.377 Y64.217 E1.52585
G1 X68.007 Y64.914 E1.57178
G1 X67.569 Y65.571 E1.61774
G1 X66.825 Y66.431 E1.68393
G1 X66.432 Y66.824 E1.71628
G1 X65.846 Y67.354 E1.76227
G1 X65.21 Y67.821 E1.8082
G1 X64.224 Y68.373 E1.87397
G1 X63.722 Y68.608 E1.90623
G1 X62.991 Y68.906 E1.95218
G1 X62.233 Y69.129 E1.99817
G1 X61.103 Y69.314 E2.06482
G1 X60.55 Y69.363 E2.09713
G1 X59.761 Y69.392 E2.14309
G1 X58.973 Y69.342 E2.18904
G1 X57.855 Y69.13 E2.25528
G1 X57.318 Y68.987 E2.28762
G1 X56.566 Y68.746 E2.33358
G1 X55.842 Y68.429 E2.37959
G1 X54.851 Y67.839 E2.44672
G1 X54.394 Y67.519 E2.47919
G1 X53.771 Y67.034 E2.52515
G1 X53.2 Y66.489 E2.57109
G1 X52.475 Y65.598 E2.63795
G1 X52.157 Y65.143 E2.67026
G1 X51.738 Y64.474 E2.71621
G1 X51.388 Y63.766 E2.76218
G1 X51.013 Y62.682 E2.82894
G1 X50.87 Y62.145 E2.86128
G1 X50.705 Y61.373 E2.90723
G1 X50.62 Y60.588 E2.95319
G1 X50.637 Y59.45 E3.01944
G1 X50.686 Y58.897 E3.05175
G1 X50.796 Y58.114 E3.09777
G1 X50.984 Y57.348 E3.14368
G1 X51.389 Y56.284 E3.20995
G1 X51.623 Y55.783 E3.24213
G1 X51.993 Y55.086 E3.28806
G1 X52.431 Y54.429 E3.33402
G1 X53.175 Y53.569 E3.40021
G1 X53.568 Y53.176 E3.43256
G0 F3600 X53.85 Y53.458
G1 F1800 X54.422 Y52.944 E3.47732
G1 X55.044 Y52.491 E3.52211
G1 X55.946 Y51.989 E3.58219
G1 X56.448 Y51.754 E3.61445
G1 X57.16 Y51.465 E3.65918
G1 X57.899 Y51.251 E3.70396
G1 X58.932 Y51.085 E3.76486
G1 X59.485 Y51.036 E3.79717
G1 X60.254 Y51.008 E3.84196
G1 X61.021 Y51.06 E3.88671
G1 X62.042 Y51.256 E3.94722
G1 X62.579 Y51.399 E3.97957
G1 X63.311 Y51.635 E4.02433
G1 X64.015 Y51.946 E4.06913
G1 X64.914 Y52.485 E4.13014
G1 X65.369 Y52.803 E4.16245
G1 X65.976 Y53.275 E4.2072
G1 X66.53 Y53.809 E4.25199
G1 X67.192 Y54.623 E4.31306
G1 X67.512 Y55.08 E4.34553
G1 X67.92 Y55.733 E4.39035
G1 X68.257 Y56.424 E4.4351
G1 X68.599 Y57.414 E4.49606
G1 X68.742 Y57.949 E4.5283
G1 X68.902 Y58.702 E4.5731
G1 X68.983 Y59.466 E4.61782
G1 X68.964 Y60.511 E4.67866
G1 X68.915 Y61.066 E4.71108
G1 X68.808 Y61.827 E4.75581
G1 X68.622 Y62.574 E4.80062
G1 X68.249 Y63.547 E4.86127
G1 X68.015 Y64.048 E4.89346
G1 X67.653 Y64.727 E4.93825
G1 X67.224 Y65.364 E4.98295
G1 X66.543 Y66.149 E5.04344
G1 X66.15 Y66.542 E5.07579
G1 X65.578 Y67.056 E5.12055
G1 X64.956 Y67.509 E5.16533
G1 X64.054 Y68.011 E5.22542
G1 X63.552 Y68.246 E5.25768
G1 X62.84 Y68.535 E5.30241
G1 X62.101 Y68.749 E5.34719
G1 X61.068 Y68.915 E5.40808
G1 X60.515 Y68.964 E5.4404
G1 X59.746 Y68.992 E5.48519
G1 X58.979 Y68.94 E5.52993
G1 X57.958 Y68.744 E5.59045
G1 X57.421 Y68.601 E5.62279
G1 X56.689 Y68.365 E5.66756
G1 X55.985 Y68.054 E5.71235
G1 X55.08 Y67.512 E5.77375
G1 X54.623 Y67.192 E5.80623
G1 X54.017 Y66.718 E5.85101
G1 X53.463 Y66.185 E5.89575
G1 X52.803 Y65.369 E5.95684
G1 X52.485 Y64.914 E5.98915
G1 X52.077 Y64.262 E6.03392
G1 X51.74 Y63.57 E6.07872
G1 X51.399 Y62.579 E6.13972
G1 X51.256 Y62.042 E6.17206
G1 X51.097 Y61.29 E6.2168
G1 X51.017 Y60.525 E6.26157
G1 X51.036 Y59.485 E6.32212
G1 X51.085 Y58.932 E6.35443
G1 X51.192 Y58.17 E6.39922
G1 X51.379 Y57.424 E6.44398
G1 X51.751 Y56.453 E6.5045
G1 X51.985 Y55.952 E6.53669
G1 X52.347 Y55.273 E6.58148
G1 X52.776 Y54.636 E6.62618
G1 X53.457 Y53.851 E6.68667
G1 X53.85 Y53.458 E6.71902
G0 F3600 X54.133 Y53.741
G1 F1800 X54.69 Y53.241 E6.76258
G1 X55.296 Y52.804 E6.80607
G1 X56.115 Y52.351 E6.86054
G1 X56.617 Y52.116 E6.89281
G1 X57.311 Y51.836 E6.93637
G1 X58.03 Y51.631 E6.97988
G1 X58.967 Y51.483 E7.0351
G1 X59.52 Y51.434 E7.06741
G1 X60.268 Y51.408 E7.11097
G1 X61.014 Y51.462 E7.15451
G1 X61.939 Y51.643 E7.20937
G1 X62.476 Y51.786 E7.24172
G1 X63.188 Y52.017 E7.28528
G1 X63.871 Y52.322 E7.32882
G1 X64.685 Y52.812 E7.38412
G1 X65.14 Y53.13 E7.41643
G1 X65.729 Y53.591 E7.45997
G1 X66.266 Y54.112 E7.50352
G1 X66.864 Y54.853 E7.55894
G1 X67.184 Y55.31 E7.59141
G1 X67.58 Y55.945 E7.63497
G1 X67.905 Y56.618 E7.67847
G1 X68.213 Y57.517 E7.73378
G1 X68.356 Y58.052 E7.76602
G1 X68.51 Y58.784 E7.80956
G1 X68.585 Y59.529 E7.85314
G1 X68.566 Y60.476 E7.90827
G1 X68.517 Y61.031 E7.9407
G1 X68.411 Y61.771 E7.98421
G1 X68.227 Y62.496 E8.02775
G1 X67.886 Y63.377 E8.08273
G1 X67.652 Y63.878 E8.11492
G1 X67.3 Y64.538 E8.15846
G1 X66.879 Y65.157 E8.20203
G1 X66.26 Y65.866 E8.25681
G1 X65.867 Y66.259 E8.28916
G1 X65.31 Y66.759 E8.33273
G1 X64.704 Y67.196 E8.37621
G1 X63.885 Y67.649 E8.43069
G1 X63.383 Y67.884 E8.46295
G1 X62.689 Y68.164 E8.50651
G1 X61.97 Y68.369 E8.55003
G1 X61.033 Y68.517 E8.60524
G1 X60.48 Y68.566 E8.63756
G1 X59.732 Y68.592 E8.68112
G1 X58.986 Y68.538 E8.72465
G1 X58.061 Y68.357 E8.77952
G1 X57.524 Y68.214 E8.81186
G1 X56.812 Y67.983 E8.85543
G1 X56.129 Y67.678 E8.89897
G1 X55.31 Y67.184 E8.95464
G1 X54.853 Y66.864 E8.98711
G1 X54.264 Y66.403 E9.03065
G1 X53.728 Y65.881 E9.07419
G1 X53.13 Y65.14 E9.12962
G1 X52.812 Y64.685 E9.16193
G1 X52.417 Y64.05 E9.20545
G1 X52.092 Y63.376 E9.24901
G1 X51.786 Y62.476 E9.30434
G1 X51.643 Y61.939 E9.33668
G1 X51.489 Y61.207 E9.38022
G1 X51.415 Y60.463 E9.42374
G1 X51.434 Y59.52 E9.47864
G1 X51.483 Y58.967 E9.51095
G1 X51.589 Y58.227 E9.55446
G1 X51.773 Y57.502 E9.598
G1 X52.114 Y56.623 E9.65288
G1 X52.348 Y56.122 E9.68506
G1 X52.7 Y55.462 E9.7286
G1 X53.121 Y54.843 E9.77217
G1 X53.74 Y54.134 E9.82695
G1 X54.133 Y53.741 E9.8593
G0 F3600 X54.416 Y54.024
G1 F1800 X54.957 Y53.54 E9.90156
G1 X55.548 Y53.117 E9.94386
G1 X56.285 Y52.714 E9.99275
G1 X56.787 Y52.479 E10.02501
G1 X57.461 Y52.207 E10.06732
G1 X58.16 Y52.012 E10.10956
G1 X59.002 Y51.882 E10.15915
G1 X59.555 Y51.833 E10.19146
G1 X60.281 Y51.809 E10.23374
G1 X61.006 Y51.864 E10.27606
G1 X61.836 Y52.029 E10.32531
G1 X62.373 Y52.172 E10.35766
G1 X63.064 Y52.398 E10.39998
G1 X63.726 Y52.697 E10.44226
G1 X64.456 Y53.14 E10.49196
G1 X64.911 Y53.458 E10.52427
G1 X65.482 Y53.907 E10.56655
G1 X66.001 Y54.415 E10.60882
G1 X66.536 Y55.082 E10.65859
G1 X66.856 Y55.539 E10.69106
G1 X67.24 Y56.156 E10.73336
G1 X67.553 Y56.812 E10.77567
G1 X67.826 Y57.621 E10.82536
G1 X67.969 Y58.156 E10.8576
G1 X68.118 Y58.867 E10.89988
G1 X68.187 Y59.59 E10.94215
G1 X68.167 Y60.44 E10.99164
G1 X68.118 Y60.995 E11.02407
G1 X68.015 Y61.714 E11.06635
G1 X67.833 Y62.418 E11.10867
G1 X67.524 Y63.208 E11.15804
G1 X67.29 Y63.709 E11.19023
G1 X66.947 Y64.349 E11.23249
G1 X66.535 Y64.948 E11.27481
G1 X65.977 Y65.583 E11.32401
G1 X65.584 Y65.976 E11.35636
G1 X65.043 Y66.46 E11.39861
G1 X64.452 Y66.883 E11.44092
G1 X63.715 Y67.286 E11.48981
G1 X63.213 Y67.521 E11.52207
G1 X62.539 Y67.793 E11.56437
G1 X61.84 Y67.988 E11.60661
G1 X60.998 Y68.118 E11.6562
G1 X60.445 Y68.167 E11.68852
G1 X59.719 Y68.191 E11.7308
G1 X58.994 Y68.136 E11.77312
G1 X58.164 Y67.971 E11.82237
G1 X57.627 Y67.828 E11.85472
G1 X56.936 Y67.602 E11.89703
G1 X56.274 Y67.303 E11.93931
G1 X55.539 Y66.856 E11.98938
G1 X55.082 Y66.536 E12.02186
G1 X54.511 Y66.088 E12.0641
G1 X53.993 Y65.579 E12.10637
G1 X53.458 Y64.911 E12.15619
G1 X53.14 Y64.456 E12.1885
G1 X52.758 Y63.839 E12.23073
G1 X52.445 Y63.183 E12.27304
G1 X52.172 Y62.373 E12.32279
G1 X52.029 Y61.836 E12.35514
G1 X51.881 Y61.125 E12.39741
G1 X51.812 Y60.402 E12.43968
G1 X51.833 Y59.555 E12.489
G1 X51.882 Y59.002 E12.52131
G1 X51.986 Y58.284 E12.56354
G1 X52.168 Y57.58 E12.60586
G1 X52.476 Y56.792 E12.65511
G1 X52.71 Y56.291 E12.68729
G1 X53.053 Y55.651 E12.72956
G1 X53.465 Y55.052 E12.77187
G1 X54.023 Y54.417 E12.82107
G1 X54.416 Y54.024 E12.85342
G0 F3600 X54.699 Y54.307
G1 F1800 X55.224 Y53.838 E12.8944
G1 X55.799 Y53.432 E12.93537
G1 X56.454 Y53.076 E12.97876
G1 X56.956 Y52.841 E13.01102
G1 X57.61 Y52.579 E13.05203
G1 X58.289 Y52.393 E13.09301
G1 X59.038 Y52.28 E13.1371
G1 X59.591 Y52.231 E13.16941
G1 X60.294 Y52.209 E13.21035
G1 X60.996 Y52.267 E13.25135
G1 X61.733 Y52.416 E13.29511
G1 X62.27 Y52.559 E13.32746
G1 X62.939 Y52.778 E13.36843
G1 X63.579 Y53.072 E13.40942
G1 X64.227 Y53.468 E13.45363
G1 X64.682 Y53.786 E13.48594
G1 X65.235 Y54.222 E13.52693
G1 X65.735 Y54.717 E13.56788
G1 X66.209 Y55.312 E13.61216
G1 X66.529 Y55.769 E13.64463
G1 X66.899 Y56.367 E13.68556
G1 X67.199 Y57.004 E13.72654
G1 X67.44 Y57.724 E13.77073
G1 X67.583 Y58.259 E13.80297
G1 X67.726 Y58.948 E13.84393
G1 X67.789 Y59.649 E13.88489
G1 X67.769 Y60.405 E13.92891
G1 X67.72 Y60.96 E13.96134
G1 X67.618 Y61.657 E14.00234
G1 X67.438 Y62.337 E14.04328
G1 X67.161 Y63.039 E14.08721
G1 X66.927 Y63.54 E14.1194
G1 X66.594 Y64.16 E14.16036
G1 X66.192 Y64.738 E14.20134
G1 X65.694 Y65.3 E14.24504
G1 X65.301 Y65.693 E14.27739
G1 X64.776 Y66.162 E14.31837
G1 X64.201 Y66.568 E14.35934
G1 X63.546 Y66.924 E14.40273
G1 X63.044 Y67.159 E14.43499
G1 X62.39 Y67.421 E14.476
G1 X61.711 Y67.607 E14.51698
G1 X60.962 Y67.72 E14.56107
G1 X60.409 Y67.769 E14.59338
G1 X59.706 Y67.791 E14.63432
G1 X59.004 Y67.733 E14.67532
G1 X58.267 Y67.584 E14.71908
G1 X57.73 Y67.441 E14.75143
G1 X57.061 Y67.222 E14.7924
G1 X56.421 Y66.928 E14.83339
G1 X55.769 Y66.529 E14.87789
G1 X55.312 Y66.209 E14.91036
G1 X54.759 Y65.773 E14.95135
G1 X54.259 Y65.277 E14.99234
G1 X53.786 Y64.682 E15.03658
G1 X53.468 Y64.227 E15.06889
G1 X53.098 Y63.628 E15.10987
G1 X52.799 Y62.991 E15.15083
G1 X52.559 Y62.27 E15.19506
G1 X52.416 Y61.733 E15.22741
G1 X52.274 Y61.044 E15.26835
G1 X52.21 Y60.343 E15.30932
G1 X52.231 Y59.591 E15.35311
G1 X52.28 Y59.038 E15.38542
G1 X52.382 Y58.341 E15.42643
G1 X52.562 Y57.661 E15.46737
G1 X52.839 Y56.961 E15.51119
G1 X53.073 Y56.46 E15.54337
G1 X53.406 Y55.84 E15.58433
G1 X53.808 Y55.262 E15.62531
G1 X54.306 Y54.7 E15.66902
G1 X54.699 Y54.307 E15.70137
G0 F3600 X54.982 Y54.59
G1 F1800 X55.491 Y54.137 E15.74103
G1 X56.049 Y53.748 E15.78062
G1 X56.624 Y53.438 E15.81864
G1 X57.126 Y53.203 E15.85091
G1 X57.759 Y52.951 E15.89056
G1 X58.416 Y52.775 E15.93015
G1 X59.073 Y52.679 E15.9688
G1 X59.626 Y52.63 E16.00111
G1 X60.307 Y52.609 E16.04077
G1 X60.985 Y52.669 E16.08039
G1 X61.63 Y52.802 E16.11872
G1 X62.167 Y52.945 E16.15106
G1 X62.814 Y53.159 E16.19073
G1 X63.431 Y53.447 E16.23036
G1 X63.998 Y53.796 E16.26911
G1 X64.453 Y54.114 E16.30142
G1 X64.987 Y54.536 E16.34104
G1 X65.468 Y55.018 E16.38067
G1 X65.881 Y55.541 E16.41946
G1 X66.201 Y55.998 E16.45194
G1 X66.558 Y56.578 E16.49158
G1 X66.845 Y57.195 E16.53118
G1 X67.053 Y57.827 E16.56991
G1 X67.196 Y58.362 E16.60214
G1 X67.333 Y59.029 E16.64178
G1 X67.391 Y59.708 E16.68144
G1 X67.371 Y60.37 E16.71999
G1 X67.322 Y60.925 E16.75242
G1 X67.222 Y61.599 E16.79208
G1 X67.044 Y62.256 E16.8317
G1 X66.799 Y62.869 E16.87013
G1 X66.565 Y63.37 E16.90231
G1 X66.241 Y63.969 E16.94195
G1 X65.849 Y64.526 E16.98159
G1 X65.411 Y65.017 E17.01989
G1 X65.018 Y65.41 E17.05224
G1 X64.509 Y65.863 E17.0919
G1 X63.951 Y66.252 E17.13149
G1 X63.376 Y66.562 E17.16951
G1 X62.874 Y66.797 E17.20178
G1 X62.241 Y67.049 E17.24143
G1 X61.584 Y67.225 E17.28102
G1 X60.927 Y67.321 E17.31967
G1 X60.374 Y67.37 E17.35198
G1 X59.693 Y67.391 E17.39164
G1 X59.015 Y67.331 E17.43126
G1 X58.37 Y67.198 E17.46959
G1 X57.833 Y67.055 E17.50193
G1 X57.186 Y66.841 E17.5416
G1 X56.569 Y66.553 E17.58123
G1 X55.998 Y66.201 E17.62027
G1 X55.541 Y65.881 E17.65275
G1 X55.007 Y65.458 E17.6924
G1 X54.527 Y64.976 E17.73199
G1 X54.114 Y64.453 E17.77078
G1 X53.796 Y63.998 E17.80309
G1 X53.439 Y63.418 E17.84273
G1 X53.153 Y62.8 E17.88237
G1 X52.945 Y62.167 E17.92115
G1 X52.802 Y61.63 E17.9535
G1 X52.666 Y60.963 E17.99312
G1 X52.609 Y60.285 E18.03272
G1 X52.63 Y59.626 E18.0711
G1 X52.679 Y59.073 E18.10341
G1 X52.778 Y58.4 E18.143
G1 X52.956 Y57.742 E18.18268
G1 X53.201 Y57.131 E18.221
G1 X53.435 Y56.63 E18.25318
G1 X53.759 Y56.031 E18.29282
G1 X54.151 Y55.474 E18.33246
G1 X54.589 Y54.983 E18.37076
G1 X54.982 Y54.59 E18.40311
G0 F3600 X55.265 Y54.873
G1 F1800 X55.757 Y54.437 E18.44137
G1 X56.298 Y54.065 E18.47959
G1 X56.794 Y53.8 E18.51232
G1 X57.296 Y53.565 E18.54458
G1 X57.906 Y53.324 E18.58276
G1 X58.542 Y53.158 E18.62102
G1 X59.108 Y53.077 E18.6543
G1 X59.661 Y53.028 E18.68661
G1 X60.318 Y53.01 E18.72487
G1 X60.972 Y53.072 E18.7631
G1 X61.528 Y53.189 E18.79617
G1 X62.065 Y53.332 E18.82852
G1 X62.688 Y53.539 E18.86673
G1 X63.282 Y53.821 E18.905
G1 X63.768 Y54.124 E18.93834
G1 X64.223 Y54.442 E18.97065
G1 X64.738 Y54.85 E19.00889
G1 X65.199 Y55.318 E19.04713
G1 X65.553 Y55.771 E19.08059
G1 X65.873 Y56.228 E19.11306
G1 X66.217 Y56.788 E19.15132
G1 X66.49 Y57.385 E19.18952
G1 X66.667 Y57.931 E19.22293
G1 X66.81 Y58.466 E19.25517
G1 X66.941 Y59.109 E19.29336
G1 X66.992 Y59.764 E19.3316
G1 X66.972 Y60.335 E19.36486
G1 X66.923 Y60.89 E19.39729
G1 X66.826 Y61.54 E19.43554
G1 X66.65 Y62.173 E19.47378
G1 X66.437 Y62.7 E19.50686
G1 X66.203 Y63.201 E19.53905
G1 X65.889 Y63.778 E19.57728
G1 X65.507 Y64.313 E19.61555
G1 X65.128 Y64.734 E19.64852
G1 X64.735 Y65.127 E19.68087
G1 X64.243 Y65.563 E19.71913
G1 X63.702 Y65.935 E19.75735
G1 X63.206 Y66.2 E19.79008
G1 X62.704 Y66.435 E19.82234
G1 X62.094 Y66.676 E19.86052
G1 X61.458 Y66.842 E19.89878
G1 X60.892 Y66.923 E19.93205
G1 X60.339 Y66.972 E19.96437
G1 X59.682 Y66.99 E20.00262
G1 X59.028 Y66.928 E20.04086
G1 X58.472 Y66.811 E20.07393
G1 X57.935 Y66.668 E20.10628
G1 X57.312 Y66.461 E20.14449
G1 X56.718 Y66.179 E20.18276
G1 X56.228 Y65.873 E20.21639
G1 X55.771 Y65.553 E20.24886
G1 X55.256 Y65.145 E20.2871
G1 X54.796 Y64.676 E20.32534
G1 X54.442 Y64.223 E20.3588
G1 X54.124 Y63.768 E20.39111
G1 X53.781 Y63.208 E20.42933
G1 X53.509 Y62.61 E20.46757
G1 X53.332 Y62.065 E20.50092
G1 X53.189 Y61.528 E20.53327
G1 X53.059 Y60.884 E20.57151
G1 X53.008 Y60.229 E20.60975
G1 X53.028 Y59.661 E20.64283
G1 X53.077 Y59.108 E20.67515
G1 X53.175 Y58.459 E20.71335
G1 X53.351 Y57.826 E20.75159
G1 X53.563 Y57.3 E20.7846
G1 X53.797 Y56.799 E20.81678
G1 X54.111 Y56.222 E20.85502
G1 X54.493 Y55.687 E20.89328
G1 X54.872 Y55.266 E20.92625
G1 X55.265 Y54.873 E20.9586
G0 F3600 X55.547 Y55.155
G1 F1800 X56.022 Y54.738 E20.99539
G1 X56.545 Y54.383 E21.03218
G1 X56.963 Y54.163 E21.05968
G1 X57.465 Y53.928 E21.09194
G1 X58.053 Y53.696 E21.12873
G1 X58.666 Y53.541 E21.16554
G1 X59.144 Y53.476 E21.19361
G1 X59.697 Y53.427 E21.22593
G1 X60.329 Y53.411 E21.26273
G1 X60.958 Y53.475 E21.29953
G1 X61.425 Y53.575 E21.32732
G1 X61.962 Y53.718 E21.35967
G1 X62.561 Y53.919 E21.39644
G1 X63.13 Y54.194 E21.43323
G1 X63.539 Y54.452 E21.46137
G1 X63.994 Y54.77 E21.49369
G1 X64.488 Y55.164 E21.53046
G1 X64.929 Y55.617 E21.56726
G1 X65.226 Y56 E21.59547
G1 X65.546 Y56.457 E21.62794
G1 X65.875 Y56.997 E21.66475
G1 X66.133 Y57.574 E21.70154
G1 X66.28 Y58.034 E21.72965
G1 X66.423 Y58.569 E21.76188
G1 X66.548 Y59.189 E21.79869
G1 X66.593 Y59.819 E21.83546
G1 X66.574 Y60.3 E21.86347
G1 X66.525 Y60.855 E21.8959
G1 X66.429 Y61.48 E21.93271
G1 X66.256 Y62.088 E21.9695
G1 X66.074 Y62.531 E21.99738
G1 X65.84 Y63.032 E22.02956
G1 X65.537 Y63.587 E22.06637
G1 X65.166 Y64.099 E22.10317
G1 X64.846 Y64.452 E22.1309
G1 X64.453 Y64.845 E22.16325
G1 X63.978 Y65.262 E22.20004
G1 X63.455 Y65.617 E22.23683
G1 X63.037 Y65.837 E22.26433
G1 X62.535 Y66.072 E22.29659
G1 X61.947 Y66.304 E22.33338
G1 X61.334 Y66.459 E22.37018
