;FLAVOR:RepRap
;TIME:1721
;Filament used: 1.90152m
;Layer height: 0.2
;Generated with Cura_SteamEngine master
M190 S60
M104 S195
M109 S195
G28 ;Home
G1 Z15.0 F6000 ;Move the platform down 15mm
;Prime the extruder
G92 E0
G1 F200 E3
G92 E0
;LAYER_COUNT:24
;LAYER:0
M107
G1 F1500 E-6.5
G0 F3600 X20.711 Y41.777 Z0.35
;TYPE:SKIRT
G1 F1500 E0
G1 F1800 X21.42 Y41.429 E0.04597
G1 X21.801 Y41.276 E0.06987
G1 X22.023 Y41.194 E0.08364
G1 X22.777 Y40.958 E0.12963
G1 X23.551 Y40.8 E0.17561
G1 X24.722 Y40.711 E0.24396
G1 X55.843 Y40.694 E2.05537
G1 X56.631 Y40.734 E2.10129
G1 X57.412 Y40.853 E2.14728
G1 X58.177 Y41.05 E2.19326
G1 X58.274 Y41.086 E2.19928
G1 X58.721 Y40.945 E2.22656
G1 X59.495 Y40.786 E2.27255
G1 X60.28 Y40.705 E2.31849
G1 X60.693 Y40.695 E2.34253
G1 X91.905 Y40.738 E4.15924
G1 X92.693 Y40.779 E4.20516
G1 X93.474 Y40.9 E4.25116
G1 X94.238 Y41.099 E4.29712
G1 X94.978 Y41.374 E4.34307
G1 X95.913 Y41.853 E4.40421
G1 X96.234 Y42.046 E4.42601
G1 X96.89 Y42.487 E4.47202
G1 X97.497 Y42.992 E4.51798
G1 X98.05 Y43.555 E4.56392
G1 X98.544 Y44.172 E4.60992
G1 X98.972 Y44.835 E4.65585
G1 X99.461 Y45.844 E4.72112
G1 X99.61 Y46.218 E4.74455
G1 X99.865 Y46.966 E4.79055
G1 X100.043 Y47.735 E4.83649
G1 X100.142 Y48.518 E4.88243
G1 X100.161 Y49.308 E4.92842
G1 X100.101 Y50.095 E4.97436
G1 X99.965 Y50.857 E5.01942
G1 X94.917 Y72.762 E6.32782
G1 X94.701 Y73.521 E6.37375
G1 X94.409 Y74.255 E6.41973
G1 X94.045 Y74.956 E6.46571
G1 X93.616 Y75.608 E6.51113
G1 X93.362 Y75.956 E6.53621
G1 X92.865 Y76.57 E6.58219
G1 X92.308 Y77.13 E6.62816
G1 X91.698 Y77.631 E6.67411
G1 X91.04 Y78.067 E6.72005
G1 X90.45 Y78.384 E6.75903
G1 X90.226 Y78.492 E6.77351
G1 X89.498 Y78.799 E6.8195
G1 X88.743 Y79.03 E6.86545
G1 X87.968 Y79.184 E6.91144
G1 X86.849 Y79.266 E6.97675
G1 X60.693 Y79.302 E8.49917
G1 X59.904 Y79.263 E8.54515
G1 X59.123 Y79.145 E8.59112
G1 X58.358 Y78.948 E8.6371
G1 X58.261 Y78.912 E8.64312
G1 X57.808 Y79.055 E8.67077
G1 X57.034 Y79.214 E8.71676
G1 X56.249 Y79.295 E8.7627
G1 X55.841 Y79.305 E8.78645
G1 X29.76 Y79.286 E10.3045
G1 X28.972 Y79.245 E10.35043
G1 X28.191 Y79.125 E10.39642
G1 X27.427 Y78.927 E10.44236
G1 X26.495 Y78.567 E10.50051
G1 X26.153 Y78.409 E10.52244
G1 X25.454 Y78.042 E10.5684
G1 X24.795 Y77.606 E10.61439
G1 X24.184 Y77.106 E10.66034
G1 X23.627 Y76.546 E10.70631
G1 X23.294 Y76.152 E10.73634
G1 X23.113 Y75.922 E10.75338
G1 X22.657 Y75.277 E10.79935
G1 X22.268 Y74.59 E10.84531
G1 X21.951 Y73.867 E10.89125
G1 X21.643 Y72.855 E10.95283
G1 X16.565 Y50.887 E12.26519
G1 X16.427 Y50.109 E12.31119
G1 X16.367 Y49.322 E12.35713
G1 X16.418 Y48.223 E12.42116
G1 X16.442 Y48.018 E12.43318
G1 X16.573 Y47.239 E12.47915
G1 X16.783 Y46.478 E12.5251
G1 X17.068 Y45.742 E12.57104
G1 X17.427 Y45.038 E12.61704
G1 X17.854 Y44.374 E12.66299
G1 X18.531 Y43.556 E12.72479
G1 X18.846 Y43.224 E12.75143
G1 X19.417 Y42.68 E12.79733
G1 X20.041 Y42.196 E12.8433
G1 X20.711 Y41.777 E12.88929
G0 F3600 X20.958 Y42.098
G1 F1800 X21.94 Y41.651 E12.9521
G1 X22.162 Y41.569 E12.96587
G1 X22.896 Y41.341 E13.01061
G1 X23.651 Y41.19 E13.05542
G1 X24.722 Y41.111 E13.11793
G1 X55.843 Y41.094 E14.92933
G1 X56.611 Y41.134 E14.9741
G1 X57.371 Y41.253 E15.01887
G1 X58.114 Y41.45 E15.06361
G1 X58.262 Y41.506 E15.07282
G1 X58.333 Y41.478 E15.07727
G1 X59.075 Y41.272 E15.12209
G1 X59.833 Y41.144 E15.16683
G1 X60.692 Y41.095 E15.21691
G1 X91.904 Y41.138 E17.03361
G1 X92.672 Y41.179 E17.07838
G1 X93.432 Y41.3 E17.12317
G1 X94.175 Y41.498 E17.16793
G1 X94.893 Y41.773 E17.21268
G1 X95.707 Y42.196 E17.26607
G1 X96.028 Y42.389 E17.28788
G1 X96.666 Y42.819 E17.33266
G1 X97.255 Y43.313 E17.3774
G1 X97.791 Y43.865 E17.42219
G1 X98.265 Y44.47 E17.46692
G1 X98.675 Y45.122 E17.51175
G1 X99.09 Y45.992 E17.56785
G1 X99.239 Y46.366 E17.59129
G1 X99.486 Y47.095 E17.63609
G1 X99.656 Y47.845 E17.68085
G1 X99.747 Y48.608 E17.72558
G1 X99.759 Y49.377 E17.77034
G1 X99.691 Y50.144 E17.81516
G1 X99.575 Y50.767 E17.85204
G1 X94.527 Y72.672 E19.16045
G1 X94.316 Y73.411 E19.20518
G1 X94.028 Y74.125 E19.24999
G1 X93.669 Y74.805 E19.29475
G1 X93.293 Y75.373 E19.3344
G1 X93.039 Y75.721 E19.35947
G1 X92.554 Y76.318 E19.40424
G1 X92.01 Y76.861 E19.44898
G1 X91.412 Y77.345 E19.49376
G1 X90.767 Y77.764 E19.53853
G1 X90.276 Y78.024 E19.57087
G1 X90.052 Y78.132 E19.58534
G1 X89.343 Y78.429 E19.63008
G1 X88.606 Y78.652 E19.6749
G1 X87.851 Y78.796 E19.71964
G1 X86.848 Y78.866 E19.77816
G1 X60.692 Y78.902 E21.30058
G1 X59.924 Y78.863 E21.34534
G1 X59.164 Y78.745 E21.3901
G1 X58.42 Y78.548 E21.4349
G1 X58.272 Y78.492 E21.44411
G1 X58.196 Y78.522 E21.44887
G1 X57.454 Y78.728 E21.49369
G1 X56.696 Y78.856 E21.53843
G1 X55.842 Y78.905 E21.58822
G1 X29.761 Y78.886 E23.10627
G1 X28.993 Y78.845 E23.15104
G1 X28.233 Y78.725 E23.19582
G1 X27.49 Y78.527 E23.24058
G1 X26.662 Y78.204 E23.29231
G1 X26.32 Y78.046 E23.31424
G1 X25.64 Y77.687 E23.35899
G1 X25 Y77.26 E23.40377
G1 X24.408 Y76.769 E23.44854
G1 X23.871 Y76.219 E23.49328
G1 X23.609 Y75.904 E23.51713
G1 X23.428 Y75.674 E23.53417
G1 X22.984 Y75.046 E23.57893
G1 X22.608 Y74.375 E23.6237
G1 X22.304 Y73.669 E23.66844
G1 X22.033 Y72.765 E23.72337
G1 X16.955 Y50.797 E25.03574
G1 X16.821 Y50.039 E25.08055
G1 X16.766 Y49.272 E25.1253
G1 X16.815 Y48.27 E25.18369
G1 X16.839 Y48.065 E25.19571
G1 X16.968 Y47.306 E25.24052
G1 X17.175 Y46.566 E25.28524
G1 X17.458 Y45.85 E25.33006
G1 X17.814 Y45.168 E25.37484
G1 X18.238 Y44.527 E25.41957
G1 X18.821 Y43.832 E25.47237
G1 X19.136 Y43.5 E25.49901
G1 X19.693 Y42.97 E25.54376
G1 X20.303 Y42.501 E25.58855
G1 X20.958 Y42.098 E25.63331
G0 F3600 X21.204 Y42.42
G1 F1800 X22.079 Y42.027 E25.68914
G1 X22.301 Y41.945 E25.70291
G1 X23.015 Y41.723 E25.74643
G1 X23.749 Y41.579 E25.78997
G1 X24.722 Y41.511 E25.84674
G1 X55.843 Y41.494 E27.65815
G1 X56.59 Y41.534 E27.70169
G1 X57.329 Y41.653 E27.74526
G1 X58.05 Y41.85 E27.78876
G1 X58.267 Y41.935 E27.80233
G1 X58.695 Y41.783 E27.82876
G1 X59.423 Y41.609 E27.87233
G1 X60.165 Y41.514 E27.91587
G1 X60.692 Y41.495 E27.94657
G1 X91.904 Y41.538 E29.76327
G1 X92.651 Y41.579 E29.80681
G1 X93.389 Y41.699 E29.85033
G1 X94.11 Y41.898 E29.89387
G1 X94.806 Y42.172 E29.93741
G1 X95.501 Y42.539 E29.98315
G1 X95.822 Y42.732 E30.00495
G1 X96.442 Y43.151 E30.04851
G1 X97.013 Y43.634 E30.09204
G1 X97.529 Y44.175 E30.13555
G1 X97.985 Y44.768 E30.1791
G1 X98.375 Y45.407 E30.22267
G1 X98.718 Y46.14 E30.26977
G1 X98.867 Y46.514 E30.29321
G1 X99.106 Y47.223 E30.33675
G1 X99.269 Y47.953 E30.38029
G1 X99.352 Y48.697 E30.42386
G1 X99.356 Y49.445 E30.4674
G1 X99.28 Y50.189 E30.51093
G1 X99.185 Y50.677 E30.53987
G1 X94.137 Y72.582 E31.84827
G1 X93.931 Y73.301 E31.89181
G1 X93.648 Y73.994 E31.93538
G1 X93.294 Y74.652 E31.97887
G1 X92.97 Y75.137 E32.01282
G1 X92.716 Y75.485 E32.03789
G1 X92.243 Y76.065 E32.08145
G1 X91.712 Y76.591 E32.12496
G1 X91.127 Y77.057 E32.16849
G1 X90.495 Y77.458 E32.21206
G1 X90.102 Y77.663 E32.23786
G1 X89.878 Y77.771 E32.25233
G1 X89.188 Y78.06 E32.29587
G1 X88.471 Y78.273 E32.33941
G1 X87.735 Y78.408 E32.38296
G1 X86.848 Y78.466 E32.4347
G1 X60.692 Y78.502 E33.95712
G1 X59.945 Y78.463 E34.00066
G1 X59.206 Y78.345 E34.04421
G1 X58.484 Y78.148 E34.08778
G1 X58.267 Y78.063 E34.10134
G1 X57.834 Y78.217 E34.12809
G1 X57.106 Y78.391 E34.17166
G1 X56.364 Y78.486 E34.2152
G1 X55.842 Y78.505 E34.2456
G1 X29.761 Y78.486 E35.76365
G1 X29.014 Y78.445 E35.8072
G1 X28.276 Y78.325 E35.85072
G1 X27.554 Y78.127 E35.89429
G1 X26.83 Y77.841 E35.9396
G1 X26.488 Y77.683 E35.96153
G1 X25.827 Y77.333 E36.00506
G1 X25.207 Y76.915 E36.04859
G1 X24.634 Y76.433 E36.09217
G1 X23.923 Y75.657 E36.15343
G1 X23.742 Y75.427 E36.17046
G1 X23.312 Y74.815 E36.214
G1 X22.949 Y74.161 E36.25753
G1 X22.658 Y73.472 E36.30107
G1 X22.423 Y72.675 E36.34943
G1 X17.345 Y50.707 E37.6618
G1 X17.216 Y49.97 E37.70535
G1 X17.166 Y49.223 E37.74893
G1 X17.212 Y48.316 E37.80179
G1 X17.236 Y48.111 E37.8138
G1 X17.363 Y47.374 E37.85733
G1 X17.568 Y46.654 E37.9009
G1 X17.848 Y45.961 E37.94441
G1 X18.2 Y45.301 E37.98795
G1 X18.621 Y44.682 E38.03152
G1 X19.111 Y44.107 E38.07549
G1 X19.426 Y43.775 E38.10213
G1 X19.969 Y43.261 E38.14565
G1 X20.564 Y42.807 E38.18921
G1 X21.204 Y42.42 E38.23274
G0 F3600 X21.448 Y42.743
G1 F1800 X22.217 Y42.402 E38.28171
G1 X22.439 Y42.32 E38.29548
G1 X23.133 Y42.106 E38.33775
G1 X23.847 Y41.97 E38.38006
G1 X24.722 Y41.911 E38.4311
G1 X55.843 Y41.894 E40.24251
G1 X56.569 Y41.934 E40.28483
G1 X57.285 Y42.053 E40.32708
G1 X57.984 Y42.25 E40.36935
G1 X58.26 Y42.361 E40.38666
G1 X58.36 Y42.317 E40.39302
G1 X59.053 Y42.099 E40.4353
G1 X59.765 Y41.959 E40.47754
G1 X60.691 Y41.895 E40.53157
G1 X91.903 Y41.938 E42.34827
G1 X92.628 Y41.979 E42.39054
G1 X93.345 Y42.099 E42.43285
G1 X94.043 Y42.298 E42.4751
G1 X94.716 Y42.572 E42.51739
G1 X95.295 Y42.882 E42.55562
G1 X95.616 Y43.075 E42.57742
G1 X96.217 Y43.483 E42.6197
G1 X96.769 Y43.954 E42.66194
G1 X97.267 Y44.484 E42.70427
G1 X97.703 Y45.064 E42.7465
G1 X98.072 Y45.69 E42.78879
G1 X98.346 Y46.288 E42.82708
G1 X98.495 Y46.662 E42.85051
G1 X98.727 Y47.351 E42.89283
G1 X98.881 Y48.061 E42.93512
G1 X98.956 Y48.783 E42.97737
G1 X98.952 Y49.509 E43.01962
G1 X98.867 Y50.231 E43.06194
G1 X98.795 Y50.587 E43.08308
G1 X93.747 Y72.492 E44.39148
G1 X93.546 Y73.19 E44.43376
G1 X93.268 Y73.861 E44.47604
G1 X92.919 Y74.498 E44.51831
G1 X92.647 Y74.901 E44.54661
G1 X92.393 Y75.249 E44.57169
G1 X91.933 Y75.811 E44.61396
G1 X91.414 Y76.32 E44.65627
G1 X90.843 Y76.768 E44.69852
G1 X89.928 Y77.303 E44.76021
G1 X89.704 Y77.411 E44.77468
G1 X89.034 Y77.69 E44.81693
G1 X88.336 Y77.894 E44.85925
G1 X87.621 Y78.019 E44.9015
G1 X86.847 Y78.066 E44.94664
G1 X60.691 Y78.102 E46.46905
G1 X59.966 Y78.063 E46.51131
G1 X59.249 Y77.945 E46.55361
G1 X58.55 Y77.748 E46.59588
G1 X58.274 Y77.637 E46.61319
G1 X58.169 Y77.683 E46.61987
G1 X57.476 Y77.901 E46.66215
G1 X56.764 Y78.041 E46.70439
G1 X55.842 Y78.105 E46.75818
G1 X29.761 Y78.086 E48.27623
G1 X29.036 Y78.046 E48.3185
G1 X28.32 Y77.926 E48.36075
G1 X27.621 Y77.728 E48.40304
G1 X26.998 Y77.478 E48.44211
G1 X26.656 Y77.32 E48.46404
G1 X26.014 Y76.979 E48.50635
G1 X25.414 Y76.57 E48.54862
G1 X24.862 Y76.098 E48.59089
G1 X24.237 Y75.41 E48.64499
G1 X24.056 Y75.18 E48.66203
G1 X23.639 Y74.585 E48.70432
G1 X23.29 Y73.948 E48.74659
G1 X23.013 Y73.277 E48.78885
G1 X22.813 Y72.584 E48.83083
G1 X17.735 Y50.616 E50.1432
G1 X17.61 Y49.901 E50.18545
G1 X17.565 Y49.176 E50.22773
G1 X17.61 Y48.363 E50.27512
G1 X17.634 Y48.158 E50.28713
G1 X17.758 Y47.442 E50.32943
G1 X17.96 Y46.744 E50.37172
G1 X18.237 Y46.073 E50.41397
G1 X18.587 Y45.436 E50.45628
G1 X19.004 Y44.842 E50.49852
G1 X19.401 Y44.382 E50.53389
G1 X19.716 Y44.05 E50.56053
G1 X20.244 Y43.552 E50.60277
G1 X20.824 Y43.114 E50.64508
G1 X21.448 Y42.743 E50.68733
G0 F3600 X21.691 Y43.068
G1 F1800 X22.356 Y42.777 E50.72958
G1 X22.578 Y42.695 E50.74336
G1 X23.251 Y42.489 E50.78432
G1 X23.943 Y42.361 E50.82528
G1 X24.723 Y42.311 E50.87078
G1 X55.844 Y42.294 E52.68218
G1 X56.546 Y42.334 E52.72311
G1 X57.24 Y42.453 E52.76409
G1 X57.916 Y42.649 E52.80506
G1 X58.264 Y42.795 E52.82703
G1 X58.725 Y42.612 E52.85589
G1 X59.405 Y42.428 E52.8969
G1 X60.101 Y42.322 E52.93788
G1 X60.691 Y42.295 E52.97225
G1 X91.903 Y42.338 E54.78896
G1 X92.605 Y42.379 E54.82989
G1 X93.299 Y42.499 E54.87088
G1 X93.974 Y42.697 E54.91182
G1 X94.623 Y42.971 E54.95283
G1 X95.089 Y43.224 E54.98369
G1 X95.41 Y43.417 E55.00549
G1 X95.992 Y43.814 E55.0465
G1 X96.525 Y44.274 E55.08748
G1 X97.002 Y44.791 E55.12842
G1 X97.418 Y45.359 E55.1694
G1 X97.767 Y45.971 E55.21041
G1 X97.975 Y46.436 E55.24006
G1 X98.124 Y46.81 E55.26349
G1 X98.347 Y47.478 E55.30448
G1 X98.493 Y48.167 E55.34547
G1 X98.559 Y48.868 E55.38646
G1 X98.546 Y49.571 E55.42738
G1 X98.406 Y50.497 E55.48189
G1 X93.358 Y72.402 E56.79029
G1 X93.161 Y73.078 E56.83128
G1 X92.889 Y73.727 E56.87224
G1 X92.545 Y74.342 E56.91325
G1 X92.324 Y74.665 E56.93603
G1 X92.07 Y75.013 E56.96111
G1 X91.623 Y75.557 E57.00209
G1 X91.118 Y76.047 E57.04305
G1 X90.56 Y76.477 E57.08405
G1 X89.755 Y76.943 E57.13819
G1 X89.531 Y77.051 E57.15266
G1 X88.88 Y77.32 E57.19366
G1 X88.203 Y77.514 E57.23465
G1 X87.509 Y77.63 E57.27561
G1 X86.847 Y77.666 E57.3142
G1 X60.691 Y77.702 E58.83662
G1 X59.988 Y77.663 E58.8776
G1 X59.294 Y77.545 E58.91857
G1 X58.618 Y77.348 E58.95955
G1 X58.27 Y77.203 E58.9815
G1 X57.804 Y77.388 E59.01068
G1 X57.124 Y77.572 E59.05168
G1 X56.428 Y77.678 E59.09266
G1 X55.842 Y77.705 E59.12681
G1 X29.761 Y77.686 E60.64486
G1 X29.059 Y77.646 E60.68578
G1 X28.365 Y77.526 E60.72678
G1 X27.689 Y77.328 E60.76778
G1 X27.166 Y77.114 E60.80067
G1 X26.824 Y76.956 E60.8226
G1 X26.202 Y76.625 E60.86361
G1 X25.623 Y76.226 E60.90453
G1 X25.092 Y75.763 E60.94554
G1 X24.552 Y75.162 E60.99257
G1 X24.371 Y74.932 E61.0096
G1 X23.968 Y74.355 E61.05057
G1 X23.632 Y73.736 E61.09156
G1 X23.369 Y73.083 E61.13254
G1 X23.202 Y72.494 E61.16817
G1 X18.124 Y50.526 E62.48054
G1 X18.005 Y49.833 E62.52147
G1 X17.965 Y49.13 E62.56245
G1 X18.007 Y48.409 E62.60449
G1 X18.031 Y48.204 E62.6165
G1 X18.152 Y47.511 E62.65745
G1 X18.352 Y46.835 E62.69848
G1 X18.626 Y46.187 E62.73943
G1 X18.972 Y45.574 E62.7804
G1 X19.386 Y45.004 E62.82141
G1 X19.691 Y44.658 E62.84825
G1 X20.006 Y44.326 E62.87489
G1 X20.519 Y43.843 E62.9159
G1 X21.083 Y43.422 E62.95687
G1 X21.691 Y43.068 E62.99782
G0 F3600 X21.933 Y43.394
G1 F1800 X22.494 Y43.152 E63.03338
G1 X22.716 Y43.07 E63.04716
G1 X23.368 Y42.872 E63.08682
G1 X24.038 Y42.752 E63.12643
G1 X24.723 Y42.711 E63.16638
G1 X55.844 Y42.694 E64.97778
G1 X56.524 Y42.734 E65.01743
G1 X57.194 Y42.853 E65.05704
G1 X57.846 Y43.049 E65.09667
G1 X58.265 Y43.232 E65.12328
G1 X58.444 Y43.144 E65.13489
G1 X59.086 Y42.919 E65.17448
G1 X59.751 Y42.77 E65.21415
G1 X60.69 Y42.695 E65.26898
G1 X91.902 Y42.738 E67.08568
G1 X92.582 Y42.779 E67.12533
G1 X93.252 Y42.899 E67.16495
G1 X93.903 Y43.097 E67.20456
G1 X94.527 Y43.37 E67.2442
G1 X94.883 Y43.567 E67.26788
G1 X95.204 Y43.76 E67.28968
G1 X95.766 Y44.145 E67.32934
G1 X96.279 Y44.592 E67.36894
G1 X96.736 Y45.097 E67.40858
G1 X97.13 Y45.652 E67.4482
G1 X97.457 Y46.249 E67.48782
G1 X97.603 Y46.584 E67.50909
G1 X97.752 Y46.958 E67.53252
G1 X97.967 Y47.605 E67.5722
G1 X98.104 Y48.272 E67.61184
G1 X98.162 Y48.95 E67.65145
G1 X98.14 Y49.63 E67.69105
G1 X98.016 Y50.407 E67.73684
G1 X92.968 Y72.312 E69.04525
G1 X92.776 Y72.966 E69.08492
G1 X92.509 Y73.592 E69.12453
G1 X92.001 Y74.429 E69.18152
G1 X91.747 Y74.777 E69.2066
G1 X91.314 Y75.303 E69.24625
G1 X90.822 Y75.774 E69.2859
G1 X90.279 Y76.184 E69.3255
G1 X89.581 Y76.582 E69.37227
G1 X89.357 Y76.69 E69.38674
G1 X88.727 Y76.95 E69.42641
G1 X88.072 Y77.133 E69.466
G1 X87.399 Y77.239 E69.50565
G1 X86.846 Y77.266 E69.53788
G1 X60.69 Y77.302 E71.06029
G1 X60.01 Y77.263 E71.09994
G1 X59.34 Y77.145 E71.13954
G1 X58.688 Y76.948 E71.17918
G1 X58.269 Y76.766 E71.20577
G1 X58.085 Y76.856 E71.21769
G1 X57.443 Y77.081 E71.25729
G1 X56.778 Y77.23 E71.29695
G1 X55.843 Y77.305 E71.35155
G1 X29.762 Y77.286 E72.8696
G1 X29.082 Y77.246 E72.90925
G1 X28.412 Y77.126 E72.94887
G1 X27.76 Y76.928 E72.98853
G1 X27.334 Y76.751 E73.01538
G1 X26.992 Y76.593 E73.03731
G1 X26.391 Y76.272 E73.07697
G1 X25.833 Y75.882 E73.11659
G1 X25.324 Y75.43 E73.15621
G1 X24.866 Y74.915 E73.19633
G1 X24.685 Y74.685 E73.21336
G1 X24.296 Y74.126 E73.253
G1 X23.975 Y73.525 E73.29266
G1 X23.727 Y72.891 E73.33229
G1 X23.592 Y72.404 E73.3617
G1 X18.514 Y50.436 E74.67407
G1 X18.4 Y49.765 E74.71368
G1 X18.365 Y49.085 E74.75332
G1 X18.404 Y48.456 E74.79
G1 X18.428 Y48.251 E74.80201
G1 X18.547 Y47.58 E74.84168
G1 X18.744 Y46.928 E74.88132
G1 X19.015 Y46.304 E74.92092
G1 X19.358 Y45.716 E74.96054
G1 X19.981 Y44.933 E75.01878
G1 X20.296 Y44.601 E75.04542
G1 X20.793 Y44.135 E75.08507
G1 X21.341 Y43.731 E75.1247
G1 X21.933 Y43.394 E75.16435
G0 F3600 X22.633 Y43.528
G1 F1800 X22.855 Y43.446 E75.17813
G1 X23.484 Y43.256 E75.21637
G1 X24.131 Y43.144 E75.25459
G1 X24.723 Y43.111 E75.2891
G1 X55.844 Y43.094 E77.10051
G1 X56.5 Y43.134 E77.13876
G1 X57.146 Y43.253 E77.17699
G1 X57.773 Y43.449 E77.21523
G1 X58.262 Y43.671 E77.24649
G1 X58.813 Y43.429 E77.28152
G1 X59.442 Y43.239 E77.31976
