;FLAVOR:RepRap
;TIME:2172
;Filament used: 2.41503m
;Layer height: 0.2
;Generated with Cura_SteamEngine master
M190 S50
M104 S195
M109 S195
G28 ;Home
G1 Z15.0 F6000 ;Move the platform down 15mm
;Prime the extruder
G92 E0
G1 F200 E3
G92 E0
;LAYER_COUNT:195
;LAYER:0
M107
G1 F1500 E-6.5
G0 F3600 X46.271 Y49.016 Z0.35
;TYPE:SKIRT
G1 F1500 E0
G1 F1800 X46.795 Y48.528 E0.04168
G1 X47.715 Y47.748 E0.11188
G1 X48.342 Y47.269 E0.15781
G1 X48.96 Y46.886 E0.20013
G1 X50.357 Y46.107 E0.29323
G1 X51.066 Y45.757 E0.33925
G1 X51.879 Y45.459 E0.38965
G1 X53.412 Y44.991 E0.48294
G1 X54.178 Y44.799 E0.52891
G1 X54.812 Y44.7 E0.56626
G1 X56.023 Y44.563 E0.63719
G1 X56.811 Y44.515 E0.68314
G1 X57.402 Y44.53 E0.71755
G1 X59.015 Y44.634 E0.81163
G1 X59.799 Y44.725 E0.85757
G1 X60.569 Y44.894 E0.90346
G1 X62.113 Y45.316 E0.99662
G1 X62.864 Y45.562 E1.04262
G1 X63.45 Y45.816 E1.07979
G1 X64.541 Y46.343 E1.15032
G1 X65.233 Y46.723 E1.19627
G1 X65.572 Y46.943 E1.21979
G1 X66.561 Y47.624 E1.28968
G1 X67.188 Y48.104 E1.33564
G1 X67.65 Y48.53 E1.37222
G1 X68.771 Y49.65 E1.46445
G1 X69.301 Y50.236 E1.51044
G1 X69.801 Y50.922 E1.55985
G1 X70.675 Y52.269 E1.65331
G1 X71.071 Y52.953 E1.69932
G1 X71.342 Y53.54 E1.73695
G1 X71.627 Y54.23 E1.7804
G1 X72.608 Y52.53 E1.89464
G1 X73.037 Y51.867 E1.94061
G1 X73.531 Y51.251 E1.98657
G1 X74.084 Y50.688 E2.0325
G1 X74.692 Y50.183 E2.0785
G1 X75.347 Y49.743 E2.12443
G1 X76.044 Y49.371 E2.17042
G1 X76.775 Y49.071 E2.21641
G1 X77.532 Y48.847 E2.26236
G1 X78.308 Y48.701 E2.30832
G1 X79.364 Y48.629 E2.36993
G1 X83.372 Y48.629 E2.60321
G1 X84.161 Y48.669 E2.6492
G1 X84.941 Y48.788 E2.69512
G1 X85.706 Y48.986 E2.74112
G1 X86.446 Y49.26 E2.78705
G1 X87.155 Y49.608 E2.83302
G1 X87.826 Y50.026 E2.87903
G1 X88.45 Y50.509 E2.92496
G1 X89.023 Y51.052 E2.97091
G1 X89.538 Y51.651 E3.01689
G1 X90.128 Y52.53 E3.07851
G1 X92.13 Y55.999 E3.31163
G1 X92.489 Y56.702 E3.35758
G1 X92.776 Y57.438 E3.40356
G1 X92.987 Y58.199 E3.44952
G1 X93.12 Y58.978 E3.49552
G1 X93.173 Y59.765 E3.54143
G1 X93.146 Y60.555 E3.58744
G1 X93.04 Y61.337 E3.63337
G1 X92.855 Y62.105 E3.67935
G1 X92.594 Y62.85 E3.7253
G1 X92.129 Y63.798 E3.78676
G1 X90.127 Y67.266 E4.01984
G1 X89.698 Y67.929 E4.0658
G1 X89.205 Y68.545 E4.11172
G1 X88.651 Y69.108 E4.1577
G1 X88.043 Y69.612 E4.20366
G1 X87.388 Y70.053 E4.24962
G1 X86.691 Y70.425 E4.29561
G1 X85.96 Y70.724 E4.34158
G1 X85.203 Y70.948 E4.38753
G1 X84.427 Y71.094 E4.43349
G1 X83.372 Y71.166 E4.49504
G1 X79.364 Y71.166 E4.72832
G1 X78.575 Y71.126 E4.77431
G1 X77.795 Y71.007 E4.82023
G1 X77.03 Y70.809 E4.86623
G1 X76.29 Y70.535 E4.91216
G1 X75.581 Y70.187 E4.95813
G1 X74.91 Y69.769 E5.00414
G1 X74.286 Y69.286 E5.05007
G1 X73.713 Y68.743 E5.09602
G1 X73.198 Y68.144 E5.142
G1 X72.609 Y67.266 E5.20354
G1 X71.65 Y65.605 E5.31517
G1 X71.414 Y66.219 E5.35346
G1 X71.094 Y66.941 E5.39943
G1 X70.788 Y67.491 E5.43606
G1 X70.163 Y68.514 E5.50584
G1 X69.567 Y69.357 E5.56593
G1 X69.059 Y69.984 E5.6129
G1 X68.368 Y70.732 E5.67217
G1 X67.509 Y71.547 E5.74109
G1 X66.909 Y72.061 E5.78708
G1 X66.398 Y72.424 E5.82356
G1 X65.055 Y73.299 E5.91686
G1 X64.372 Y73.696 E5.96284
G1 X63.773 Y73.974 E6.00128
G1 X62.666 Y74.431 E6.07098
G1 X61.922 Y74.695 E6.11693
G1 X61.511 Y74.805 E6.1417
G1 X60.349 Y75.084 E6.21126
G1 X59.573 Y75.23 E6.25722
G1 X58.933 Y75.289 E6.29462
G1 X57.338 Y75.372 E6.38759
G1 X56.549 Y75.374 E6.43351
G1 X55.711 Y75.287 E6.48255
G1 X54.148 Y75.039 E6.57466
G1 X53.375 Y74.876 E6.62064
G1 X52.386 Y74.541 E6.68142
G1 X50.546 Y73.779 E6.79734
G1 X49.832 Y73.441 E6.84332
G1 X49.113 Y73.002 E6.89235
G1 X48.119 Y72.319 E6.96255
G1 X47.491 Y71.839 E7.00856
G1 X47.172 Y71.553 E7.0335
G1 X46.301 Y70.728 E7.10332
G1 X45.756 Y70.157 E7.14927
G1 X45.349 Y69.642 E7.18748
G1 X44.415 Y68.353 E7.28013
G1 X43.984 Y67.691 E7.32611
G1 X43.702 Y67.158 E7.3612
G1 X43.178 Y66.069 E7.43155
G1 X42.872 Y65.341 E7.47751
G1 X42.732 Y64.916 E7.50355
G1 X42.387 Y63.759 E7.57383
G1 X42.139 Y62.621 E7.64162
G1 X41.971 Y61.432 E7.71151
G1 X41.9 Y60.646 E7.75745
G1 X41.9 Y60.048 E7.79226
G1 X41.961 Y58.425 E7.88679
G1 X42.03 Y57.638 E7.93277
G1 X42.186 Y56.835 E7.98039
G1 X42.575 Y55.271 E8.07419
G1 X42.804 Y54.516 E8.12011
G1 X43.141 Y53.718 E8.17053
G1 X43.847 Y52.279 E8.26383
G1 X44.231 Y51.589 E8.30979
G1 X44.758 Y50.844 E8.36291
G1 X45.747 Y49.607 E8.45509
G1 X46.271 Y49.016 E8.50106
G0 F3600 X46.57 Y49.282
G1 F1800 X47.054 Y48.834 E8.53945
G1 X47.974 Y48.054 E8.60965
G1 X48.585 Y47.587 E8.65442
G1 X49.155 Y47.235 E8.69341
G1 X50.552 Y46.456 E8.78651
G1 X51.242 Y46.117 E8.83126
G1 X51.995 Y45.841 E8.87794
G1 X53.528 Y45.373 E8.97123
G1 X54.275 Y45.187 E9.01604
G1 X54.857 Y45.098 E9.05031
G1 X56.068 Y44.961 E9.12124
G1 X56.836 Y44.914 E9.16603
G1 X57.376 Y44.929 E9.19747
G1 X58.989 Y45.033 E9.29155
G1 X59.753 Y45.123 E9.33633
G1 X60.464 Y45.28 E9.37871
G1 X62.008 Y45.702 E9.47187
G1 X62.738 Y45.943 E9.51662
G1 X63.276 Y46.177 E9.55077
G1 X64.367 Y46.704 E9.62129
G1 X65.345 Y47.272 E9.68712
G1 X66.334 Y47.953 E9.75701
G1 X66.944 Y48.422 E9.8018
G1 X67.367 Y48.813 E9.83532
G1 X68.488 Y49.933 E9.92756
G1 X69.003 Y50.504 E9.97231
G1 X69.466 Y51.14 E10.0181
G1 X70.34 Y52.487 E10.11156
G1 X70.724 Y53.153 E10.15631
G1 X70.972 Y53.692 E10.19084
G1 X71.428 Y54.797 E10.26042
G1 X71.548 Y55.168 E10.28312
G1 X72.955 Y52.73 E10.44696
G1 X73.373 Y52.085 E10.49169
G1 X73.857 Y51.486 E10.53652
G1 X74.399 Y50.942 E10.58122
G1 X74.996 Y50.456 E10.62602
G1 X75.639 Y50.035 E10.67076
G1 X76.323 Y49.683 E10.71553
G1 X77.04 Y49.403 E10.76033
G1 X77.782 Y49.2 E10.80511
G1 X78.541 Y49.075 E10.84988
G1 X79.364 Y49.029 E10.89786
G1 X83.372 Y49.029 E11.13115
G1 X84.14 Y49.069 E11.17591
G1 X84.9 Y49.188 E11.22068
G1 X85.643 Y49.386 E11.26544
G1 X86.362 Y49.66 E11.31022
G1 X87.048 Y50.007 E11.35497
G1 X87.695 Y50.423 E11.39974
G1 X88.295 Y50.904 E11.4445
G1 X88.842 Y51.445 E11.48928
G1 X89.33 Y52.04 E11.53407
G1 X89.781 Y52.73 E11.58205
G1 X91.783 Y56.199 E11.81518
G1 X92.133 Y56.884 E11.85995
G1 X92.409 Y57.602 E11.90472
G1 X92.609 Y58.345 E11.94951
G1 X92.731 Y59.104 E11.99426
G1 X92.774 Y59.872 E12.03903
G1 X92.737 Y60.64 E12.08378
G1 X92.62 Y61.401 E12.12859
G1 X92.425 Y62.145 E12.17336
G1 X92.153 Y62.864 E12.21811
G1 X91.783 Y63.598 E12.26595
G1 X89.781 Y67.066 E12.49903
G1 X89.362 Y67.711 E12.54379
G1 X88.879 Y68.309 E12.58854
G1 X88.336 Y68.854 E12.63332
G1 X87.739 Y69.34 E12.67812
G1 X87.096 Y69.761 E12.72286
G1 X86.412 Y70.113 E12.76763
G1 X85.695 Y70.392 E12.81241
G1 X84.953 Y70.595 E12.85719
G1 X84.194 Y70.72 E12.90196
G1 X83.372 Y70.766 E12.94988
G1 X79.364 Y70.766 E13.18317
G1 X78.596 Y70.726 E13.22793
G1 X77.836 Y70.607 E13.2727
G1 X77.093 Y70.409 E13.31746
G1 X76.374 Y70.135 E13.36225
G1 X75.688 Y69.788 E13.40699
G1 X75.041 Y69.372 E13.45176
G1 X74.441 Y68.891 E13.49652
G1 X73.894 Y68.35 E13.5413
G1 X73.406 Y67.755 E13.58609
G1 X72.955 Y67.066 E13.63402
G1 X71.577 Y64.678 E13.7945
G1 X71.04 Y66.076 E13.88167
G1 X70.728 Y66.779 E13.92643
G1 X70.447 Y67.282 E13.95997
G1 X69.822 Y68.305 E14.02975
G1 X69.257 Y69.105 E14.08675
G1 X68.749 Y69.732 E14.13372
G1 X68.092 Y70.442 E14.19003
G1 X67.233 Y71.257 E14.25895
G1 X66.649 Y71.757 E14.3037
G1 X66.18 Y72.089 E14.33714
G1 X64.837 Y72.964 E14.43044
G1 X64.171 Y73.35 E14.47525
G1 X63.621 Y73.604 E14.51051
G1 X62.514 Y74.061 E14.58021
G1 X61.418 Y74.416 E14.64727
G1 X60.256 Y74.695 E14.71683
G1 X59.499 Y74.836 E14.76165
G1 X58.913 Y74.89 E14.7959
G1 X57.318 Y74.973 E14.88886
G1 X56.548 Y74.973 E14.93368
G1 X55.773 Y74.892 E14.97904
G1 X54.21 Y74.644 E15.07115
G1 X53.458 Y74.484 E15.1159
G1 X52.539 Y74.172 E15.17239
G1 X50.699 Y73.41 E15.28831
G1 X50.004 Y73.079 E15.33311
G1 X49.339 Y72.672 E15.37849
G1 X48.345 Y71.989 E15.44869
G1 X47.735 Y71.521 E15.49344
G1 X47.447 Y71.263 E15.51595
G1 X46.576 Y70.438 E15.58578
G1 X46.046 Y69.88 E15.63057
G1 X45.673 Y69.407 E15.66563
G1 X44.739 Y68.118 E15.75828
G1 X44.32 Y67.473 E15.80305
G1 X44.063 Y66.985 E15.83515
G1 X43.539 Y65.896 E15.90549
G1 X43.242 Y65.186 E15.95029
G1 X43.116 Y64.802 E15.97381
G1 X42.771 Y63.645 E16.04409
G1 X42.535 Y62.565 E16.10843
G1 X42.367 Y61.376 E16.17833
G1 X42.299 Y60.61 E16.22309
G1 X42.299 Y60.063 E16.25492
G1 X42.36 Y58.44 E16.34946
G1 X42.429 Y57.674 E16.39422
G1 X42.574 Y56.932 E16.43823
G1 X42.963 Y55.368 E16.53204
G1 X43.187 Y54.632 E16.57682
G1 X43.5 Y53.895 E16.62342
G1 X44.206 Y52.456 E16.71672
G1 X44.581 Y51.784 E16.76151
G1 X45.07 Y51.094 E16.81073
G1 X46.059 Y49.857 E16.90291
G1 X46.57 Y49.282 E16.94769
G0 F3600 X47.312 Y49.139
G1 F1800 X48.232 Y48.359 E17.01789
G1 X48.828 Y47.906 E17.06147
G1 X49.35 Y47.584 E17.09717
G1 X50.747 Y46.805 E17.19027
G1 X51.419 Y46.476 E17.23382
G1 X52.112 Y46.224 E17.27674
G1 X53.645 Y45.756 E17.37003
G1 X54.371 Y45.576 E17.41357
G1 X54.902 Y45.495 E17.44483
G1 X56.113 Y45.358 E17.51577
G1 X56.86 Y45.314 E17.55932
G1 X57.35 Y45.329 E17.58786
G1 X58.963 Y45.433 E17.68194
G1 X59.706 Y45.52 E17.72548
G1 X60.359 Y45.666 E17.76442
G1 X61.903 Y46.088 E17.85759
G1 X62.613 Y46.323 E17.90112
G1 X63.102 Y46.537 E17.93219
G1 X64.193 Y47.064 E18.00271
G1 X65.118 Y47.602 E18.06499
G1 X66.107 Y48.283 E18.13489
G1 X66.699 Y48.739 E18.17838
G1 X67.085 Y49.096 E18.20898
G1 X68.206 Y50.216 E18.30122
G1 X68.706 Y50.772 E18.34474
G1 X69.13 Y51.358 E18.38684
G1 X70.004 Y52.705 E18.4803
G1 X70.377 Y53.353 E18.52382
G1 X70.603 Y53.845 E18.55533
G1 X71.059 Y54.95 E18.62491
G1 X71.395 Y55.986 E18.68831
G1 X71.437 Y56.16 E18.69872
G1 X73.301 Y52.93 E18.91579
G1 X73.709 Y52.303 E18.95933
G1 X74.182 Y51.723 E19.00289
G1 X74.714 Y51.197 E19.04643
G1 X75.298 Y50.731 E19.08992
G1 X75.93 Y50.329 E19.13352
G1 X76.6 Y49.998 E19.17702
G1 X77.302 Y49.739 E19.22057
G1 X78.028 Y49.558 E19.26412
G1 X78.769 Y49.454 E19.30767
G1 X79.364 Y49.429 E19.34233
G1 X83.372 Y49.429 E19.57562
G1 X84.119 Y49.469 E19.61916
G1 X84.857 Y49.588 E19.66267
G1 X85.579 Y49.786 E19.70625
G1 X86.275 Y50.059 E19.74976
G1 X86.938 Y50.406 E19.79332
G1 X87.561 Y50.821 E19.83689
G1 X88.135 Y51.3 E19.88041
G1 X88.656 Y51.837 E19.92395
G1 X89.115 Y52.427 E19.96746
G1 X89.435 Y52.93 E20.00216
G1 X91.437 Y56.399 E20.23529
G1 X91.776 Y57.066 E20.27884
G1 X92.041 Y57.765 E20.32235
G1 X92.231 Y58.489 E20.36592
G1 X92.342 Y59.229 E20.40947
G1 X92.374 Y59.976 E20.45299
G1 X92.325 Y60.723 E20.49656
G1 X92.198 Y61.46 E20.54009
G1 X91.992 Y62.179 E20.58363
G1 X91.711 Y62.872 E20.62715
G1 X91.436 Y63.398 E20.6617
G1 X89.434 Y66.866 E20.89478
G1 X89.026 Y67.493 E20.93832
G1 X88.554 Y68.072 E20.9818
G1 X88.022 Y68.599 E21.02538
G1 X87.437 Y69.065 E21.06892
G1 X86.806 Y69.466 E21.11243
G1 X86.135 Y69.798 E21.15601
G1 X85.433 Y70.056 E21.19954
G1 X84.707 Y70.237 E21.24309
G1 X83.966 Y70.341 E21.28664
G1 X83.372 Y70.366 E21.32125
G1 X79.364 Y70.366 E21.55453
G1 X78.617 Y70.326 E21.59808
G1 X77.879 Y70.207 E21.64159
G1 X77.157 Y70.009 E21.68516
G1 X76.461 Y69.736 E21.72868
G1 X75.798 Y69.389 E21.77223
G1 X75.175 Y68.974 E21.8158
G1 X74.601 Y68.495 E21.85932
G1 X74.08 Y67.958 E21.90287
G1 X73.621 Y67.368 E21.94638
G1 X73.302 Y66.866 E21.981
G1 X71.473 Y63.697 E22.19397
G1 X71.455 Y63.78 E22.19891
G1 X71.234 Y64.456 E22.2403
G1 X70.667 Y65.933 E22.33239
G1 X70.362 Y66.616 E22.37593
G1 X70.105 Y67.073 E22.40645
G1 X69.48 Y68.096 E22.47622
G1 X68.946 Y68.854 E22.53019
G1 X68.438 Y69.481 E22.57716
G1 X67.817 Y70.152 E22.63038
G1 X66.958 Y70.967 E22.6993
G1 X66.389 Y71.452 E22.74282
G1 X65.961 Y71.754 E22.7733
G1 X64.618 Y72.629 E22.8666
G1 X63.971 Y73.003 E22.9101
G1 X63.468 Y73.234 E22.94232
G1 X62.361 Y73.691 E23.01202
G1 X61.324 Y74.028 E23.07549
G1 X60.162 Y74.307 E23.14505
G1 X59.427 Y74.442 E23.18854
G1 X58.892 Y74.491 E23.21981
G1 X57.297 Y74.574 E23.31278
G1 X56.549 Y74.572 E23.35631
G1 X55.836 Y74.497 E23.39804
G1 X54.273 Y74.249 E23.49016
G1 X53.542 Y74.092 E23.53367
G1 X52.692 Y73.802 E23.58595
G1 X50.852 Y73.04 E23.70187
G1 X50.177 Y72.718 E23.7454
G1 X49.566 Y72.342 E23.78716
G1 X48.572 Y71.659 E23.85735
G1 X47.722 Y70.972 E23.92097
G1 X46.851 Y70.147 E23.99079
G1 X46.336 Y69.604 E24.03435
G1 X45.997 Y69.172 E24.06632
G1 X45.063 Y67.883 E24.15897
G1 X44.657 Y67.255 E24.2025
G1 X44.423 Y66.811 E24.23171
G1 X43.899 Y65.722 E24.30205
G1 X43.499 Y64.687 E24.36663
G1 X43.154 Y63.53 E24.43691
G1 X42.931 Y62.509 E24.49774
G1 X42.763 Y61.32 E24.56763
G1 X42.698 Y60.575 E24.61116
G1 X42.699 Y60.078 E24.64009
G1 X42.76 Y58.455 E24.73462
G1 X42.828 Y57.71 E24.77816
G1 X42.962 Y57.028 E24.81862
G1 X43.351 Y55.464 E24.91242
G1 X43.57 Y54.749 E24.95595
G1 X43.86 Y54.071 E24.99887
G1 X44.566 Y52.632 E25.09217
G1 X44.931 Y51.979 E25.13571
G1 X45.383 Y51.344 E25.18108
G1 X46.372 Y50.107 E25.27326
G1 X46.869 Y49.548 E25.3168
G1 X47.312 Y49.139 E25.35189
G0 F3600 X47.571 Y49.444
G1 F1800 X48.491 Y48.664 E25.42209
G1 X49.07 Y48.225 E25.46439
G1 X49.545 Y47.934 E25.49681
G1 X50.942 Y47.155 E25.58991
G1 X51.595 Y46.836 E25.63221
G1 X52.229 Y46.607 E25.67145
G1 X53.762 Y46.139 E25.76474
G1 X54.467 Y45.965 E25.80701
G1 X54.947 Y45.893 E25.83526
G1 X56.158 Y45.756 E25.90619
G1 X56.883 Y45.714 E25.94846
G1 X57.325 Y45.728 E25.9742
G1 X58.938 Y45.832 E26.06828
G1 X59.659 Y45.918 E26.11055
G1 X60.253 Y46.052 E26.14599
G1 X61.797 Y46.474 E26.23915
G1 X62.486 Y46.703 E26.28141
G1 X62.928 Y46.897 E26.30951
G1 X64.019 Y47.424 E26.38003
G1 X64.891 Y47.931 E26.43874
G1 X65.88 Y48.612 E26.50863
G1 X66.455 Y49.056 E26.55092
G1 X66.802 Y49.379 E26.57851
G1 X67.923 Y50.499 E26.67075
G1 X68.408 Y51.04 E26.71304
G1 X68.795 Y51.576 E26.75152
G1 X69.669 Y52.923 E26.84498
G1 X70.03 Y53.553 E26.88724
G1 X70.233 Y53.997 E26.91566
G1 X70.689 Y55.102 E26.98523
G1 X71.006 Y56.079 E27.04502
G1 X71.285 Y57.241 E27.11458
G1 X71.299 Y57.316 E27.11902
G1 X71.47 Y56.924 E27.14391
G1 X71.646 Y56.599 E27.16542
G1 X73.648 Y53.13 E27.39855
G1 X74.045 Y52.522 E27.44081
G1 X74.506 Y51.961 E27.48308
G1 X75.027 Y51.454 E27.52539
G1 X75.6 Y51.008 E27.56765
G1 X76.218 Y50.627 E27.60991
G1 X76.875 Y50.316 E27.65222
G1 X77.562 Y50.08 E27.6945
G1 X78.27 Y49.92 E27.73675
G1 X78.992 Y49.839 E27.77904
G1 X79.364 Y49.829 E27.8007
G1 X83.372 Y49.829 E28.03398
G1 X84.097 Y49.869 E28.07625
G1 X84.814 Y49.988 E28.11855
G1 X85.513 Y50.186 E28.16084
G1 X86.186 Y50.459 E28.20311
G1 X86.825 Y50.804 E28.24538
G1 X87.422 Y51.218 E28.28766
G1 X87.97 Y51.694 E28.32991
G1 X88.463 Y52.228 E28.37221
G1 X88.893 Y52.813 E28.41447
G1 X89.088 Y53.13 E28.43614
G1 X91.09 Y56.599 E28.66926
G1 X91.418 Y57.247 E28.71154
G1 X91.673 Y57.927 E28.75381
G1 X91.851 Y58.632 E28.79613
G1 X91.951 Y59.351 E28.83838
G1 X91.972 Y60.077 E28.88066
G1 X91.912 Y60.801 E28.92294
G1 X91.773 Y61.514 E28.96522
G1 X91.557 Y62.207 E29.00747
G1 X91.266 Y62.873 E29.04978
G1 X91.09 Y63.198 E29.07129
G1 X89.088 Y66.666 E29.30436
G1 X88.691 Y67.274 E29.34663
G1 X88.229 Y67.835 E29.38893
G1 X87.709 Y68.341 E29.43116
G1 X87.136 Y68.788 E29.47346
G1 X86.517 Y69.168 E29.51574
G1 X85.86 Y69.479 E29.55805
G1 X85.174 Y69.715 E29.60027
G1 X84.465 Y69.875 E29.64258
G1 X83.743 Y69.956 E29.68486
G1 X83.372 Y69.966 E29.70647
G1 X79.364 Y69.966 E29.93975
G1 X78.639 Y69.926 E29.98202
G1 X77.922 Y69.807 E30.02432
G1 X77.223 Y69.609 E30.06661
G1 X76.55 Y69.336 E30.10888
G1 X75.911 Y68.991 E30.15115
G1 X75.314 Y68.577 E30.19343
G1 X74.766 Y68.101 E30.23568
G1 X74.273 Y67.567 E30.27798
G1 X73.843 Y66.982 E30.32024
G1 X73.648 Y66.666 E30.34186
G1 X71.646 Y63.198 E30.57493
G1 X71.318 Y62.55 E30.6172
G1 X71.296 Y62.491 E30.62087
G1 X71.217 Y62.986 E30.65005
G1 X71.063 Y63.696 E30.69233
G1 X70.861 Y64.312 E30.73007
G1 X70.294 Y65.789 E30.82215
G1 X69.996 Y66.452 E30.86446
G1 X69.764 Y66.865 E30.89203
G1 X69.139 Y67.888 E30.96181
G1 X68.635 Y68.602 E31.01268
G1 X68.127 Y69.229 E31.05965
G1 X67.542 Y69.862 E31.10982
G1 X66.683 Y70.677 E31.17874
G1 X66.129 Y71.147 E31.22103
G1 X65.743 Y71.419 E31.24851
G1 X64.4 Y72.294 E31.34181
G1 X63.77 Y72.656 E31.3841
G1 X63.315 Y72.865 E31.41324
G1 X62.208 Y73.322 E31.48295
G1 X61.231 Y73.639 E31.54274
G1 X60.069 Y73.918 E31.61229
G1 X59.354 Y74.048 E31.65459
G1 X58.871 Y74.091 E31.68282
G1 X57.276 Y74.174 E31.77578
G1 X56.55 Y74.172 E31.81804
