;FLAVOR:RepRap
;TIME:3182
;Filament used: 3.59432m
;Layer height: 0.2
;Generated with Cura_SteamEngine master
M190 S50
M104 S195
M109 S195
G28 ;Home
G1 Z15.0 F6000 ;Move the platform down 15mm
;Prime the extruder
G92 E0
G1 F200 E3
G92 E0
;LAYER_COUNT:139
;LAYER:0
M107
G1 F1500 E-6.5
G0 F3600 X45.463 Y42.676 Z0.35
G0 X44.998 Y43.254
;TYPE:SKIRT
G1 F1500 E0
G1 F1800 X45.463 Y42.676 E0.04318
G1 X46.017 Y42.114 E0.08911
G1 X46.293 Y41.885 E0.10999
G1 X46.308 Y41.867 E0.11135
G1 X46.862 Y41.304 E0.15732
G1 X47.47 Y40.8 E0.20329
G1 X48.012 Y40.436 E0.24129
G1 X48.023 Y40.426 E0.24216
G1 X48.645 Y39.939 E0.28814
G1 X49.312 Y39.517 E0.33408
G1 X50.019 Y39.165 E0.38005
G1 X50.091 Y39.138 E0.38452
G1 X50.203 Y39.059 E0.3925
G1 X50.892 Y38.672 E0.4385
G1 X51.616 Y38.357 E0.48445
G1 X52.368 Y38.117 E0.5304
G1 X52.549 Y38.079 E0.54116
G1 X53.187 Y37.793 E0.58186
G1 X53.936 Y37.544 E0.6278
G1 X54.707 Y37.372 E0.67378
G1 X55.491 Y37.279 E0.71973
G1 X55.972 Y37.271 E0.74773
G1 X58.978 Y36.897 E0.92405
G1 X59.765 Y36.839 E0.96998
G1 X60.881 Y36.894 E1.03501
G1 X64.008 Y37.274 E1.21836
G1 X64.435 Y37.277 E1.24322
G1 X65.22 Y37.362 E1.28917
G1 X65.993 Y37.527 E1.33518
G1 X66.744 Y37.768 E1.38109
G1 X67.426 Y38.066 E1.42441
G1 X68.079 Y38.245 E1.46382
G1 X68.815 Y38.531 E1.50978
G1 X69.519 Y38.89 E1.55577
G1 X69.893 Y39.131 E1.58167
G1 X70.433 Y39.375 E1.61616
G1 X71.116 Y39.771 E1.66211
G1 X71.756 Y40.235 E1.70813
G1 X72.001 Y40.454 E1.72725
G1 X72.312 Y40.647 E1.74856
G1 X72.937 Y41.13 E1.79453
G1 X73.509 Y41.674 E1.84048
G1 X73.637 Y41.823 E1.85191
G1 X73.842 Y41.984 E1.86708
G1 X74.41 Y42.532 E1.91302
G1 X74.92 Y43.136 E1.95904
G1 X74.986 Y43.232 E1.96582
G1 X75.026 Y43.269 E1.96899
G1 X75.55 Y43.86 E2.01496
G1 X76.012 Y44.501 E2.06095
G1 X76.188 Y44.806 E2.08145
G1 X76.456 Y45.147 E2.10669
G1 X76.878 Y45.814 E2.15263
G1 X77.084 Y46.227 E2.1795
G1 X77.263 Y46.479 E2.19749
G1 X77.652 Y47.166 E2.24344
G1 X77.97 Y47.888 E2.28936
G1 X77.98 Y47.919 E2.29125
G1 X78.107 Y48.126 E2.30539
G1 X78.451 Y48.837 E2.35136
G1 X78.72 Y49.579 E2.3973
G1 X78.903 Y50.358 E2.44388
G1 X78.958 Y50.468 E2.45104
G1 X79.241 Y51.205 E2.49699
G1 X79.449 Y51.967 E2.54296
G1 X79.578 Y52.746 E2.58892
G1 X79.589 Y52.884 E2.59698
G1 X79.737 Y53.401 E2.62828
G1 X79.834 Y53.945 E2.66044
G1 X79.998 Y54.351 E2.68593
G1 X80.217 Y55.11 E2.73191
G1 X80.332 Y55.701 E2.76695
G1 X80.728 Y58.258 E2.91756
G1 X80.809 Y59.044 E2.96355
G1 X80.811 Y59.833 E3.00948
G1 X80.774 Y60.197 E3.03077
G1 X80.858 Y61.199 E3.0893
G1 X80.884 Y61.989 E3.1353
G1 X80.83 Y62.776 E3.18122
G1 X80.786 Y63.033 E3.1964
G1 X80.788 Y63.091 E3.19977
G1 X80.739 Y63.879 E3.24573
G1 X80.61 Y64.658 E3.29169
G1 X80.6 Y64.696 E3.29398
G1 X80.613 Y65.102 E3.31762
G1 X80.599 Y65.892 E3.36361
G1 X80.505 Y66.676 E3.40957
G1 X80.435 Y66.988 E3.42818
G1 X80.44 Y67.103 E3.43488
G1 X80.449 Y67.121 E3.43605
G1 X80.73 Y67.859 E3.48201
G1 X80.935 Y68.622 E3.528
G1 X81.061 Y69.402 E3.57399
G1 X81.108 Y70.19 E3.61994
G1 X81.075 Y70.979 E3.6659
G1 X80.962 Y71.76 E3.71183
G1 X80.776 Y72.508 E3.75669
G1 X80.702 Y72.988 E3.78496
G1 X80.504 Y73.752 E3.8309
G1 X80.229 Y74.492 E3.87685
G1 X79.881 Y75.201 E3.92282
G1 X79.463 Y75.871 E3.96879
G1 X79.433 Y75.912 E3.97174
G1 X79.196 Y76.343 E4.00037
G1 X78.875 Y76.824 E4.03403
G1 X76.676 Y79.863 E4.25237
G1 X76.181 Y80.478 E4.29832
G1 X75.627 Y81.04 E4.34425
G1 X75.217 Y81.391 E4.37567
G1 X74.465 Y81.99 E4.43162
G1 X73.823 Y82.45 E4.47759
G1 X73.138 Y82.843 E4.52356
G1 X72.417 Y83.165 E4.56952
G1 X71.667 Y83.412 E4.61548
G1 X70.895 Y83.582 E4.66149
G1 X70.111 Y83.673 E4.70743
G1 X69.321 Y83.684 E4.75342
G1 X68.535 Y83.615 E4.79934
G1 X67.759 Y83.467 E4.84533
G1 X67.002 Y83.242 E4.89129
G1 X66.997 Y83.24 E4.89161
G1 X66.525 Y83.644 E4.92777
G1 X65.876 Y84.094 E4.97374
G1 X65.185 Y84.475 E5.01966
G1 X64.458 Y84.785 E5.06567
G1 X63.704 Y85.021 E5.11165
G1 X62.664 Y85.214 E5.17322
G1 X60.901 Y85.419 E5.27653
G1 X60.113 Y85.47 E5.32249
G1 X59.095 Y85.418 E5.38182
G1 X57.332 Y85.212 E5.48513
G1 X56.553 Y85.081 E5.53111
G1 X55.792 Y84.872 E5.57704
G1 X55.055 Y84.587 E5.62304
G1 X54.351 Y84.228 E5.66903
G1 X53.688 Y83.801 E5.71494
G1 X53.07 Y83.308 E5.76095
G1 X53.006 Y83.245 E5.76618
G1 X52.435 Y83.431 E5.80113
G1 X51.664 Y83.599 E5.84706
G1 X50.879 Y83.688 E5.89304
G1 X50.09 Y83.697 E5.93897
G1 X49.303 Y83.626 E5.98496
G1 X48.528 Y83.477 E6.0309
G1 X47.771 Y83.249 E6.07692
G1 X47.042 Y82.947 E6.12284
G1 X46.347 Y82.572 E6.16881
G1 X45.608 Y82.063 E6.22104
G1 X44.891 Y81.506 E6.27389
G1 X44.293 Y80.99 E6.31986
G1 X43.749 Y80.417 E6.36585
G1 X43.345 Y79.902 E6.40395
G1 X41.1 Y76.782 E6.62767
G1 X40.671 Y76.118 E6.67369
G1 X40.568 Y75.916 E6.68688
G1 X40.301 Y75.521 E6.71463
G1 X39.918 Y74.804 E6.76195
G1 X39.817 Y74.589 E6.77577
G1 X39.518 Y73.859 E6.82169
G1 X39.294 Y73.101 E6.8677
G1 X39.135 Y72.173 E6.9225
G1 X39.125 Y72.14 E6.9245
G1 X38.975 Y71.365 E6.97045
G1 X38.903 Y70.578 E7.01645
G1 X38.912 Y69.788 E7.06243
G1 X39 Y69.004 E7.10835
G1 X39.167 Y68.232 E7.15433
G1 X39.411 Y67.481 E7.20029
G1 X39.548 Y67.17 E7.22007
G1 X39.496 Y66.97 E7.2321
G1 X39.375 Y66.189 E7.2781
G1 X39.334 Y65.401 E7.32403
G1 X39.346 Y64.953 E7.35011
G1 X39.381 Y64.326 E7.38666
G1 X39.279 Y63.725 E7.42214
G1 X39.227 Y62.937 E7.46811
G1 X39.239 Y62.591 E7.48826
G1 X39.21 Y62.427 E7.49795
G1 X39.15 Y61.64 E7.54389
G1 X39.171 Y60.841 E7.59042
G1 X39.231 Y60.073 E7.63525
G1 X39.193 Y59.428 E7.67286
G1 X39.205 Y58.938 E7.70139
G1 X39.318 Y56.904 E7.81996
G1 X39.402 Y56.119 E7.86592
G1 X39.541 Y55.436 E7.90648
G1 X39.869 Y54.13 E7.98486
G1 X39.876 Y54.075 E7.98809
G1 X40.012 Y53.297 E8.03406
G1 X40.227 Y52.537 E8.08003
G1 X40.517 Y51.803 E8.12597
G1 X40.529 Y51.779 E8.12753
G1 X40.603 Y51.404 E8.14978
G1 X40.834 Y50.649 E8.19573
G1 X41.139 Y49.921 E8.24167
G1 X41.225 Y49.763 E8.25214
G1 X41.466 Y49.047 E8.29612
G1 X41.792 Y48.328 E8.34207
G1 X42.011 Y47.953 E8.36734
G1 X42.151 Y47.579 E8.39059
G1 X42.501 Y46.871 E8.43656
G1 X42.897 Y46.24 E8.47992
G1 X42.91 Y46.21 E8.48182
G1 X43.294 Y45.52 E8.52778
G1 X43.745 Y44.872 E8.57374
G1 X43.819 Y44.786 E8.58034
G1 X43.914 Y44.615 E8.59173
G1 X44.365 Y43.966 E8.63773
G1 X44.879 Y43.367 E8.68367
G1 X44.998 Y43.254 E8.69322
G0 F3600 X45.309 Y43.505
G1 F1800 X45.327 Y43.477 E8.69516
G1 X45.815 Y42.882 E8.73995
G1 X46.362 Y42.342 E8.78469
G1 X46.588 Y42.16 E8.80158
G1 X46.647 Y42.088 E8.80699
G1 X47.192 Y41.545 E8.85177
G1 X47.79 Y41.061 E8.89655
G1 X48.26 Y40.757 E8.92913
G1 X48.331 Y40.689 E8.93485
G1 X48.941 Y40.22 E8.97964
G1 X49.596 Y39.817 E9.0244
G1 X50.289 Y39.485 E9.06913
G1 X50.299 Y39.481 E9.06976
G1 X50.467 Y39.365 E9.08164
G1 X51.141 Y38.995 E9.12639
G1 X51.85 Y38.697 E9.17116
G1 X52.586 Y38.474 E9.21592
G1 X52.681 Y38.456 E9.22155
G1 X52.684 Y38.454 E9.22176
G1 X53.388 Y38.144 E9.26653
G1 X54.12 Y37.908 E9.3113
G1 X54.873 Y37.75 E9.35608
G1 X55.638 Y37.671 E9.40084
G1 X56.028 Y37.667 E9.42354
G1 X59.027 Y37.294 E9.59945
G1 X59.794 Y37.238 E9.64421
G1 X60.833 Y37.291 E9.70476
G1 X63.983 Y37.673 E9.88945
G1 X64.432 Y37.677 E9.91559
G1 X65.196 Y37.764 E9.96034
G1 X65.948 Y37.929 E10.00516
G1 X66.678 Y38.171 E10.04992
G1 X67.284 Y38.445 E10.08863
G1 X67.445 Y38.477 E10.09818
G1 X68.18 Y38.704 E10.14296
G1 X68.887 Y39.006 E10.18771
G1 X69.559 Y39.38 E10.23247
G1 X69.703 Y39.481 E10.24271
G1 X69.771 Y39.506 E10.24692
G1 X70.462 Y39.844 E10.2917
G1 X71.114 Y40.252 E10.33647
G1 X71.72 Y40.726 E10.38125
G1 X71.778 Y40.782 E10.38594
G1 X72.278 Y41.116 E10.42094
G1 X72.871 Y41.606 E10.46571
G1 X73.397 Y42.144 E10.50951
G1 X73.758 Y42.446 E10.5369
G1 X74.293 Y42.999 E10.58169
G1 X74.713 Y43.536 E10.62137
G1 X74.906 Y43.724 E10.63705
G1 X75.397 Y44.316 E10.68182
G1 X75.824 Y44.956 E10.7266
G1 X75.877 Y45.056 E10.73319
G1 X76.197 Y45.476 E10.76392
G1 X76.598 Y46.133 E10.80872
G1 X76.74 Y46.433 E10.82804
G1 X76.989 Y46.795 E10.85361
G1 X77.357 Y47.471 E10.89841
G1 X77.613 Y48.087 E10.93724
G1 X77.813 Y48.424 E10.96005
G1 X78.135 Y49.122 E11.00479
G1 X78.383 Y49.85 E11.04955
G1 X78.532 Y50.518 E11.08939
G1 X78.632 Y50.722 E11.10262
G1 X78.898 Y51.444 E11.1474
G1 X79.087 Y52.189 E11.19214
G1 X79.168 Y52.85 E11.2309
G1 X79.369 Y53.588 E11.27542
G1 X79.439 Y54.016 E11.30066
G1 X79.452 Y54.043 E11.30241
G1 X79.711 Y54.767 E11.34716
G1 X79.937 Y55.762 E11.40655
G1 X80.333 Y58.319 E11.55716
G1 X80.411 Y59.085 E11.60197
G1 X80.409 Y59.854 E11.64673
G1 X80.372 Y60.195 E11.6667
G1 X80.459 Y61.233 E11.72733
G1 X80.483 Y62.001 E11.77205
G1 X80.428 Y62.768 E11.81681
G1 X80.385 Y63.01 E11.83111
G1 X80.388 Y63.106 E11.8367
G1 X80.337 Y63.873 E11.88145
G1 X80.206 Y64.631 E11.92622
G1 X80.198 Y64.659 E11.92791
G1 X80.213 Y65.115 E11.95447
G1 X80.198 Y65.884 E11.99924
G1 X80.104 Y66.648 E12.04404
G1 X80.033 Y66.954 E12.06233
G1 X80.044 Y67.218 E12.07771
G1 X80.184 Y67.522 E12.09719
G1 X80.43 Y68.25 E12.14191
G1 X80.6 Y69 E12.18668
G1 X80.692 Y69.764 E12.23147
G1 X80.703 Y70.533 E12.27623
G1 X80.634 Y71.299 E12.321
G1 X80.487 Y72.054 E12.36577
G1 X80.396 Y72.349 E12.38373
G1 X80.306 Y72.927 E12.41778
G1 X80.11 Y73.67 E12.46251
G1 X79.838 Y74.389 E12.50725
G1 X79.492 Y75.077 E12.55208
G1 X79.179 Y75.544 E12.5848
G1 X78.835 Y76.167 E12.62622
G1 X78.551 Y76.589 E12.65583
G1 X76.352 Y79.628 E12.87416
G1 X75.869 Y80.227 E12.91895
G1 X75.327 Y80.772 E12.96369
G1 X74.968 Y81.078 E12.99115
G1 X74.216 Y81.677 E13.04711
G1 X73.59 Y82.124 E13.09188
G1 X72.921 Y82.504 E13.13666
G1 X72.216 Y82.813 E13.18146
G1 X71.484 Y83.047 E13.22619
G1 X70.731 Y83.203 E13.27095
G1 X69.965 Y83.28 E13.31576
G1 X69.196 Y83.278 E13.36052
G1 X68.431 Y83.195 E13.40531
G1 X67.679 Y83.034 E13.45007
G1 X66.948 Y82.796 E13.49482
G1 X66.904 Y82.776 E13.49763
G1 X66.703 Y82.976 E13.51414
G1 X66.105 Y83.459 E13.55888
G1 X65.459 Y83.877 E13.60366
G1 X64.774 Y84.226 E13.64841
G1 X64.056 Y84.502 E13.69318
G1 X63.313 Y84.702 E13.73797
G1 X62.618 Y84.816 E13.77896
G1 X60.855 Y85.021 E13.88227
G1 X60.087 Y85.07 E13.92706
G1 X59.141 Y85.021 E13.9822
G1 X57.378 Y84.815 E14.08551
G1 X56.62 Y84.686 E14.13027
G1 X55.879 Y84.479 E14.17505
G1 X55.164 Y84.197 E14.21979
G1 X54.482 Y83.841 E14.26456
G1 X53.84 Y83.417 E14.30935
G1 X53.246 Y82.928 E14.35413
G1 X53.1 Y82.78 E14.36623
G1 X52.855 Y82.881 E14.38165
G1 X52.118 Y83.099 E14.42639
G1 X51.361 Y83.239 E14.4712
G1 X50.595 Y83.3 E14.51592
G1 X49.826 Y83.281 E14.5607
G1 X49.063 Y83.182 E14.60548
G1 X48.314 Y83.005 E14.65028
G1 X47.589 Y82.751 E14.69499
G1 X46.893 Y82.423 E14.73977
G1 X46.235 Y82.024 E14.78456
G1 X45.853 Y81.747 E14.81203
G1 X45.136 Y81.19 E14.86487
G1 X44.554 Y80.687 E14.90965
G1 X44.027 Y80.127 E14.95441
G1 X43.669 Y79.668 E14.98829
G1 X41.424 Y76.548 E15.21201
G1 X41.008 Y75.901 E15.25679
G1 X40.913 Y75.714 E15.26899
G1 X40.613 Y75.262 E15.30057
G1 X40.28 Y74.634 E15.34194
G1 X40.179 Y74.419 E15.35577
G1 X39.889 Y73.707 E15.40052
G1 X39.674 Y72.969 E15.44526
G1 X39.522 Y72.066 E15.49856
G1 X39.509 Y72.024 E15.50112
G1 X39.365 Y71.269 E15.54585
G1 X39.301 Y70.502 E15.59065
G1 X39.316 Y69.733 E15.63542
G1 X39.411 Y68.97 E15.68018
G1 X39.585 Y68.221 E15.72493
G1 X39.836 Y67.494 E15.7697
G1 X39.951 Y67.246 E15.78561
G1 X39.955 Y67.142 E15.79167
G1 X39.876 Y66.83 E15.8104
G1 X39.766 Y66.069 E15.85515
G1 X39.745 Y64.975 E15.91884
G1 X39.782 Y64.317 E15.9572
G1 X39.666 Y63.579 E16.00069
G1 X39.626 Y62.811 E16.04545
G1 X39.638 Y62.54 E16.06124
G1 X39.6 Y62.318 E16.07435
G1 X39.549 Y61.55 E16.11915
G1 X39.57 Y60.872 E16.15863
G1 X39.631 Y60.09 E16.20428
G1 X39.593 Y59.385 E16.24538
G1 X39.604 Y58.961 E16.27006
G1 X39.717 Y56.927 E16.38864
G1 X39.8 Y56.162 E16.43343
G1 X39.929 Y55.534 E16.47074
G1 X40.263 Y54.205 E16.5505
G1 X40.273 Y54.124 E16.55525
G1 X40.407 Y53.367 E16.6
G1 X40.619 Y52.627 E16.6448
G1 X40.906 Y51.914 E16.68954
G1 X40.913 Y51.9 E16.69045
G1 X40.996 Y51.482 E16.71525
G1 X41.224 Y50.747 E16.76005
G1 X41.526 Y50.04 E16.80479
G1 X41.598 Y49.91 E16.81344
G1 X41.604 Y49.885 E16.81494
G1 X41.853 Y49.157 E16.85972
G1 X42.176 Y48.459 E16.90449
G1 X42.37 Y48.132 E16.92662
G1 X42.534 Y47.701 E16.95346
G1 X42.879 Y47.014 E16.99821
G1 X43.249 Y46.439 E17.03801
G1 X43.287 Y46.351 E17.04359
G1 X43.665 Y45.681 E17.08836
G1 X44.111 Y45.054 E17.13315
G1 X44.157 Y45.002 E17.13719
G1 X44.285 Y44.775 E17.15236
G1 X44.73 Y44.148 E17.19711
G1 X45.238 Y43.57 E17.2419
G1 X45.309 Y43.505 E17.2475
G0 F3600 X45.632 Y43.746
G1 F1800 X45.686 Y43.665 E17.25317
G1 X46.166 Y43.092 E17.29668
G1 X46.705 Y42.573 E17.34023
G1 X46.883 Y42.435 E17.35334
G1 X46.985 Y42.311 E17.36268
G1 X47.52 Y41.788 E17.40623
G1 X48.108 Y41.326 E17.44975
G1 X48.507 Y41.076 E17.47716
G1 X48.638 Y40.953 E17.48762
G1 X49.235 Y40.503 E17.53113
G1 X49.878 Y40.12 E17.5747
G1 X50.485 Y39.84 E17.6136
G1 X50.73 Y39.673 E17.63086
G1 X51.389 Y39.32 E17.67438
G1 X52.083 Y39.039 E17.71796
G1 X52.802 Y38.834 E17.76147
G1 X52.84 Y38.827 E17.76372
G1 X52.901 Y38.793 E17.76779
G1 X53.588 Y38.496 E17.81135
G1 X54.302 Y38.275 E17.85486
G1 X55.036 Y38.13 E17.8984
G1 X55.781 Y38.065 E17.94193
G1 X56.071 Y38.065 E17.95881
G1 X59.076 Y37.691 E18.13507
G1 X59.823 Y37.638 E18.17866
G1 X60.785 Y37.688 E18.23472
G1 X63.96 Y38.074 E18.42089
G1 X64.428 Y38.078 E18.44813
G1 X65.171 Y38.165 E18.49167
G1 X65.901 Y38.331 E18.53524
G1 X66.608 Y38.574 E18.57876
G1 X67.154 Y38.829 E18.61383
G1 X67.565 Y38.924 E18.63839
G1 X68.272 Y39.169 E18.68194
G1 X68.948 Y39.487 E18.72542
G1 X69.56 Y39.86 E18.76714
G1 X69.82 Y39.965 E18.78346
G1 X70.48 Y40.317 E18.827
G1 X71.099 Y40.737 E18.87054
G1 X71.51 Y41.086 E18.90192
G1 X71.626 Y41.151 E18.90966
G1 X72.234 Y41.587 E18.95321
G1 X72.793 Y42.085 E18.99678
G1 X73.052 Y42.372 E19.01928
G1 X73.105 Y42.41 E19.02308
G1 X73.662 Y42.91 E19.06665
G1 X74.163 Y43.466 E19.11021
G1 X74.376 Y43.761 E19.13139
G1 X74.775 Y44.179 E19.16502
G1 X75.231 Y44.772 E19.20856
G1 X75.503 Y45.217 E19.23892
G1 X75.936 Y45.804 E19.28137
G1 X76.312 Y46.45 E19.32488
G1 X76.391 Y46.627 E19.33616
G1 X76.711 Y47.11 E19.36989
G1 X77.056 Y47.774 E19.41344
G1 X77.231 Y48.223 E19.44149
G1 X77.515 Y48.719 E19.47476
G1 X77.816 Y49.404 E19.51831
G1 X78.041 Y50.118 E19.56188
G1 X78.156 Y50.661 E19.59419
G1 X78.304 Y50.974 E19.61434
G1 X78.551 Y51.68 E19.65787
G1 X78.721 Y52.408 E19.70139
G1 X78.785 Y52.975 E19.7346
G1 X78.813 Y53.049 E19.7392
G1 X79 Y53.774 E19.78278
G1 X79.056 Y54.158 E19.80537
G1 X79.188 Y54.464 E19.82477
G1 X79.41 Y55.179 E19.86834
G1 X79.542 Y55.824 E19.90666
G1 X79.938 Y58.381 E20.05727
G1 X80.012 Y59.125 E20.10079
G1 X80.007 Y59.873 E20.14433
G1 X79.971 Y60.188 E20.16278
G1 X80.061 Y61.266 E20.22574
G1 X80.083 Y62.014 E20.2693
G1 X80.025 Y62.759 E20.31279
G1 X79.983 Y62.986 E20.32623
G1 X79.988 Y63.12 E20.33404
G1 X79.935 Y63.866 E20.37757
G1 X79.802 Y64.603 E20.42116
G1 X79.796 Y64.622 E20.42232
G1 X79.813 Y65.129 E20.45184
G1 X79.798 Y65.876 E20.49533
G1 X79.703 Y66.618 E20.53887
G1 X79.632 Y66.917 E20.55676
G1 X79.648 Y67.298 E20.57896
G1 X79.906 Y67.919 E20.6181
G1 X80.118 Y68.637 E20.66167
G1 X80.252 Y69.373 E20.70521
G1 X80.307 Y70.119 E20.74875
G1 X80.282 Y70.866 E20.79226
G1 X80.177 Y71.607 E20.83582
G1 X79.996 Y72.325 E20.87892
G1 X79.911 Y72.865 E20.91073
G1 X79.716 Y73.587 E20.95426
G1 X79.446 Y74.285 E20.99783
G1 X79.103 Y74.95 E21.04138
G1 X78.827 Y75.358 E21.07005
G1 X78.474 Y75.99 E21.11218
G1 X78.227 Y76.355 E21.13784
G1 X76.028 Y79.394 E21.35617
G1 X75.558 Y79.975 E21.39967
G1 X75.028 Y80.504 E21.44325
G1 X74.718 Y80.765 E21.46684
G1 X73.966 Y81.364 E21.5228
G1 X73.357 Y81.798 E21.56633
G1 X72.705 Y82.165 E21.60988
G1 X72.018 Y82.46 E21.65339
G1 X71.303 Y82.68 E21.69694
G1 X70.568 Y82.822 E21.74051
G1 X69.823 Y82.886 E21.78403
G1 X69.075 Y82.869 E21.82758
G1 X68.333 Y82.772 E21.87114
G1 X67.606 Y82.597 E21.91466
G1 X66.901 Y82.346 E21.95822
G1 X66.819 Y82.306 E21.96353
G1 X66.281 Y82.812 E22.00652
G1 X65.685 Y83.264 E22.05005
G1 X65.044 Y83.65 E22.09361
G1 X64.365 Y83.964 E22.13715
G1 X63.657 Y84.205 E22.18068
G1 X62.572 Y84.419 E22.24505
G1 X60.809 Y84.624 E22.34836
G1 X60.062 Y84.671 E22.39192
G1 X59.188 Y84.624 E22.44287
G1 X57.425 Y84.418 E22.54618
G1 X56.687 Y84.291 E22.58977
