;FLAVOR:RepRap
;TIME:2610
;Filament used: 3.08725m
;Layer height: 0.2
;Generated with Cura_SteamEngine master
M190 S50
M104 S195
M109 S195
G28 ;Home
G1 Z15.0 F6000 ;Move the platform down 15mm
;Prime the extruder
G92 E0
G1 F200 E3
G92 E0
;LAYER_COUNT:102
;LAYER:0
M107
G1 F1500 E-6.5
G0 F3600 X45.618 Y41.001 Z0.35
;TYPE:SKIRT
G1 F1500 E0
G1 F1800 X46.3 Y40.3 E0.05693
G1 X47.333 Y39.363 E0.1381
G1 X48.209 Y38.675 E0.20294
G1 X49.317 Y37.927 E0.28075
G1 X50.257 Y37.384 E0.34393
G1 X51.43 Y36.811 E0.41992
G1 X52.353 Y36.431 E0.47802
G1 X53.582 Y36.015 E0.55354
G1 X54.403 Y35.786 E0.60315
G1 X55.686 Y35.503 E0.67962
G1 X56.396 Y35.381 E0.72155
G1 X57.697 Y35.218 E0.79787
G1 X58.363 Y35.163 E0.83677
G1 X59.696 Y35.111 E0.91441
G1 X60.304 Y35.111 E0.9498
G1 X61.637 Y35.163 E1.02745
G1 X62.303 Y35.218 E1.06634
G1 X63.604 Y35.381 E1.14266
G1 X64.315 Y35.503 E1.18465
G1 X65.597 Y35.786 E1.26107
G1 X66.422 Y36.017 E1.31093
G1 X67.645 Y36.432 E1.3861
G1 X68.556 Y36.806 E1.44342
G1 X69.736 Y37.381 E1.51983
G1 X70.679 Y37.926 E1.58322
G1 X71.787 Y38.673 E1.661
G1 X72.664 Y39.359 E1.72581
G1 X73.695 Y40.293 E1.80678
G1 X74.382 Y41 E1.86416
G1 X75.314 Y42.088 E1.94754
G1 X75.878 Y42.832 E2.00189
G1 X76.727 Y44.104 E2.0909
G1 X77.132 Y44.783 E2.13692
G1 X77.91 Y46.252 E2.23367
G1 X78.193 Y46.847 E2.27202
G1 X78.871 Y48.439 E2.37274
G1 X79.075 Y48.969 E2.40579
G1 X79.52 Y50.269 E2.48577
G1 X79.776 Y51.206 E2.54231
G1 X79.883 Y51.723 E2.57304
G1 X80.777 Y55.262 E2.7855
G1 X80.968 Y56.326 E2.84842
G1 X81.518 Y61.371 E3.1438
G1 X81.564 Y62.159 E3.18974
G1 X81.53 Y62.948 E3.23571
G1 X81.416 Y63.729 E3.28165
G1 X81.263 Y64.34 E3.31831
G1 X81.411 Y65.139 E3.36561
G1 X81.516 Y65.922 E3.41159
G1 X81.541 Y66.711 E3.45754
G1 X81.497 Y67.396 E3.49749
G1 X81.369 Y68.585 E3.5671
G1 X81.187 Y69.617 E3.62809
G1 X80.749 Y71.394 E3.73462
G1 X80.441 Y72.366 E3.79397
G1 X79.81 Y73.981 E3.89489
G1 X79.486 Y74.701 E3.94084
G1 X79.217 Y75.183 E3.97297
G1 X78.105 Y77.019 E4.09791
G1 X77.533 Y77.839 E4.1561
G1 X76.788 Y78.774 E4.22569
G1 X76.047 Y79.58 E4.28941
G1 X74.831 Y80.73 E4.38683
G1 X74.038 Y81.387 E4.44677
G1 X72.685 Y82.364 E4.54391
G1 X71.858 Y82.886 E4.60083
G1 X70.362 Y83.703 E4.70004
G1 X69.541 Y84.091 E4.7529
G1 X67.974 Y84.723 E4.85125
G1 X67.157 Y85.001 E4.90148
G1 X65.498 Y85.465 E5.00174
G1 X64.654 Y85.651 E5.05205
G1 X62.976 Y85.925 E5.15101
G1 X62.136 Y86.016 E5.20019
G1 X60.417 Y86.108 E5.30039
G1 X59.583 Y86.108 E5.34893
G1 X57.864 Y86.016 E5.44913
G1 X57.024 Y85.925 E5.49831
G1 X55.346 Y85.651 E5.59727
G1 X54.506 Y85.466 E5.64733
G1 X52.847 Y85.003 E5.74758
G1 X52.023 Y84.722 E5.79826
G1 X50.456 Y84.089 E5.89663
G1 X49.638 Y83.703 E5.94927
G1 X48.142 Y82.886 E6.04849
G1 X47.315 Y82.364 E6.10541
G1 X45.962 Y81.387 E6.20255
G1 X45.171 Y80.732 E6.26232
G1 X43.955 Y79.583 E6.3597
G1 X43.409 Y79.013 E6.40564
G1 X43.155 Y78.702 E6.42901
G1 X42.088 Y77.33 E6.53018
G1 X41.452 Y76.375 E6.59696
G1 X40.662 Y74.975 E6.69053
G1 X40.19 Y73.981 E6.75458
G1 X39.559 Y72.366 E6.8555
G1 X39.241 Y71.354 E6.91724
G1 X38.786 Y69.466 E7.03028
G1 X38.61 Y68.44 E7.09087
G1 X38.5 Y67.375 E7.15319
G1 X38.459 Y66.587 E7.19911
G1 X38.498 Y65.798 E7.24509
G1 X38.585 Y65.176 E7.28165
G1 X38.737 Y64.34 E7.33111
G1 X38.687 Y64.181 E7.34081
G1 X38.527 Y63.408 E7.38676
G1 X38.447 Y62.622 E7.43274
G1 X38.445 Y61.833 E7.47867
G1 X38.484 Y61.349 E7.50693
G1 X39.115 Y55.714 E7.83696
G1 X39.302 Y54.683 E7.89795
G1 X40.146 Y51.321 E8.09971
G1 X40.336 Y50.679 E8.13868
G1 X40.93 Y48.955 E8.24482
G1 X41.128 Y48.441 E8.27688
G1 X41.806 Y46.848 E8.37765
G1 X42.09 Y46.252 E8.41607
G1 X42.867 Y44.785 E8.5127
G1 X43.272 Y44.107 E8.55867
G1 X44.122 Y42.833 E8.64781
G1 X44.688 Y42.086 E8.70236
G1 X45.618 Y41.001 E8.78554
G0 F3600 X45.922 Y41.261
G1 F1800 X46.568 Y40.596 E8.8395
G1 X47.601 Y39.659 E8.92068
G1 X48.433 Y39.007 E8.9822
G1 X49.541 Y38.259 E9.06001
G1 X50.433 Y37.743 E9.11999
G1 X51.606 Y37.17 E9.19598
G1 X52.481 Y36.81 E9.25105
G1 X53.71 Y36.394 E9.32657
G1 X54.489 Y36.177 E9.37364
G1 X55.772 Y35.894 E9.45011
G1 X56.446 Y35.777 E9.48993
G1 X57.747 Y35.614 E9.56625
G1 X58.379 Y35.563 E9.60315
G1 X59.712 Y35.511 E9.6808
G1 X60.288 Y35.511 E9.71432
G1 X61.621 Y35.563 E9.79197
G1 X62.253 Y35.614 E9.82888
G1 X63.554 Y35.777 E9.90519
G1 X64.229 Y35.894 E9.94507
G1 X65.511 Y36.177 E10.02148
G1 X66.294 Y36.395 E10.06879
G1 X67.517 Y36.81 E10.14396
G1 X68.381 Y37.166 E10.19835
G1 X69.561 Y37.741 E10.27476
G1 X70.456 Y38.257 E10.33489
G1 X71.564 Y39.004 E10.41267
G1 X72.395 Y39.656 E10.47415
G1 X73.426 Y40.59 E10.55512
G1 X74.078 Y41.26 E10.60953
G1 X75.01 Y42.348 E10.69292
G1 X75.545 Y43.054 E10.74448
G1 X76.394 Y44.326 E10.83349
G1 X76.778 Y44.971 E10.87718
G1 X77.556 Y46.44 E10.97394
G1 X77.825 Y47.003 E11.01026
G1 X78.503 Y48.595 E11.11097
G1 X78.696 Y49.098 E11.14233
G1 X79.141 Y50.398 E11.22231
G1 X79.385 Y51.287 E11.27597
G1 X79.499 Y51.833 E11.30843
G1 X80.389 Y55.36 E11.52016
G1 X80.57 Y56.369 E11.57982
G1 X81.12 Y61.414 E11.87521
G1 X81.164 Y62.182 E11.91998
G1 X81.127 Y62.95 E11.96474
G1 X81.011 Y63.711 E12.00954
G1 X80.852 Y64.319 E12.04612
G1 X81.018 Y65.212 E12.09899
G1 X81.119 Y65.974 E12.14373
G1 X81.14 Y66.743 E12.18851
G1 X81.099 Y67.353 E12.22409
G1 X80.971 Y68.542 E12.2937
G1 X80.799 Y69.521 E12.35155
G1 X80.361 Y71.298 E12.45808
G1 X80.069 Y72.22 E12.51437
G1 X79.438 Y73.835 E12.61529
G1 X79.121 Y74.536 E12.66007
G1 X78.875 Y74.976 E12.68941
G1 X77.763 Y76.812 E12.81435
G1 X77.22 Y77.589 E12.86953
G1 X76.475 Y78.524 E12.93911
G1 X75.773 Y79.289 E12.99954
G1 X74.557 Y80.439 E13.09696
G1 X73.804 Y81.062 E13.15384
G1 X72.451 Y82.039 E13.25098
G1 X71.666 Y82.535 E13.30503
G1 X70.17 Y83.352 E13.40424
G1 X69.391 Y83.72 E13.45439
G1 X67.824 Y84.352 E13.55274
G1 X67.049 Y84.616 E13.60039
G1 X65.39 Y85.08 E13.70066
G1 X64.59 Y85.256 E13.74834
G1 X62.912 Y85.53 E13.8473
G1 X62.114 Y85.616 E13.89402
G1 X60.395 Y85.708 E13.99421
G1 X59.605 Y85.708 E14.0402
G1 X57.886 Y85.616 E14.14039
G1 X57.088 Y85.53 E14.18711
G1 X55.41 Y85.256 E14.28607
G1 X54.614 Y85.081 E14.33351
G1 X52.955 Y84.618 E14.43376
G1 X52.172 Y84.351 E14.48191
G1 X50.605 Y83.718 E14.58028
G1 X49.83 Y83.352 E14.63017
G1 X48.334 Y82.535 E14.72938
G1 X47.549 Y82.039 E14.78343
G1 X46.196 Y81.062 E14.88057
G1 X45.446 Y80.442 E14.93721
G1 X44.23 Y79.293 E15.03458
G1 X43.471 Y78.457 E15.1003
G1 X42.404 Y77.085 E15.20147
G1 X41.8 Y76.179 E15.26485
G1 X41.01 Y74.779 E15.35841
G1 X40.562 Y73.835 E15.41923
G1 X39.931 Y72.22 E15.52015
G1 X39.63 Y71.261 E15.57866
G1 X39.175 Y69.373 E15.6917
G1 X39.008 Y68.399 E15.74921
G1 X38.898 Y67.334 E15.81153
G1 X38.859 Y66.566 E15.85629
G1 X38.9 Y65.798 E15.90106
G1 X38.979 Y65.248 E15.9334
G1 X39.149 Y64.315 E15.9886
G1 X39.013 Y63.828 E16.01803
G1 X38.885 Y63.069 E16.06283
G1 X38.836 Y62.302 E16.10756
G1 X38.882 Y61.394 E16.16048
G1 X39.513 Y55.759 E16.49052
G1 X39.69 Y54.78 E16.54843
G1 X40.534 Y51.418 E16.75018
G1 X40.715 Y50.809 E16.78716
G1 X41.309 Y49.085 E16.8933
G1 X41.496 Y48.598 E16.92366
G1 X42.174 Y47.005 E17.02443
G1 X42.444 Y46.439 E17.06093
G1 X43.221 Y44.972 E17.15756
G1 X43.604 Y44.329 E17.20112
G1 X44.454 Y43.055 E17.29026
G1 X44.992 Y42.346 E17.34207
G1 X45.922 Y41.261 E17.42524
G0 F3600 X46.225 Y41.521
G1 F1800 X46.837 Y40.892 E17.47632
G1 X47.87 Y39.955 E17.5575
G1 X48.656 Y39.338 E17.61566
G1 X49.764 Y38.59 E17.69347
G1 X50.609 Y38.102 E17.75027
G1 X51.782 Y37.529 E17.82625
G1 X52.61 Y37.189 E17.87835
G1 X53.839 Y36.773 E17.95387
G1 X54.575 Y36.567 E17.99836
G1 X55.858 Y36.284 E18.07483
G1 X56.496 Y36.174 E18.11251
G1 X57.797 Y36.011 E18.18883
G1 X58.394 Y35.962 E18.2237
G1 X59.727 Y35.91 E18.30134
G1 X60.273 Y35.91 E18.33312
G1 X61.606 Y35.962 E18.41077
G1 X62.203 Y36.011 E18.44564
G1 X63.504 Y36.174 E18.52195
G1 X64.143 Y36.285 E18.5597
G1 X65.425 Y36.568 E18.63612
G1 X66.165 Y36.774 E18.68083
G1 X67.388 Y37.189 E18.756
G1 X68.205 Y37.525 E18.80742
G1 X69.385 Y38.1 E18.88382
G1 X70.232 Y38.589 E18.94075
G1 X71.34 Y39.336 E19.01853
G1 X72.127 Y39.952 E19.0767
G1 X73.158 Y40.886 E19.15767
G1 X73.774 Y41.52 E19.20912
G1 X74.706 Y42.608 E19.29251
G1 X75.212 Y43.276 E19.34128
G1 X76.061 Y44.548 E19.4303
G1 X76.425 Y45.158 E19.47164
G1 X77.203 Y46.627 E19.5684
G1 X77.457 Y47.16 E19.60276
G1 X78.135 Y48.752 E19.70348
G1 X78.318 Y49.228 E19.73316
G1 X78.763 Y50.528 E19.81314
G1 X78.993 Y51.369 E19.86389
G1 X79.107 Y51.916 E19.89641
G1 X80.001 Y55.458 E20.10904
G1 X80.173 Y56.412 E20.16546
G1 X80.723 Y61.457 E20.46085
G1 X80.764 Y62.204 E20.50439
G1 X80.725 Y62.951 E20.54793
G1 X80.607 Y63.69 E20.59149
G1 X80.442 Y64.298 E20.62816
G1 X80.625 Y65.285 E20.68659
G1 X80.722 Y66.026 E20.73008
G1 X80.739 Y66.774 E20.77363
G1 X80.702 Y67.31 E20.8049
G1 X80.574 Y68.499 E20.87451
G1 X80.411 Y69.425 E20.92924
G1 X79.973 Y71.202 E21.03576
G1 X79.696 Y72.074 E21.08902
G1 X79.065 Y73.689 E21.18994
G1 X78.756 Y74.371 E21.23352
G1 X78.532 Y74.768 E21.26005
G1 X77.42 Y76.604 E21.38499
G1 X76.908 Y77.34 E21.43717
G1 X76.163 Y78.275 E21.50676
G1 X75.498 Y78.999 E21.56398
G1 X74.282 Y80.149 E21.66139
G1 X73.57 Y80.738 E21.71518
G1 X72.217 Y81.715 E21.81232
G1 X71.474 Y82.184 E21.86346
G1 X69.978 Y83.001 E21.96267
G1 X69.241 Y83.349 E22.01011
G1 X67.674 Y83.981 E22.10846
G1 X66.941 Y84.23 E22.15352
G1 X65.282 Y84.694 E22.25378
G1 X64.525 Y84.862 E22.29892
G1 X62.847 Y85.136 E22.39788
G1 X62.093 Y85.217 E22.44202
G1 X60.374 Y85.309 E22.54222
G1 X59.626 Y85.309 E22.58575
G1 X57.907 Y85.217 E22.68595
G1 X57.153 Y85.136 E22.73009
G1 X55.475 Y84.862 E22.82905
G1 X54.721 Y84.695 E22.874
G1 X53.062 Y84.232 E22.97426
G1 X52.322 Y83.98 E23.01976
G1 X50.755 Y83.347 E23.11812
G1 X50.022 Y83.001 E23.1653
G1 X48.526 Y82.184 E23.26452
G1 X47.783 Y81.715 E23.31566
G1 X46.43 Y80.738 E23.4128
G1 X45.72 Y80.151 E23.46642
G1 X44.504 Y79.002 E23.56379
G1 X43.786 Y78.211 E23.62597
G1 X42.719 Y76.839 E23.72714
G1 X42.149 Y75.982 E23.78704
G1 X41.359 Y74.582 E23.88061
G1 X40.935 Y73.689 E23.93815
G1 X40.304 Y72.074 E24.03907
G1 X40.019 Y71.167 E24.09441
G1 X39.564 Y69.279 E24.20744
G1 X39.406 Y68.358 E24.26183
G1 X39.296 Y67.293 E24.32415
G1 X39.259 Y66.546 E24.36769
G1 X39.302 Y65.799 E24.41124
G1 X39.372 Y65.32 E24.43941
G1 X39.558 Y64.3 E24.49976
G1 X39.525 Y64.207 E24.50551
G1 X39.351 Y63.479 E24.54907
G1 X39.255 Y62.737 E24.59262
G1 X39.24 Y61.989 E24.63617
G1 X39.279 Y61.438 E24.66832
G1 X39.91 Y55.803 E24.99835
G1 X40.078 Y54.878 E25.05308
G1 X40.922 Y51.516 E25.25483
G1 X41.093 Y50.94 E25.28981
G1 X41.687 Y49.216 E25.39594
G1 X41.864 Y48.755 E25.42468
G1 X42.542 Y47.162 E25.52545
G1 X42.797 Y46.627 E25.55995
G1 X43.574 Y45.16 E25.65657
G1 X43.937 Y44.551 E25.69784
G1 X44.787 Y43.277 E25.78698
G1 X45.295 Y42.606 E25.83597
G1 X46.225 Y41.521 E25.91915
G0 F3600 X46.529 Y41.782
G1 F1800 X47.106 Y41.188 E25.96735
G1 X48.139 Y40.251 E26.04852
G1 X48.88 Y39.67 E26.10333
G1 X49.988 Y38.922 E26.18114
G1 X50.784 Y38.462 E26.23465
G1 X51.957 Y37.889 E26.31064
G1 X52.738 Y37.567 E26.35981
G1 X53.967 Y37.151 E26.43533
G1 X54.661 Y36.958 E26.47726
G1 X55.944 Y36.675 E26.55373
G1 X56.546 Y36.571 E26.58929
G1 X57.847 Y36.408 E26.6656
G1 X58.41 Y36.362 E26.69848
G1 X59.743 Y36.31 E26.77613
G1 X60.257 Y36.31 E26.80605
G1 X61.59 Y36.362 E26.88369
G1 X62.153 Y36.408 E26.91657
G1 X63.454 Y36.571 E26.99289
G1 X64.057 Y36.675 E27.02851
G1 X65.339 Y36.958 E27.10492
G1 X66.037 Y37.153 E27.1471
G1 X67.26 Y37.568 E27.22228
G1 X68.03 Y37.885 E27.27074
G1 X69.21 Y38.46 E27.34715
G1 X70.008 Y38.921 E27.40079
G1 X71.116 Y39.668 E27.47857
G1 X71.858 Y40.249 E27.53342
G1 X72.889 Y41.183 E27.61439
G1 X73.47 Y41.78 E27.66288
G1 X74.402 Y42.868 E27.74626
G1 X74.88 Y43.498 E27.79229
G1 X75.729 Y44.77 E27.88131
G1 X76.072 Y45.345 E27.92028
G1 X76.85 Y46.814 E28.01703
G1 X77.089 Y47.317 E28.04945
G1 X77.767 Y48.909 E28.15016
G1 X77.939 Y49.358 E28.17815
G1 X78.384 Y50.658 E28.25813
G1 X78.602 Y51.45 E28.30594
G1 X78.722 Y52.026 E28.34019
G1 X79.613 Y55.556 E28.55209
G1 X79.775 Y56.456 E28.60532
G1 X80.325 Y61.501 E28.90071
G1 X80.364 Y62.226 E28.94297
G1 X80.323 Y62.951 E28.98523
G1 X80.202 Y63.668 E29.02755
G1 X80.03 Y64.274 E29.06422
G1 X80.231 Y65.358 E29.12839
G1 X80.324 Y66.078 E29.17065
G1 X80.338 Y66.804 E29.21291
G1 X80.304 Y67.267 E29.23993
G1 X80.176 Y68.456 E29.30954
G1 X80.022 Y69.33 E29.36119
G1 X79.584 Y71.107 E29.46772
G1 X79.323 Y71.929 E29.51792
G1 X78.692 Y73.544 E29.61884
G1 X78.391 Y74.205 E29.66111
G1 X78.19 Y74.561 E29.68491
G1 X77.078 Y76.397 E29.80985
G1 X76.595 Y77.091 E29.85906
G1 X75.85 Y78.026 E29.92865
G1 X75.223 Y78.708 E29.98257
G1 X74.007 Y79.858 E30.07999
G1 X73.336 Y80.414 E30.13071
G1 X71.983 Y81.391 E30.22784
G1 X71.282 Y81.832 E30.27605
G1 X69.786 Y82.649 E30.37526
G1 X69.092 Y82.978 E30.41997
G1 X67.525 Y83.61 E30.51831
G1 X66.834 Y83.845 E30.56079
G1 X65.175 Y84.309 E30.66106
G1 X64.461 Y84.467 E30.70363
G1 X62.783 Y84.741 E30.80259
G1 X62.072 Y84.818 E30.84421
G1 X60.353 Y84.91 E30.94441
G1 X59.647 Y84.91 E30.98551
G1 X57.928 Y84.818 E31.0857
G1 X57.217 Y84.741 E31.12733
G1 X55.539 Y84.467 E31.22629
G1 X54.829 Y84.31 E31.26862
G1 X53.17 Y83.847 E31.36887
G1 X52.472 Y83.61 E31.41177
G1 X50.905 Y82.977 E31.51014
G1 X50.214 Y82.649 E31.55466
G1 X48.718 Y81.832 E31.65388
G1 X48.017 Y81.391 E31.70208
G1 X46.664 Y80.414 E31.79922
G1 X45.995 Y79.86 E31.84978
G1 X44.779 Y78.711 E31.94715
G1 X44.102 Y77.966 E32.00574
G1 X43.035 Y76.594 E32.10691
G1 X42.497 Y75.786 E32.16341
G1 X41.707 Y74.386 E32.25698
G1 X41.308 Y73.544 E32.31121
G1 X40.677 Y71.929 E32.41213
G1 X40.408 Y71.073 E32.46436
G1 X39.953 Y69.185 E32.57739
G1 X39.804 Y68.317 E32.62866
G1 X39.694 Y67.252 E32.69097
G1 X39.659 Y66.527 E32.73322
G1 X39.704 Y65.802 E32.7755
G1 X39.766 Y65.391 E32.79969
G1 X39.971 Y64.263 E32.86643
G1 X39.841 Y63.849 E32.89168
G1 X39.7 Y63.137 E32.93393
G1 X39.639 Y62.413 E32.97622
G1 X39.677 Y61.483 E33.0304
G1 X40.308 Y55.848 E33.36043
G1 X40.466 Y54.975 E33.41207
G1 X41.31 Y51.613 E33.61383
G1 X41.471 Y51.07 E33.64679
G1 X42.065 Y49.346 E33.75293
G1 X42.232 Y48.911 E33.78005
G1 X42.91 Y47.318 E33.88082
G1 X43.151 Y46.814 E33.91334
G1 X43.928 Y45.347 E34.00996
G1 X44.27 Y44.773 E34.04885
G1 X45.12 Y43.499 E34.13799
G1 X45.599 Y42.867 E34.18415
G1 X46.529 Y41.782 E34.26733
G0 F3600 X46.833 Y42.042
G1 F1800 X47.375 Y41.485 E34.31256
G1 X48.408 Y40.548 E34.39374
G1 X49.104 Y40.001 E34.44527
G1 X50.212 Y39.253 E34.52308
G1 X50.96 Y38.821 E34.57335
G1 X52.133 Y38.248 E34.64934
G1 X52.866 Y37.946 E34.69548
G1 X54.095 Y37.53 E34.771
G1 X54.748 Y37.349 E34.81045
G1 X56.031 Y37.066 E34.88692
G1 X56.595 Y36.968 E34.92024
G1 X57.896 Y36.805 E34.99655
G1 X58.425 Y36.762 E35.02745
G1 X59.758 Y36.71 E35.10509
G1 X60.242 Y36.71 E35.13326
G1 X61.575 Y36.762 E35.21091
G1 X62.104 Y36.805 E35.2418
G1 X63.405 Y36.968 E35.31812
G1 X63.97 Y37.066 E35.3515
G1 X65.252 Y37.349 E35.42791
G1 X65.908 Y37.532 E35.46755
G1 X67.131 Y37.947 E35.54272
G1 X67.855 Y38.245 E35.5883
G1 X69.035 Y38.82 E35.6647
G1 X69.785 Y39.252 E35.71508
G1 X70.893 Y39.999 E35.79285
G1 X71.59 Y40.545 E35.84439
G1 X72.621 Y41.479 E35.92536
G1 X73.167 Y42.041 E35.97097
G1 X74.099 Y43.129 E36.05435
G1 X74.547 Y43.72 E36.09752
G1 X75.396 Y44.992 E36.18653
G1 X75.718 Y45.532 E36.22313
G1 X76.496 Y47.001 E36.31988
G1 X76.721 Y47.474 E36.35037
G1 X77.399 Y49.066 E36.45109
G1 X77.561 Y49.487 E36.47734
G1 X78.006 Y50.787 E36.55732
G1 X78.21 Y51.532 E36.60228
G1 X78.329 Y52.103 E36.63623
G1 X79.225 Y55.653 E36.84934
G1 X79.377 Y56.499 E36.89937
G1 X79.927 Y61.544 E37.19475
G1 X79.964 Y62.247 E37.23573
G1 X79.92 Y62.95 E37.27673
G1 X79.798 Y63.643 E37.31768
G1 X79.618 Y64.246 E37.35431
G1 X79.838 Y65.431 E37.42446
G1 X79.927 Y66.129 E37.46542
G1 X79.936 Y66.833 E37.5064
G1 X79.906 Y67.225 E37.52928
G1 X79.778 Y68.414 E37.59889
G1 X79.634 Y69.234 E37.64735
G1 X79.196 Y71.011 E37.75387
G1 X78.951 Y71.783 E37.80101
G1 X78.32 Y73.398 E37.90194
G1 X78.027 Y74.038 E37.94291
G1 X77.848 Y74.354 E37.96404
G1 X76.736 Y76.19 E38.08898
G1 X76.282 Y76.842 E38.13523
G1 X75.537 Y77.777 E38.20481
G1 X74.948 Y78.418 E38.25548
G1 X73.732 Y79.568 E38.3529
