;FLAVOR:RepRap
;TIME:787
;Filament used: 0.827712m
;Layer height: 0.2
;Generated with Cura_SteamEngine master
M190 S50
M104 S195
M109 S195
G28 ;Home
G1 Z15.0 F6000 ;Move the platform down 15mm
;Prime the extruder
G92 E0
G1 F200 E3
G92 E0
;LAYER_COUNT:45
;LAYER:0
M107
G1 F1500 E-6.5
G0 F3600 X43.155 Y41.754 Z0.35
;TYPE:SKIRT
G1 F1500 E0
G1 F1800 X43.725 Y41.208 E0.04594
G1 X44.347 Y40.722 E0.09189
G1 X45.016 Y40.301 E0.13789
G1 X45.723 Y39.95 E0.18384
G1 X46.462 Y39.672 E0.22979
G1 X47.226 Y39.471 E0.27578
G1 X48.006 Y39.348 E0.32174
G1 X48.794 Y39.304 E0.36767
G1 X49.583 Y39.34 E0.41365
G1 X50.364 Y39.456 E0.4596
G1 X51.13 Y39.65 E0.5056
G1 X51.872 Y39.921 E0.55158
G1 X52.582 Y40.265 E0.5975
G1 X52.702 Y40.339 E0.6057
G1 X53.392 Y39.955 E0.65166
G1 X54.117 Y39.643 E0.6976
G1 X54.87 Y39.406 E0.74355
G1 X55.644 Y39.247 E0.78954
G1 X56.429 Y39.166 E0.83548
G1 X56.831 Y39.156 E0.85888
G1 X63.169 Y39.156 E1.22779
G1 X63.958 Y39.196 E1.27377
G1 X64.738 Y39.315 E1.3197
G1 X65.503 Y39.513 E1.36569
G1 X66.243 Y39.787 E1.41162
G1 X66.952 Y40.135 E1.45759
G1 X67.293 Y40.348 E1.48099
G1 X67.729 Y40.105 E1.51005
G1 X68.455 Y39.794 E1.55602
G1 X69.208 Y39.557 E1.60196
G1 X69.981 Y39.397 E1.64791
G1 X70.767 Y39.316 E1.6939
G1 X71.557 Y39.316 E1.73989
G1 X72.342 Y39.395 E1.78581
G1 X73.116 Y39.553 E1.83179
G1 X73.87 Y39.788 E1.87776
G1 X74.596 Y40.099 E1.92373
G1 X75.287 Y40.481 E1.96968
G1 X75.935 Y40.932 E2.01564
G1 X76.535 Y41.445 E2.06158
G1 X77.08 Y42.017 E2.10757
G1 X77.357 Y42.358 E2.13314
G1 X78.043 Y43.252 E2.19873
G1 X78.67 Y44.205 E2.26513
G1 X79.493 Y45.683 E2.36359
G1 X79.841 Y46.392 E2.40957
G1 X80.012 Y46.822 E2.4365
G1 X80.748 Y48.854 E2.56229
G1 X81.049 Y49.915 E2.62648
G1 X81.346 Y51.337 E2.71104
G1 X81.47 Y52.134 E2.75799
G1 X81.638 Y53.768 E2.8536
G1 X81.679 Y54.557 E2.89958
G1 X81.631 Y55.427 E2.9503
G1 X81.526 Y56.369 E3.00547
G1 X81.638 Y58.206 E3.11259
G1 X81.646 Y58.995 E3.15851
G1 X81.603 Y59.556 E3.19126
G1 X81.079 Y64.186 E3.46247
G1 X80.891 Y65.217 E3.52347
G1 X80.004 Y68.733 E3.73453
G1 X79.805 Y69.726 E3.79348
G1 X79.611 Y70.492 E3.83947
G1 X79.418 Y71.043 E3.87345
G1 X78.431 Y73.558 E4.03071
G1 X78.106 Y74.278 E4.07669
G1 X77.709 Y74.961 E4.12267
G1 X77.246 Y75.6 E4.1686
G1 X76.72 Y76.19 E4.21461
G1 X76.137 Y76.723 E4.26059
G1 X75.504 Y77.194 E4.30651
G1 X74.826 Y77.599 E4.35248
G1 X74.111 Y77.934 E4.39844
G1 X73.365 Y78.194 E4.44442
G1 X72.597 Y78.377 E4.49037
G1 X71.814 Y78.482 E4.53636
G1 X71.025 Y78.508 E4.5823
G1 X70.237 Y78.453 E4.62828
G1 X69.459 Y78.319 E4.67423
G1 X68.698 Y78.107 E4.72021
G1 X67.963 Y77.819 E4.76616
G1 X67.947 Y77.811 E4.7672
G1 X67.299 Y78.262 E4.81315
G1 X66.608 Y78.646 E4.85917
G1 X65.883 Y78.958 E4.90511
G1 X65.13 Y79.195 E4.95106
G1 X64.356 Y79.354 E4.99705
G1 X63.571 Y79.435 E5.04298
G1 X63.169 Y79.445 E5.06639
G1 X56.831 Y79.445 E5.43529
G1 X56.042 Y79.405 E5.48127
G1 X55.262 Y79.286 E5.5272
G1 X54.497 Y79.088 E5.57319
G1 X53.757 Y78.814 E5.61912
G1 X53.048 Y78.466 E5.66509
G1 X52.377 Y78.048 E5.71111
G1 X52.059 Y77.802 E5.73451
G1 X51.545 Y78.023 E5.76708
G1 X50.792 Y78.26 E5.81302
G1 X50.018 Y78.419 E5.85902
G1 X49.233 Y78.5 E5.90495
G1 X48.443 Y78.5 E5.95093
G1 X47.657 Y78.421 E5.99691
G1 X46.884 Y78.263 E6.04283
G1 X46.13 Y78.027 E6.08882
G1 X45.404 Y77.717 E6.13477
G1 X44.713 Y77.334 E6.18075
G1 X44.064 Y76.884 E6.22672
G1 X43.464 Y76.37 E6.27271
G1 X42.92 Y75.799 E6.31861
G1 X42.435 Y75.175 E6.36461
G1 X42.017 Y74.505 E6.41057
G1 X41.657 Y73.771 E6.45816
G1 X41.005 Y72.243 E6.55486
G1 X40.801 Y71.713 E6.58791
G1 X40.223 Y70.028 E6.6916
G1 X40.084 Y69.578 E6.71901
G1 X39.56 Y67.685 E6.83334
G1 X39.463 Y67.296 E6.85667
G1 X39.213 Y66.171 E6.92375
G1 X39.08 Y65.385 E6.97015
G1 X38.399 Y59.564 E7.31127
G1 X38.347 Y58.776 E7.35724
G1 X38.363 Y58.149 E7.39374
G1 X38.476 Y56.414 E7.49494
G1 X38.37 Y55.443 E7.5518
G1 X38.323 Y54.654 E7.5978
G1 X38.364 Y53.796 E7.6478
G1 X38.54 Y52.081 E7.74815
G1 X38.679 Y51.211 E7.79943
G1 X39.064 Y49.45 E7.90435
G1 X39.271 Y48.688 E7.95031
G1 X39.415 Y48.286 E7.97516
G1 X40.048 Y46.66 E8.07672
G1 X40.504 Y45.693 E8.13895
G1 X41.345 Y44.184 E8.2395
G1 X41.97 Y43.232 E8.30579
G1 X42.643 Y42.355 E8.37013
G1 X43.155 Y41.754 E8.41609
G0 F3600 X43.46 Y42.014
G1 F1800 X44.017 Y41.484 E8.46084
G1 X44.626 Y41.015 E8.50558
G1 X45.281 Y40.611 E8.55037
G1 X45.974 Y40.278 E8.59512
G1 X46.698 Y40.018 E8.6399
G1 X47.445 Y39.835 E8.68466
G1 X48.207 Y39.73 E8.72943
G1 X48.976 Y39.705 E8.77422
G1 X49.743 Y39.76 E8.81898
G1 X50.501 Y39.895 E8.86379
G1 X51.24 Y40.107 E8.90854
G1 X51.953 Y40.395 E8.9533
G1 X52.633 Y40.755 E8.99808
G1 X52.721 Y40.814 E9.00425
G1 X53.084 Y40.575 E9.02954
G1 X53.767 Y40.22 E9.07435
G1 X54.482 Y39.939 E9.11906
G1 X55.224 Y39.733 E9.16388
G1 X55.982 Y39.605 E9.20863
G1 X56.831 Y39.556 E9.25813
G1 X63.169 Y39.556 E9.62703
G1 X63.937 Y39.596 E9.67179
G1 X64.697 Y39.715 E9.71657
G1 X65.44 Y39.913 E9.76132
G1 X66.159 Y40.187 E9.80611
G1 X66.845 Y40.534 E9.85086
G1 X67.284 Y40.816 E9.88123
G1 X67.422 Y40.725 E9.89085
G1 X68.104 Y40.37 E9.9356
G1 X68.82 Y40.089 E9.98037
G1 X69.561 Y39.883 E10.02513
G1 X70.32 Y39.755 E10.06994
G1 X71.087 Y39.706 E10.11467
G1 X71.856 Y39.738 E10.15947
G1 X72.617 Y39.849 E10.20423
G1 X73.362 Y40.039 E10.24898
G1 X74.084 Y40.304 E10.29375
G1 X74.774 Y40.644 E10.33852
G1 X75.426 Y41.053 E10.38332
G1 X76.031 Y41.527 E10.42805
G1 X76.584 Y42.062 E10.47284
G1 X77.04 Y42.601 E10.51393
G1 X77.726 Y43.495 E10.57952
G1 X78.32 Y44.4 E10.64253
G1 X79.143 Y45.878 E10.741
G1 X79.482 Y46.568 E10.78574
G1 X79.636 Y46.958 E10.81015
G1 X80.372 Y48.99 E10.93594
G1 X80.658 Y49.997 E10.99687
G1 X80.955 Y51.419 E11.08143
G1 X81.072 Y52.175 E11.12595
G1 X81.24 Y53.809 E11.22156
G1 X81.279 Y54.577 E11.26632
G1 X81.234 Y55.383 E11.31331
G1 X81.125 Y56.367 E11.37093
G1 X81.238 Y58.23 E11.47957
G1 X81.245 Y58.999 E11.52433
G1 X81.205 Y59.511 E11.55422
G1 X80.681 Y64.141 E11.82543
G1 X80.503 Y65.119 E11.88329
G1 X79.616 Y68.635 E12.09435
G1 X79.413 Y69.648 E12.15449
G1 X79.223 Y70.393 E12.19924
G1 X79.046 Y70.897 E12.23033
G1 X78.059 Y73.412 E12.38759
G1 X77.741 Y74.113 E12.43239
G1 X77.352 Y74.776 E12.47713
G1 X76.896 Y75.396 E12.52193
G1 X76.379 Y75.965 E12.56668
G1 X75.805 Y76.478 E12.61148
G1 X75.181 Y76.927 E12.65623
G1 X74.514 Y77.31 E12.701
G1 X73.811 Y77.622 E12.74576
G1 X73.079 Y77.858 E12.79053
G1 X72.327 Y78.018 E12.83528
G1 X71.562 Y78.099 E12.88006
G1 X70.793 Y78.099 E12.92482
G1 X70.028 Y78.02 E12.96958
G1 X69.275 Y77.862 E13.01436
G1 X68.543 Y77.627 E13.05911
G1 X67.883 Y77.336 E13.1011
G1 X67.558 Y77.603 E13.12558
G1 X66.916 Y78.026 E13.17033
G1 X66.233 Y78.381 E13.21513
G1 X65.518 Y78.662 E13.25985
G1 X64.776 Y78.868 E13.30467
G1 X64.018 Y78.996 E13.34941
G1 X63.169 Y79.045 E13.39891
G1 X56.831 Y79.045 E13.76781
G1 X56.063 Y79.005 E13.81258
G1 X55.303 Y78.886 E13.85735
G1 X54.56 Y78.688 E13.90211
G1 X53.841 Y78.414 E13.94689
G1 X53.155 Y78.067 E13.99164
G1 X52.508 Y77.651 E14.03641
G1 X52.112 Y77.333 E14.06597
G1 X51.895 Y77.446 E14.08021
G1 X51.18 Y77.727 E14.12493
G1 X50.438 Y77.933 E14.16975
G1 X49.68 Y78.061 E14.21449
G1 X48.912 Y78.11 E14.25929
G1 X48.144 Y78.078 E14.30403
G1 X47.383 Y77.967 E14.34879
G1 X46.637 Y77.777 E14.3936
G1 X45.916 Y77.511 E14.43833
G1 X45.225 Y77.172 E14.48313
G1 X44.574 Y76.763 E14.52788
G1 X43.969 Y76.288 E14.57265
G1 X43.416 Y75.754 E14.61739
G1 X42.922 Y75.164 E14.66218
G1 X42.491 Y74.527 E14.70695
G1 X42.025 Y73.614 E14.76661
G1 X41.373 Y72.086 E14.86331
G1 X41.179 Y71.583 E14.89469
G1 X40.601 Y69.898 E14.99837
G1 X40.469 Y69.471 E15.02439
G1 X39.945 Y67.578 E15.13871
G1 X39.853 Y67.209 E15.16085
G1 X39.603 Y66.084 E15.22792
G1 X39.477 Y65.339 E15.2719
G1 X38.796 Y59.518 E15.61303
G1 X38.747 Y58.75 E15.65782
G1 X38.762 Y58.175 E15.6913
G1 X38.878 Y56.407 E15.79443
G1 X38.767 Y55.399 E15.85345
G1 X38.723 Y54.631 E15.89823
G1 X38.762 Y53.837 E15.9445
G1 X38.938 Y52.122 E16.04484
G1 X39.07 Y51.297 E16.09347
G1 X39.455 Y49.536 E16.19839
G1 X39.658 Y48.794 E16.24317
G1 X39.788 Y48.431 E16.26561
G1 X40.421 Y46.805 E16.36717
G1 X40.853 Y45.888 E16.42617
G1 X41.694 Y44.379 E16.52672
G1 X42.287 Y43.476 E16.5896
G1 X42.96 Y42.599 E16.65395
G1 X43.46 Y42.014 E16.69874
G0 F3600 X43.764 Y42.274
G1 F1800 X44.309 Y41.761 E16.7423
G1 X44.904 Y41.309 E16.7858
G1 X45.545 Y40.923 E16.82935
G1 X46.224 Y40.608 E16.87292
G1 X46.932 Y40.367 E16.91645
G1 X47.662 Y40.202 E16.96001
G1 X48.405 Y40.117 E17.00354
G1 X49.153 Y40.111 E17.04708
G1 X49.897 Y40.186 E17.0906
G1 X50.629 Y40.339 E17.13413
G1 X51.341 Y40.57 E17.1777
G1 X52.024 Y40.875 E17.22123
G1 X52.671 Y41.251 E17.26479
G1 X52.727 Y41.292 E17.26883
G1 X52.829 Y41.213 E17.27634
G1 X53.465 Y40.818 E17.31992
G1 X54.139 Y40.494 E17.36344
G1 X54.844 Y40.244 E17.40698
G1 X55.572 Y40.07 E17.45055
G1 X56.314 Y39.975 E17.49409
G1 X56.831 Y39.956 E17.5242
G1 X63.169 Y39.956 E17.89311
G1 X63.916 Y39.996 E17.93665
G1 X64.654 Y40.115 E17.98016
G1 X65.376 Y40.313 E18.02374
G1 X66.072 Y40.586 E18.06725
G1 X66.735 Y40.933 E18.11081
G1 X67.278 Y41.294 E18.14876
G1 X67.803 Y40.969 E18.1847
G1 X68.477 Y40.644 E18.22825
G1 X69.182 Y40.394 E18.27179
G1 X69.909 Y40.22 E18.3153
G1 X70.651 Y40.125 E18.35884
G1 X71.399 Y40.11 E18.40239
G1 X72.145 Y40.174 E18.44597
G1 X72.879 Y40.318 E18.48951
G1 X73.593 Y40.539 E18.53301
G1 X74.28 Y40.835 E18.57655
G1 X74.932 Y41.203 E18.62013
G1 X75.54 Y41.639 E18.66367
G1 X76.099 Y42.136 E18.70721
G1 X76.722 Y42.845 E18.76215
G1 X77.408 Y43.739 E18.82774
G1 X77.971 Y44.595 E18.88737
G1 X78.794 Y46.073 E18.98584
G1 X79.122 Y46.745 E19.02936
G1 X79.26 Y47.094 E19.0512
G1 X79.996 Y49.126 E19.177
G1 X80.266 Y50.079 E19.23465
G1 X80.563 Y51.501 E19.3192
G1 X80.674 Y52.216 E19.36132
G1 X80.842 Y53.85 E19.45693
G1 X80.879 Y54.597 E19.50046
G1 X80.836 Y55.339 E19.54372
G1 X80.723 Y56.353 E19.60311
G1 X80.839 Y58.254 E19.71396
G1 X80.845 Y59.002 E19.7575
G1 X80.808 Y59.466 E19.78459
G1 X80.284 Y64.096 E20.0558
G1 X80.115 Y65.021 E20.11053
G1 X79.227 Y68.54 E20.32178
G1 X79.021 Y69.569 E20.38286
G1 X78.835 Y70.294 E20.42643
G1 X78.673 Y70.751 E20.45465
G1 X77.686 Y73.266 E20.6119
G1 X77.376 Y73.947 E20.65545
G1 X76.995 Y74.591 E20.69901
G1 X76.548 Y75.19 E20.74251
G1 X76.039 Y75.739 E20.78609
G1 X75.474 Y76.229 E20.82962
G1 X74.86 Y76.657 E20.87318
G1 X74.205 Y77.017 E20.91668
G1 X73.514 Y77.305 E20.96026
G1 X72.797 Y77.517 E21.00378
G1 X72.061 Y77.652 E21.04733
G1 X71.315 Y77.707 E21.09087
G1 X70.567 Y77.683 E21.13443
G1 X69.827 Y77.579 E21.17792
G1 X69.101 Y77.396 E21.2215
G1 X68.399 Y77.137 E21.26505
G1 X67.835 Y76.857 E21.3017
G1 X67.761 Y76.929 E21.30771
G1 X67.171 Y77.388 E21.35122
G1 X66.535 Y77.783 E21.3948
G1 X65.861 Y78.107 E21.43833
G1 X65.156 Y78.357 E21.48187
G1 X64.428 Y78.531 E21.52543
G1 X63.686 Y78.626 E21.56897
G1 X63.169 Y78.645 E21.59909
G1 X56.831 Y78.645 E21.96799
G1 X56.084 Y78.605 E22.01153
G1 X55.346 Y78.486 E22.05504
G1 X54.624 Y78.288 E22.09862
G1 X53.928 Y78.015 E22.14214
G1 X53.265 Y77.668 E22.18569
G1 X52.642 Y77.253 E22.22926
G1 X52.171 Y76.86 E22.26497
G1 X51.523 Y77.172 E22.30683
G1 X50.818 Y77.422 E22.35037
G1 X50.09 Y77.596 E22.39393
G1 X49.348 Y77.691 E22.43747
G1 X48.6 Y77.706 E22.48102
G1 X47.855 Y77.642 E22.52454
G1 X47.121 Y77.498 E22.56808
G1 X46.406 Y77.277 E22.61164
G1 X45.719 Y76.98 E22.6552
G1 X45.068 Y76.613 E22.6987
G1 X44.46 Y76.177 E22.74225
G1 X43.901 Y75.68 E22.78579
G1 X43.399 Y75.125 E22.82934
G1 X42.959 Y74.52 E22.87289
G1 X42.586 Y73.872 E22.9164
G1 X42.393 Y73.457 E22.94304
G1 X41.741 Y71.929 E23.03974
G1 X41.558 Y71.453 E23.06942
G1 X40.98 Y69.768 E23.17311
G1 X40.855 Y69.364 E23.19772
G1 X40.331 Y67.471 E23.31205
G1 X40.244 Y67.123 E23.33293
G1 X39.994 Y65.998 E23.40001
G1 X39.874 Y65.292 E23.44169
G1 X39.193 Y59.471 E23.78281
G1 X39.146 Y58.725 E23.82632
G1 X39.161 Y58.201 E23.85683
G1 X39.279 Y56.395 E23.96217
G1 X39.165 Y55.355 E24.02307
G1 X39.123 Y54.608 E24.06662
G1 X39.16 Y53.877 E24.10922
G1 X39.336 Y52.162 E24.20957
G1 X39.461 Y51.382 E24.25555
G1 X39.846 Y49.621 E24.36047
G1 X40.161 Y48.577 E24.42394
G1 X40.794 Y46.951 E24.5255
G1 X41.202 Y46.082 E24.58138
G1 X42.043 Y44.573 E24.68193
G1 X42.605 Y43.719 E24.74143
G1 X43.278 Y42.842 E24.80578
G1 X43.764 Y42.274 E24.84929
G0 F3600 X44.068 Y42.535
G1 F1800 X44.599 Y42.039 E24.89158
G1 X45.181 Y41.605 E24.93384
G1 X45.808 Y41.237 E24.97615
G1 X46.471 Y40.94 E25.01844
G1 X47.162 Y40.718 E25.06068
G1 X47.874 Y40.574 E25.10296
G1 X48.598 Y40.508 E25.14528
G1 X49.324 Y40.522 E25.18755
G1 X50.044 Y40.616 E25.22981
G1 X50.75 Y40.789 E25.27212
G1 X51.432 Y41.038 E25.31438
G1 X52.083 Y41.361 E25.35668
G1 X52.694 Y41.753 E25.39893
G1 X52.736 Y41.787 E25.40207
G1 X53.215 Y41.435 E25.43667
G1 X53.844 Y41.071 E25.47897
G1 X54.509 Y40.778 E25.52127
G1 X55.202 Y40.56 E25.56355
G1 X55.914 Y40.42 E25.60579
G1 X56.831 Y40.356 E25.65929
G1 X63.169 Y40.356 E26.0282
G1 X63.894 Y40.396 E26.07046
G1 X64.611 Y40.515 E26.11277
G1 X65.31 Y40.713 E26.15505
G1 X65.983 Y40.986 E26.19732
G1 X66.622 Y41.331 E26.23959
G1 X67.219 Y41.745 E26.28188
G1 X67.273 Y41.792 E26.28605
G1 X67.553 Y41.585 E26.30631
G1 X68.182 Y41.221 E26.34861
G1 X68.846 Y40.928 E26.39086
G1 X69.539 Y40.71 E26.43314
G1 X70.252 Y40.57 E26.47543
G1 X70.976 Y40.509 E26.51772
G1 X71.702 Y40.528 E26.56
G1 X72.421 Y40.626 E26.60223
G1 X73.126 Y40.803 E26.64454
G1 X73.807 Y41.056 E26.68682
G1 X74.456 Y41.383 E26.72912
G1 X75.065 Y41.778 E26.77137
G1 X75.626 Y42.239 E26.81364
G1 X76.134 Y42.758 E26.85591
G1 X76.405 Y43.088 E26.88076
G1 X77.091 Y43.982 E26.94635
G1 X77.621 Y44.789 E27.00255
G1 X78.444 Y46.267 E27.10101
G1 X78.883 Y47.23 E27.16261
G1 X79.619 Y49.262 E27.28841
G1 X79.875 Y50.161 E27.34281
G1 X80.172 Y51.583 E27.42737
G1 X80.276 Y52.257 E27.46706
G1 X80.444 Y53.891 E27.56267
G1 X80.479 Y54.617 E27.60498
G1 X80.439 Y55.294 E27.64445
G1 X80.322 Y56.344 E27.70594
G1 X80.44 Y58.279 E27.81878
G1 X80.444 Y59.005 E27.86104
G1 X80.41 Y59.421 E27.88533
G1 X79.886 Y64.051 E28.15654
G1 X79.727 Y64.924 E28.20819
G1 X78.832 Y68.47 E28.42106
G1 X78.628 Y69.49 E28.48161
G1 X78.447 Y70.194 E28.52392
G1 X78.301 Y70.605 E28.5493
G1 X77.314 Y73.12 E28.70656
G1 X77.012 Y73.781 E28.74886
G1 X76.639 Y74.404 E28.79112
G1 X76.2 Y74.983 E28.83341
G1 X75.7 Y75.509 E28.87565
G1 X75.145 Y75.978 E28.91795
G1 X74.542 Y76.383 E28.96023
G1 X73.898 Y76.719 E29.00251
G1 X73.221 Y76.982 E29.04478
G1 X72.519 Y77.17 E29.08708
G1 X71.801 Y77.279 E29.12935
G1 X71.075 Y77.308 E29.17164
G1 X70.35 Y77.258 E29.21394
G1 X69.636 Y77.128 E29.25618
G1 X68.94 Y76.921 E29.29845
G1 X68.271 Y76.638 E29.34073
G1 X67.776 Y76.361 E29.37374
G1 X67.37 Y76.736 E29.40591
G1 X66.785 Y77.166 E29.44817
G1 X66.156 Y77.53 E29.49047
G1 X65.491 Y77.823 E29.53277
G1 X64.798 Y78.041 E29.57505
G1 X64.086 Y78.181 E29.61729
G1 X63.169 Y78.245 E29.67079
G1 X56.831 Y78.245 E30.0397
G1 X56.106 Y78.205 E30.08196
G1 X55.389 Y78.086 E30.12426
G1 X54.69 Y77.888 E30.16655
G1 X54.017 Y77.615 E30.20882
G1 X53.378 Y77.27 E30.25109
G1 X52.781 Y76.856 E30.29338
G1 X52.233 Y76.38 E30.33563
G1 X52.218 Y76.364 E30.3369
G1 X51.818 Y76.595 E30.36379
G1 X51.153 Y76.888 E30.40608
G1 X50.46 Y77.106 E30.44837
G1 X49.748 Y77.246 E30.4906
G1 X49.024 Y77.307 E30.53289
G1 X48.298 Y77.288 E30.57517
G1 X47.578 Y77.19 E30.61746
G1 X46.874 Y77.013 E30.65971
G1 X46.193 Y76.76 E30.702
G1 X45.544 Y76.433 E30.7443
G1 X44.935 Y76.037 E30.78658
G1 X44.373 Y75.577 E30.82885
G1 X43.865 Y75.058 E30.87112
G1 X43.418 Y74.486 E30.91337
G1 X43.036 Y73.868 E30.95566
G1 X42.761 Y73.3 E30.99239
G1 X42.109 Y71.772 E31.08909
G1 X41.936 Y71.323 E31.1171
G1 X41.358 Y69.638 E31.22078
G1 X41.24 Y69.258 E31.24394
G1 X40.716 Y67.365 E31.35827
G1 X40.634 Y67.036 E31.378
G1 X40.384 Y65.911 E31.44508
G1 X40.272 Y65.246 E31.48433
G1 X39.591 Y59.425 E31.82546
G1 X39.546 Y58.7 E31.86774
G1 X39.56 Y58.227 E31.89528
G1 X39.68 Y56.389 E32.00249
G1 X39.562 Y55.312 E32.06555
G1 X39.523 Y54.586 E32.10787
G1 X39.557 Y53.918 E32.1468
G1 X39.733 Y52.203 E32.24715
G1 X39.851 Y51.467 E32.29053
G1 X40.236 Y49.706 E32.39545
G1 X40.534 Y48.722 E32.4553
G1 X41.167 Y47.096 E32.55686
