;FLAVOR:RepRap
;TIME:4382
;Filament used: 5.17956m
;Layer height: 0.2
;Generated with Cura_SteamEngine master
M190 S50
M104 S195
M109 S195
G28 ;Home
G1 Z15.0 F6000 ;Move the platform down 15mm
;Prime the extruder
G92 E0
G1 F200 E3
G92 E0
;LAYER_COUNT:358
;LAYER:0
M107
G1 F1500 E-6.5
G0 F3600 X45.4 Y36.682 Z0.35
;TYPE:SKIRT
G1 F1500 E0
G1 F1800 X46.129 Y35.849 E0.06443
G1 X46.785 Y35.185 E0.11876
G1 X47.645 Y34.412 E0.18606
G1 X48.311 Y33.876 E0.23582
G1 X49.243 Y33.207 E0.3026
G1 X49.953 Y32.753 E0.35165
G1 X50.958 Y32.185 E0.41884
G1 X51.662 Y31.833 E0.46466
G1 X52.674 Y31.389 E0.52898
G1 X53.37 Y31.123 E0.57235
G1 X54.367 Y30.795 E0.63344
G1 X55.129 Y30.586 E0.67943
G1 X56.211 Y30.348 E0.74391
G1 X57.254 Y30.192 E0.8053
G1 X59.368 Y30.02 E0.92875
G1 X60.158 Y29.996 E0.97475
G1 X60.634 Y30.02 E1.00249
G1 X62.746 Y30.192 E1.12583
G1 X63.786 Y30.348 E1.18704
G1 X64.865 Y30.585 E1.25134
G1 X65.621 Y30.791 E1.29695
G1 X66.619 Y31.118 E1.35808
G1 X67.337 Y31.393 E1.40283
G1 X68.371 Y31.849 E1.46861
G1 X69.071 Y32.201 E1.51421
G1 X70.057 Y32.76 E1.58018
G1 X70.762 Y33.211 E1.62889
G1 X71.69 Y33.878 E1.69541
G1 X72.359 Y34.417 E1.74542
G1 X73.217 Y35.19 E1.81264
G1 X73.843 Y35.823 E1.86446
G1 X74.589 Y36.668 E1.93006
G1 X75.136 Y37.362 E1.9815
G1 X75.788 Y38.295 E2.04775
G1 X76.239 Y39.023 E2.09759
G1 X76.839 Y40.121 E2.17042
G1 X77.221 Y40.927 E2.22234
G1 X78.041 Y42.947 E2.34923
G1 X78.361 Y43.912 E2.40841
G1 X79.045 Y46.534 E2.56613
G1 X79.215 Y47.371 E2.61584
G1 X79.592 Y49.942 E2.76709
G1 X79.661 Y50.604 E2.80583
G1 X79.741 Y51.929 E2.88309
G1 X79.754 Y52.521 E2.91756
G1 X79.733 Y53.858 E2.99539
G1 X79.696 Y54.507 E3.03322
G1 X79.558 Y55.897 E3.11453
G1 X79.467 Y56.537 E3.15215
G1 X79.195 Y58.016 E3.23968
G1 X79.044 Y58.678 E3.2792
G1 X78.633 Y60.169 E3.36922
G1 X78.392 Y60.899 E3.41397
G1 X77.821 Y62.382 E3.50646
G1 X77.485 Y63.134 E3.5544
G1 X76.762 Y64.546 E3.64674
G1 X76.307 Y65.294 E3.6977
G1 X76.439 Y65.403 E3.70766
G1 X76.9 Y65.82 E3.74384
G1 X77.459 Y66.379 E3.78986
G1 X77.957 Y66.991 E3.83578
G1 X78.392 Y67.651 E3.88179
G1 X78.757 Y68.351 E3.92774
G1 X79.05 Y69.085 E3.97374
G1 X79.267 Y69.844 E4.01969
G1 X79.406 Y70.621 E4.06563
G1 X79.466 Y71.409 E4.11163
G1 X79.445 Y72.198 E4.15757
G1 X79.433 Y72.312 E4.16424
G1 X79.45 Y72.484 E4.1743
G1 X79.505 Y72.657 E4.18487
G1 X79.669 Y73.429 E4.23081
G1 X79.754 Y74.214 E4.27676
G1 X79.759 Y75.004 E4.32275
G1 X79.716 Y75.457 E4.34923
G1 X79.998 Y75.928 E4.38119
G1 X80.332 Y76.644 E4.42717
G1 X80.592 Y77.39 E4.47316
G1 X80.775 Y78.158 E4.51911
G1 X80.88 Y78.941 E4.56509
G1 X80.895 Y79.429 E4.59351
G1 X80.938 Y79.743 E4.61196
G1 X80.964 Y80.532 E4.6579
G1 X80.91 Y81.32 E4.70388
G1 X80.777 Y82.098 E4.74982
G1 X80.715 Y82.316 E4.76301
G1 X80.598 Y83.066 E4.80719
G1 X80.397 Y83.83 E4.85317
G1 X80.12 Y84.569 E4.89911
G1 X79.595 Y85.574 E4.96511
G1 X79.374 Y85.931 E4.98955
G1 X78.925 Y86.58 E5.03548
G1 X78.412 Y87.181 E5.08147
G1 X77.842 Y87.727 E5.12741
G1 X77.219 Y88.212 E5.17337
G1 X76.55 Y88.632 E5.21935
G1 X75.842 Y88.982 E5.26532
G1 X75.241 Y89.214 E5.30281
G1 X74.366 Y89.51 E5.35658
G1 X73.607 Y89.725 E5.40249
G1 X72.829 Y89.861 E5.44846
G1 X72.041 Y89.919 E5.49445
G1 X71.252 Y89.897 E5.5404
G1 X70.469 Y89.795 E5.58636
G1 X70.247 Y89.743 E5.59963
G1 X70.217 Y89.743 E5.60137
G1 X69.574 Y89.682 E5.63897
G1 X69.539 Y89.687 E5.64102
G1 X68.75 Y89.728 E5.68701
G1 X67.961 Y89.689 E5.73299
G1 X67.313 Y89.59 E5.77115
G1 X67.169 Y89.598 E5.77954
G1 X66.145 Y89.534 E5.83926
G1 X65.688 Y89.475 E5.86608
G1 X64.911 Y89.334 E5.91204
G1 X64.152 Y89.116 E5.95801
G1 X63.419 Y88.822 E6.00398
G1 X62.72 Y88.455 E6.04993
G1 X62.061 Y88.019 E6.09592
G1 X61.45 Y87.52 E6.14184
G1 X60.892 Y86.96 E6.18785
G1 X60.394 Y86.348 E6.23378
G1 X59.995 Y85.741 E6.27606
G1 X59.839 Y86.008 E6.29405
G1 X59.374 Y86.646 E6.34001
G1 X58.846 Y87.234 E6.386
G1 X58.262 Y87.765 E6.43195
G1 X57.627 Y88.234 E6.47789
G1 X56.948 Y88.637 E6.52385
G1 X56.231 Y88.969 E6.56984
G1 X55.485 Y89.227 E6.61579
G1 X54.326 Y89.469 E6.6847
G1 X53.86 Y89.53 E6.71206
G1 X53.073 Y89.593 E6.75801
G1 X52.672 Y89.584 E6.78136
G1 X52.161 Y89.671 E6.81153
G1 X51.373 Y89.724 E6.8575
G1 X50.584 Y89.697 E6.90345
G1 X50.412 Y89.673 E6.91356
G1 X50.343 Y89.685 E6.91763
G1 X49.977 Y89.708 E6.93898
G1 X49.35 Y89.838 E6.97625
G1 X48.564 Y89.92 E7.02225
G1 X47.775 Y89.922 E7.06817
G1 X46.989 Y89.844 E7.11414
G1 X46.215 Y89.687 E7.16011
G1 X45.721 Y89.543 E7.19006
G1 X44.818 Y89.247 E7.24537
G1 X44.081 Y88.963 E7.29135
G1 X43.377 Y88.607 E7.33726
G1 X42.712 Y88.18 E7.38326
G1 X42.094 Y87.689 E7.4292
G1 X41.528 Y87.138 E7.47518
G1 X41.021 Y86.533 E7.52113
G1 X40.578 Y85.879 E7.5671
G1 X40.327 Y85.432 E7.59694
G1 X40.13 Y85.053 E7.6218
G1 X39.802 Y84.335 E7.66775
G1 X39.548 Y83.587 E7.71373
G1 X39.407 Y83.01 E7.7483
G1 X39.199 Y81.987 E7.80906
G1 X39.081 Y81.206 E7.85504
G1 X39.043 Y80.418 E7.90096
G1 X39.072 Y79.88 E7.93232
G1 X39.054 Y79.471 E7.95615
G1 X39.101 Y78.683 E8.00209
G1 X39.227 Y77.903 E8.04808
G1 X39.431 Y77.14 E8.09405
G1 X39.711 Y76.402 E8.13999
G1 X40.065 Y75.696 E8.18596
G1 X40.356 Y75.241 E8.2174
G1 X40.309 Y74.649 E8.25197
G1 X40.326 Y73.859 E8.29796
G1 X40.423 Y73.076 E8.34388
G1 X40.555 Y72.5 E8.37828
G1 X40.575 Y72.367 E8.38611
G1 X40.574 Y72.356 E8.38675
G1 X40.518 Y71.568 E8.43273
G1 X40.541 Y70.779 E8.47867
G1 X40.645 Y69.996 E8.52465
G1 X40.827 Y69.228 E8.57059
G1 X41.086 Y68.482 E8.61655
G1 X41.419 Y67.766 E8.66251
G1 X41.822 Y67.087 E8.70847
G1 X42.293 Y66.452 E8.75449
G1 X42.824 Y65.869 E8.80039
G1 X43.413 Y65.342 E8.84639
G1 X43.73 Y65.111 E8.86922
G1 X43.335 Y64.441 E8.91449
G1 X42.615 Y63.048 E9.00576
G1 X42.27 Y62.283 E9.05461
G1 X41.713 Y60.844 E9.14442
G1 X41.491 Y60.184 E9.18495
G1 X41.08 Y58.755 E9.2715
G1 X40.922 Y58.099 E9.31077
G1 X40.644 Y56.68 E9.39494
G1 X40.53 Y55.889 E9.44145
G1 X40.354 Y53.962 E9.55408
G1 X40.326 Y53.007 E9.60969
G1 X40.408 Y50.413 E9.76075
G1 X40.495 Y49.469 E9.81593
G1 X40.887 Y46.93 E9.96546
G1 X40.995 Y46.368 E9.99877
G1 X41.187 Y45.535 E10.04853
G1 X41.358 Y44.915 E10.08596
G1 X42.123 Y42.519 E10.23236
G1 X42.431 Y41.71 E10.28274
G1 X42.954 Y40.539 E10.35739
G1 X43.269 Y39.911 E10.39828
G1 X43.804 Y38.955 E10.46205
G1 X44.213 Y38.302 E10.5069
G1 X44.872 Y37.357 E10.57396
G1 X45.4 Y36.682 E10.62384
G0 F3600 X45.701 Y36.946
G1 F1800 X46.43 Y36.113 E10.68827
G1 X47.052 Y35.482 E10.73984
G1 X47.912 Y34.709 E10.80714
G1 X48.544 Y34.201 E10.85434
G1 X49.476 Y33.532 E10.92111
G1 X50.15 Y33.102 E10.96765
G1 X51.155 Y32.534 E11.03484
G1 X51.823 Y32.2 E11.07831
G1 X52.835 Y31.756 E11.14263
G1 X53.495 Y31.503 E11.18378
G1 X54.492 Y31.175 E11.24487
G1 X55.215 Y30.977 E11.2885
G1 X56.297 Y30.739 E11.35298
G1 X57.287 Y30.59 E11.41125
G1 X59.401 Y30.418 E11.53471
G1 X60.17 Y30.396 E11.57948
G1 X60.602 Y30.418 E11.60466
G1 X62.714 Y30.59 E11.728
G1 X63.701 Y30.738 E11.78609
G1 X64.78 Y30.975 E11.85039
G1 X65.496 Y31.171 E11.8936
G1 X66.494 Y31.498 E11.95473
G1 X67.176 Y31.759 E11.99723
G1 X68.21 Y32.215 E12.06301
G1 X68.874 Y32.549 E12.10627
G1 X69.86 Y33.108 E12.17224
G1 X70.529 Y33.536 E12.21847
G1 X71.457 Y34.203 E12.28499
G1 X72.091 Y34.714 E12.33238
G1 X72.949 Y35.487 E12.3996
G1 X73.543 Y36.087 E12.44874
G1 X74.289 Y36.932 E12.51435
G1 X74.808 Y37.591 E12.56318
G1 X75.46 Y38.524 E12.62943
G1 X75.888 Y39.215 E12.67674
G1 X76.488 Y40.313 E12.74957
G1 X76.851 Y41.078 E12.79885
G1 X77.671 Y43.098 E12.92574
G1 X77.974 Y44.013 E12.98185
G1 X78.658 Y46.635 E13.13957
G1 X78.82 Y47.429 E13.18673
G1 X79.197 Y50 E13.33798
G1 X79.262 Y50.628 E13.37473
G1 X79.342 Y51.953 E13.45199
G1 X79.354 Y52.515 E13.48471
G1 X79.333 Y53.852 E13.56254
G1 X79.298 Y54.467 E13.59839
G1 X79.16 Y55.857 E13.6797
G1 X79.074 Y56.464 E13.71538
G1 X78.802 Y57.943 E13.80291
G1 X78.658 Y58.571 E13.84041
G1 X78.247 Y60.062 E13.93043
G1 X78.019 Y60.755 E13.9729
G1 X77.448 Y62.238 E14.06539
G1 X77.129 Y62.952 E14.11091
G1 X76.406 Y64.364 E14.20324
G1 X75.839 Y65.294 E14.26664
G1 X75.781 Y65.375 E14.27244
G1 X75.848 Y65.424 E14.27727
G1 X76.171 Y65.7 E14.302
G1 X76.632 Y66.117 E14.33818
G1 X77.175 Y66.662 E14.38296
G1 X77.658 Y67.26 E14.4277
G1 X78.077 Y67.906 E14.47252
G1 X78.426 Y68.591 E14.51727
G1 X78.703 Y69.309 E14.56206
G1 X78.903 Y70.051 E14.60679
G1 X79.025 Y70.811 E14.65159
G1 X79.068 Y71.579 E14.69636
G1 X79.024 Y72.282 E14.73736
G1 X79.038 Y72.355 E14.74169
G1 X79.057 Y72.569 E14.75419
G1 X79.124 Y72.779 E14.76702
G1 X79.28 Y73.532 E14.81178
G1 X79.358 Y74.297 E14.85654
G1 X79.356 Y75.066 E14.9013
G1 X79.305 Y75.545 E14.92934
G1 X79.654 Y76.133 E14.96914
G1 X79.976 Y76.832 E15.01393
G1 X80.225 Y77.56 E15.05872
G1 X80.396 Y78.31 E15.10349
G1 X80.489 Y79.073 E15.14823
G1 X80.495 Y79.453 E15.17035
G1 X80.542 Y79.816 E15.19165
G1 X80.563 Y80.585 E15.23643
G1 X80.503 Y81.352 E15.28121
G1 X80.364 Y82.108 E15.32595
G1 X80.319 Y82.262 E15.33529
G1 X80.202 Y83.003 E15.37895
G1 X80.003 Y83.747 E15.42378
G1 X79.729 Y84.465 E15.46851
G1 X79.255 Y85.363 E15.52762
G1 X79.034 Y85.72 E15.55205
G1 X78.596 Y86.352 E15.59681
G1 X78.094 Y86.935 E15.64159
G1 X77.535 Y87.463 E15.68635
G1 X76.924 Y87.93 E15.73111
G1 X76.267 Y88.331 E15.77591
G1 X75.573 Y88.662 E15.82066
G1 X75.113 Y88.835 E15.84927
G1 X74.238 Y89.131 E15.90303
G1 X73.498 Y89.339 E15.94777
G1 X72.74 Y89.469 E15.99254
G1 X71.972 Y89.52 E16.03734
G1 X71.204 Y89.491 E16.08207
G1 X70.442 Y89.383 E16.12687
G1 X70.267 Y89.339 E16.13737
G1 X70.135 Y89.338 E16.14505
G1 X69.581 Y89.276 E16.1775
G1 X69.478 Y89.292 E16.18357
G1 X68.71 Y89.328 E16.22832
G1 X67.942 Y89.284 E16.27309
G1 X67.335 Y89.186 E16.30888
G1 X66.987 Y89.196 E16.32914
G1 X66.197 Y89.137 E16.37525
G1 X65.74 Y89.078 E16.40208
G1 X64.983 Y88.94 E16.44686
G1 X64.245 Y88.724 E16.49162
G1 X63.533 Y88.433 E16.53639
G1 X62.855 Y88.069 E16.58118
G1 X62.218 Y87.638 E16.62595
G1 X61.63 Y87.142 E16.67072
G1 X61.097 Y86.588 E16.71547
G1 X60.624 Y85.981 E16.76026
G1 X60.216 Y85.329 E16.80503
G1 X60.002 Y84.881 E16.83392
G1 X59.874 Y85.16 E16.85179
G1 X59.483 Y85.822 E16.89654
G1 X59.025 Y86.441 E16.94136
G1 X58.506 Y87.008 E16.9861
G1 X57.931 Y87.518 E17.03084
G1 X57.305 Y87.966 E17.07564
G1 X56.637 Y88.347 E17.1204
G1 X55.933 Y88.656 E17.16515
G1 X55.2 Y88.891 E17.20996
G1 X54.274 Y89.072 E17.26488
G1 X53.808 Y89.133 E17.29223
G1 X53.042 Y89.193 E17.33695
G1 X52.652 Y89.183 E17.35966
G1 X52.054 Y89.281 E17.39493
G1 X51.286 Y89.325 E17.43971
G1 X50.518 Y89.289 E17.48446
G1 X50.392 Y89.271 E17.49187
G1 X50.277 Y89.29 E17.49865
G1 X49.944 Y89.31 E17.51807
G1 X49.209 Y89.455 E17.56167
G1 X48.443 Y89.525 E17.60644
G1 X47.674 Y89.516 E17.65121
G1 X46.91 Y89.426 E17.69598
G1 X45.846 Y89.163 E17.75978
G1 X44.943 Y88.867 E17.81509
G1 X44.226 Y88.59 E17.85983
G1 X43.541 Y88.239 E17.90463
G1 X42.896 Y87.82 E17.9494
G1 X42.298 Y87.336 E17.99417
G1 X41.754 Y86.792 E18.03895
G1 X41.269 Y86.195 E18.08372
G1 X40.682 Y85.248 E18.14857
G1 X40.485 Y84.869 E18.17344
G1 X40.166 Y84.169 E18.21821
G1 X39.922 Y83.44 E18.26296
G1 X39.799 Y82.93 E18.29349
G1 X39.591 Y81.907 E18.35425
G1 X39.478 Y81.147 E18.39898
G1 X39.443 Y80.378 E18.44378
G1 X39.472 Y79.896 E18.47189
G1 X39.455 Y79.415 E18.4999
G1 X39.508 Y78.647 E18.54471
G1 X39.64 Y77.889 E18.58949
G1 X39.849 Y77.149 E18.63425
G1 X40.135 Y76.435 E18.67902
G1 X40.493 Y75.755 E18.72375
G1 X40.763 Y75.344 E18.75237
G1 X40.708 Y74.577 E18.79713
G1 X40.732 Y73.809 E18.84185
G1 X40.835 Y73.047 E18.88661
G1 X40.945 Y72.596 E18.91363
G1 X40.948 Y72.551 E18.91625
G1 X40.978 Y72.368 E18.92705
G1 X40.971 Y72.307 E18.93062
G1 X40.917 Y71.54 E18.97538
G1 X40.943 Y70.771 E19.02016
G1 X41.049 Y70.01 E19.06488
G1 X41.234 Y69.263 E19.10968
G1 X41.495 Y68.539 E19.15447
G1 X41.829 Y67.847 E19.19919
G1 X42.234 Y67.193 E19.24397
G1 X42.704 Y66.584 E19.28874
G1 X43.235 Y66.028 E19.33349
G1 X43.821 Y65.529 E19.37829
G1 X44.276 Y65.218 E19.41037
G1 X44.109 Y64.968 E19.42787
G1 X43.69 Y64.258 E19.47586
G1 X42.97 Y62.865 E19.56713
G1 X42.643 Y62.138 E19.61353
G1 X42.086 Y60.699 E19.70334
G1 X41.875 Y60.073 E19.74179
G1 X41.464 Y58.644 E19.82834
G1 X41.314 Y58.022 E19.86558
G1 X41.036 Y56.603 E19.94974
G1 X40.929 Y55.853 E19.99384
G1 X40.753 Y53.926 E20.10647
G1 X40.726 Y53.019 E20.15928
G1 X40.808 Y50.425 E20.31034
G1 X40.891 Y49.53 E20.36266
G1 X41.283 Y46.991 E20.51219
G1 X41.385 Y46.458 E20.54378
G1 X41.577 Y45.625 E20.59353
G1 X41.739 Y45.036 E20.62909
G1 X42.504 Y42.64 E20.77549
G1 X42.796 Y41.873 E20.82326
G1 X43.319 Y40.702 E20.8979
G1 X43.618 Y40.106 E20.93671
G1 X44.153 Y39.15 E21.00048
G1 X44.541 Y38.531 E21.043
G1 X45.2 Y37.586 E21.11006
G1 X45.701 Y36.946 E21.15737
G0 F3600 X46.002 Y37.209
G1 F1800 X46.731 Y36.376 E21.2218
G1 X47.32 Y35.78 E21.27057
G1 X48.18 Y35.007 E21.33787
G1 X48.777 Y34.526 E21.3825
G1 X49.709 Y33.857 E21.44927
G1 X50.347 Y33.45 E21.49332
G1 X51.352 Y32.882 E21.56051
G1 X51.984 Y32.566 E21.60164
G1 X52.996 Y32.122 E21.66596
G1 X53.62 Y31.883 E21.70486
G1 X54.617 Y31.555 E21.76595
G1 X55.301 Y31.367 E21.80724
G1 X56.383 Y31.129 E21.87172
G1 X57.319 Y30.989 E21.92681
G1 X59.433 Y30.817 E22.05026
G1 X60.181 Y30.796 E22.09381
G1 X60.569 Y30.817 E22.11643
G1 X62.681 Y30.989 E22.23977
G1 X63.615 Y31.129 E22.29474
G1 X64.694 Y31.366 E22.35904
G1 X65.372 Y31.551 E22.39994
G1 X66.37 Y31.878 E22.46107
G1 X67.015 Y32.125 E22.50127
G1 X68.049 Y32.581 E22.56705
G1 X68.676 Y32.897 E22.60792
G1 X69.662 Y33.456 E22.67389
G1 X70.295 Y33.861 E22.71763
G1 X71.223 Y34.528 E22.78415
G1 X71.823 Y35.011 E22.82898
G1 X72.681 Y35.784 E22.8962
G1 X73.244 Y36.352 E22.94275
G1 X73.99 Y37.197 E23.00836
G1 X74.48 Y37.82 E23.05449
G1 X75.132 Y38.753 E23.12074
G1 X75.537 Y39.406 E23.16547
G1 X76.137 Y40.504 E23.2383
G1 X76.48 Y41.228 E23.28493
G1 X77.3 Y43.248 E23.41182
G1 X77.587 Y44.114 E23.46492
G1 X78.271 Y46.736 E23.62264
G1 X78.424 Y47.487 E23.66725
G1 X78.801 Y50.058 E23.8185
G1 X78.862 Y50.652 E23.85325
G1 X78.942 Y51.977 E23.93052
G1 X78.954 Y52.509 E23.96149
G1 X78.933 Y53.846 E24.03932
G1 X78.9 Y54.428 E24.07325
G1 X78.762 Y55.818 E24.15455
G1 X78.681 Y56.392 E24.18829
G1 X78.409 Y57.871 E24.27582
G1 X78.272 Y58.465 E24.3113
G1 X77.861 Y59.956 E24.40132
G1 X77.646 Y60.611 E24.44145
G1 X77.075 Y62.094 E24.53395
G1 X76.773 Y62.769 E24.57699
G1 X76.05 Y64.181 E24.66932
G1 X75.514 Y65.061 E24.72929
G1 X75.228 Y65.461 E24.75792
G1 X75.903 Y65.997 E24.80808
G1 X76.364 Y66.414 E24.84427
G1 X76.891 Y66.944 E24.88777
G1 X77.358 Y67.528 E24.93129
G1 X77.761 Y68.159 E24.97487
G1 X78.094 Y68.829 E25.01842
G1 X78.354 Y69.53 E25.06194
G1 X78.537 Y70.256 E25.10552
G1 X78.641 Y70.996 E25.14901
G1 X78.667 Y71.744 E25.19258
G1 X78.623 Y72.321 E25.22626
G1 X78.648 Y72.451 E25.23396
G1 X78.665 Y72.657 E25.24599
G1 X78.742 Y72.9 E25.26083
G1 X78.891 Y73.633 E25.30437
G1 X78.961 Y74.378 E25.34792
G1 X78.952 Y75.126 E25.39146
G1 X78.89 Y75.637 E25.42142
G1 X78.928 Y75.694 E25.42541
G1 X79.309 Y76.338 E25.46896
G1 X79.62 Y77.018 E25.51249
G1 X79.856 Y77.728 E25.55604
G1 X80.016 Y78.459 E25.59959
G1 X80.096 Y79.203 E25.64315
G1 X80.096 Y79.485 E25.65956
G1 X80.147 Y79.888 E25.6832
G1 X80.161 Y80.636 E25.72675
G1 X80.095 Y81.381 E25.77028
G1 X79.95 Y82.115 E25.81383
G1 X79.924 Y82.202 E25.81911
G1 X79.806 Y82.941 E25.86267
G1 X79.61 Y83.662 E25.90616
G1 X79.338 Y84.359 E25.94971
G1 X78.915 Y85.152 E26.00202
G1 X78.694 Y85.509 E26.02646
G1 X78.267 Y86.124 E26.07004
G1 X77.776 Y86.689 E26.11361
G1 X77.229 Y87.198 E26.1571
G1 X76.63 Y87.646 E26.20064
G1 X75.986 Y88.028 E26.24422
G1 X74.985 Y88.456 E26.30759
G1 X74.11 Y88.752 E26.36135
G1 X73.39 Y88.953 E26.40486
G1 X72.652 Y89.077 E26.44842
G1 X71.905 Y89.121 E26.49197
G1 X71.158 Y89.085 E26.5355
G1 X70.419 Y88.97 E26.57903
G1 X70.295 Y88.937 E26.5865
G1 X70.056 Y88.932 E26.60042
G1 X69.576 Y88.871 E26.62858
G1 X69.418 Y88.895 E26.63788
G1 X68.671 Y88.928 E26.6814
G1 X67.924 Y88.88 E26.72497
G1 X67.384 Y88.787 E26.75687
G1 X66.811 Y88.79 E26.79022
G1 X66.248 Y88.74 E26.82312
G1 X65.791 Y88.681 E26.84994
G1 X65.055 Y88.546 E26.89349
G1 X64.338 Y88.333 E26.93703
G1 X63.648 Y88.045 E26.98055
G1 X62.992 Y87.684 E27.02413
G1 X62.379 Y87.256 E27.06764
