;FLAVOR:RepRap
;TIME:594
;Filament used: 0.402296m
;Layer height: 0.2
;Generated with Cura_SteamEngine master
M190 S50
M104 S195
M109 S195
G28 ;Home
G1 Z15.0 F6000 ;Move the platform down 15mm
;Prime the extruder
G92 E0
G1 F200 E3
G92 E0
;LAYER_COUNT:51
;LAYER:0
M107
G1 F1500 E-6.5
G0 F3600 X53.509 Y44.163 Z0.35
;TYPE:SUPPORT
G1 F1500 E0
G1 F1800 X53.649 Y44.02 E0.01165
G1 X53.846 Y43.859 E0.02646
G1 X54.021 Y43.744 E0.03865
G1 X54.221 Y43.64 E0.05177
G1 X54.421 Y43.562 E0.06426
G1 X54.646 Y43.502 E0.07781
G1 X54.837 Y43.471 E0.08908
G1 X55.077 Y43.459 E0.10306
G1 X55.317 Y43.471 E0.11705
G1 X55.503 Y43.501 E0.12802
G1 X55.739 Y43.565 E0.14225
G1 X55.934 Y43.641 E0.15443
G1 X56.135 Y43.745 E0.1676
G1 X56.3 Y43.855 E0.17915
G1 X56.46 Y43.988 E0.19126
G1 X56.608 Y44.137 E0.20348
G1 X56.75 Y44.32 E0.21696
G1 X56.847 Y44.48 E0.22785
G1 X56.93 Y44.67 E0.23992
G1 X56.984 Y44.86 E0.25142
G1 X57.011 Y45.057 E0.26299
G1 X57.011 Y45.279 E0.27591
G1 X56.987 Y45.474 E0.28735
G1 X56.922 Y45.717 E0.30199
G1 X56.826 Y45.957 E0.31704
G1 X56.724 Y46.154 E0.32995
G1 X56.592 Y46.364 E0.34438
G1 X56.414 Y46.604 E0.36178
G1 X56.258 Y46.788 E0.37582
G1 X56.075 Y46.974 E0.39101
G1 X55.896 Y47.13 E0.40483
G1 X55.666 Y47.3 E0.42147
G1 X55.469 Y47.419 E0.43487
G1 X55.252 Y47.523 E0.44887
G1 X54.986 Y47.62 E0.46535
G1 X54.771 Y47.677 E0.4783
G1 X54.553 Y47.714 E0.49117
G1 X54.304 Y47.731 E0.5057
G1 X54.118 Y47.725 E0.51653
G1 X53.965 Y47.697 E0.52558
G1 X53.832 Y47.651 E0.53377
G1 X53.743 Y47.601 E0.53972
G1 X53.657 Y47.527 E0.54632
G1 X53.569 Y47.428 E0.55403
G1 X53.461 Y47.272 E0.56507
G1 X53.391 Y47.15 E0.57326
G1 X53.285 Y46.934 E0.58726
G1 X53.208 Y46.759 E0.59839
G1 X53.119 Y46.516 E0.61346
G1 X53.051 Y46.285 E0.62747
G1 X53 Y46.065 E0.64062
G1 X52.973 Y45.86 E0.65265
G1 X52.961 Y45.615 E0.66693
G1 X52.973 Y45.389 E0.6801
G1 X53.006 Y45.164 E0.69334
G1 X53.062 Y44.949 E0.70627
G1 X53.146 Y44.732 E0.71981
G1 X53.247 Y44.53 E0.73296
G1 X53.363 Y44.346 E0.74562
G1 X53.509 Y44.163 E0.75925
G0 F3600 X53.32 Y44.739
G1 F1800 X53.32 Y46.598 E0.86745
G1 F1500 E-5.63255
G0 F3600 X53.307 Y46.22
G0 X53.225 Y45.616
G0 X53.145 Y45.322
G1 F1500 E0.86745
G1 F1800 X56.843 Y45.322 E1.08269
G1 F1500 E-5.41731
G0 F3600 X56.747 Y45.074
G0 X56.153 Y44.076
G0 X55.986 Y43.85
G1 F1500 E1.08269
G1 F1800 X55.986 Y46.836 E1.25649
G1 F1500 E-5.24351
G0 F3600 X56.055 Y46.617
G0 X56.074 Y46.613
G0 X56.153 Y46.6
G0 X58.876 Y46.165
G0 X58.955 Y46.153
G0 X58.962 Y46.153
G0 X58.713 Y46.058
G1 F1500 E1.25649
G1 F1800 X58.822 Y45.655 E1.28079
G1 X58.881 Y45.267 E1.30364
G1 X58.889 Y44.839 E1.32855
G1 X58.83 Y44.355 E1.35693
G1 X58.736 Y44.004 E1.37808
G1 X58.57 Y43.591 E1.40399
G1 X58.372 Y43.256 E1.42664
G1 X58.171 Y42.984 E1.44632
G1 X58.128 Y42.906 E1.45151
G1 X57.889 Y42.659 E1.47151
G1 X58.077 Y41.198 E1.55725
G1 X59.054 Y41.11 E1.61435
G1 X60.015 Y41.082 E1.67031
G1 X60.987 Y41.106 E1.7269
G1 X61.971 Y41.193 E1.7844
G1 X62.133 Y42.636 E1.86892
G1 X61.894 Y42.888 E1.88913
G1 X61.63 Y43.253 E1.91535
G1 X61.422 Y43.616 E1.9397
G1 X61.274 Y43.975 E1.9623
G1 X61.159 Y44.408 E1.98838
G1 X61.11 Y44.82 E2.01253
G1 X61.117 Y45.248 E2.03745
G1 X61.179 Y45.674 E2.0625
G1 X61.296 Y46.104 E2.08844
G1 X61.417 Y46.397 E2.10689
G1 X59.242 Y46.382 E2.23349
G1 X58.84 Y46.395 E2.2569
G1 X58.583 Y46.394 E2.27186
G1 X58.713 Y46.058 E2.29283
G0 F3600 X59.034 Y45.322
G1 F1800 X60.968 Y45.322 E2.4054
G1 F1500 E-4.0946
G0 F3600 X60.854 Y45.269
G0 X60.899 Y44.359
G0 X61.185 Y43.499
G0 X61.318 Y43.477
G1 F1500 E2.4054
G1 F1800 X61.318 Y41.296 E2.53235
G1 F1500 E-3.96765
G0 F3600 X61.817 Y42.585
G0 X61.893 Y42.656
G1 F1500 E2.53235
G1 F1800 X58.109 Y42.656 E2.75259
G1 F1500 E-3.74741
G0 F3600 X58.396 Y42.844
G0 X58.593 Y43.11
G0 X58.652 Y43.414
G1 F1500 E2.75259
G1 F1800 X58.652 Y41.306 E2.87529
G1 F1500 E-3.62471
G0 F3600 X61.399 Y43.123
G0 X61.465 Y43.167
G0 X63.389 Y44.44
G0 X63.456 Y44.484
G0 X63.456 Y44.485
G0 X63.238 Y44.333
G1 F1500 E2.87529
G1 F1800 X63.364 Y44.166 E2.88747
G1 X63.519 Y44.007 E2.90039
G1 X63.688 Y43.866 E2.9132
G1 X63.864 Y43.749 E2.9255
G1 X64.077 Y43.638 E2.93948
G1 X64.262 Y43.566 E2.95104
G1 X64.498 Y43.502 E2.96527
G1 X64.684 Y43.472 E2.97624
G1 X64.924 Y43.46 E2.99022
G1 X65.162 Y43.472 E3.00409
G1 X65.353 Y43.503 E3.01536
G1 X65.578 Y43.563 E3.02891
G1 X65.778 Y43.641 E3.04141
G1 X65.978 Y43.745 E3.05453
G1 X66.156 Y43.862 E3.06692
G1 X66.35 Y44.021 E3.08152
G1 X66.494 Y44.167 E3.09346
G1 X66.639 Y44.35 E3.10705
G1 X66.75 Y44.522 E3.11897
G1 X66.857 Y44.736 E3.13289
G1 X66.944 Y44.961 E3.14693
G1 X66.992 Y45.142 E3.15783
G1 X67.029 Y45.388 E3.17231
G1 X67.04 Y45.616 E3.1856
G1 X67.028 Y45.861 E3.19988
G1 X67.001 Y46.066 E3.21191
G1 X66.95 Y46.286 E3.22505
G1 X66.884 Y46.511 E3.2387
G1 X66.793 Y46.76 E3.25413
G1 X66.716 Y46.935 E3.26526
G1 X66.61 Y47.151 E3.27927
G1 X66.532 Y47.288 E3.28844
G1 X66.438 Y47.422 E3.29797
G1 X66.345 Y47.527 E3.30613
G1 X66.257 Y47.603 E3.3129
G1 X66.166 Y47.653 E3.31895
G1 X66.045 Y47.694 E3.32638
G1 X65.879 Y47.724 E3.3362
G1 X65.695 Y47.73 E3.34692
G1 X65.443 Y47.713 E3.36162
G1 X65.237 Y47.679 E3.37377
G1 X65.009 Y47.617 E3.38752
G1 X64.749 Y47.522 E3.40363
G1 X64.532 Y47.418 E3.41764
G1 X64.335 Y47.299 E3.43104
G1 X64.111 Y47.133 E3.44726
G1 X63.92 Y46.967 E3.46199
G1 X63.755 Y46.802 E3.47557
G1 X63.563 Y46.578 E3.49275
G1 X63.431 Y46.401 E3.5056
G1 X63.282 Y46.166 E3.52179
G1 X63.174 Y45.958 E3.53544
G1 X63.077 Y45.716 E3.55061
G1 X63.02 Y45.51 E3.56305
G1 X62.989 Y45.294 E3.57575
G1 X62.984 Y45.092 E3.58751
G1 X63.01 Y44.88 E3.59995
G1 X63.055 Y44.712 E3.61007
G1 X63.146 Y44.494 E3.62382
G1 X63.238 Y44.333 E3.63461
G1 F1500 E-2.86539
G0 F3600 X63.57 Y44.333
G0 X63.845 Y44.078
G0 X63.984 Y43.866
G1 F1500 E3.63461
G1 F1800 X63.984 Y46.803 E3.80556
G1 F1500 E-2.69444
G0 F3600 X63.943 Y46.614
G0 X63.33 Y45.64
G0 X63.154 Y45.322
G1 F1500 E3.80556
G1 F1800 X66.857 Y45.322 E4.02109
G0 F3600 X66.65 Y44.678
G1 F1800 X66.65 Y46.687 E4.13803
G1 F1500 E-2.36197
G0 F3600 X66.469 Y46.84
G0 X66.469 Y46.885
G0 X66.472 Y46.964
G0 X66.567 Y49.796
G0 X66.569 Y49.876
G0 X67.924 Y59.983
G0 X67.49 Y79.121
G0 X67.582 Y80.052
G1 F1500 E4.13803
G1 F1800 X68.711 Y80.055 E4.20374
G1 X68.789 Y79.935 E4.21207
G1 X68.808 Y79.971 E4.21444
G1 X68.411 Y80.584 E4.25695
G1 X68.21 Y80.936 E4.28054
G1 X67.859 Y81.46 E4.31725
G1 X67.692 Y81.814 E4.34004
G1 X67.156 Y82.578 E4.39436
G1 X66.931 Y82.925 E4.41843
G1 X66.75 Y83.162 E4.43579
G1 X66.538 Y83.439 E4.45609
G1 X66.084 Y83.542 E4.48319
G1 X64.995 Y85.348 E4.60594
G1 X63.773 Y85.348 E4.67706
G1 X63.411 Y85.77 E4.70943
G1 X62.029 Y85.76 E4.78987
G1 X61.652 Y86.18 E4.82272
G1 X61.305 Y86.18 E4.84291
G1 X61.168 Y86.203 E4.851
G1 X59.997 Y86.266 E4.91926
G1 X58.825 Y86.203 E4.98757
G1 X58.688 Y86.18 E4.99566
G1 X58.31 Y86.18 E5.01766
G1 X57.952 Y85.78 E5.0489
G1 X56.606 Y85.784 E5.12725
G1 X56.223 Y85.339 E5.16142
G1 X55.01 Y85.351 E5.23203
G1 X53.905 Y83.532 E5.35591
G1 X53.456 Y83.427 E5.38275
G1 X53.075 Y82.926 E5.41938
G1 X52.849 Y82.585 E5.4432
G1 X52.31 Y81.818 E5.49776
G1 X52.143 Y81.462 E5.52065
G1 X51.781 Y80.92 E5.55858
G1 X51.581 Y80.574 E5.58185
G1 X51.193 Y79.974 E5.62343
G1 X51.212 Y79.938 E5.6258
G1 X51.289 Y80.056 E5.634
G1 X52.425 Y80.056 E5.70013
G1 X52.33 Y79.756 E5.71844
G1 X52.368 Y79.756 E5.72065
G1 X52.554 Y80.346 E5.75666
G1 X52.773 Y80.683 E5.78005
G1 X52.976 Y81.257 E5.81549
G1 X53.278 Y81.533 E5.8393
G1 X53.593 Y82.237 E5.8842
G1 X57.426 Y85.31 E6.17014
G1 X58.01 Y85.125 E6.2058
G1 X58.86 Y82.189 E6.38371
G1 X59.445 Y80.858 E6.46833
G1 X60.593 Y80.858 E6.53515
G1 X60.827 Y81.562 E6.57833
G1 X62.131 Y85.031 E6.79404
G1 X62.71 Y85.193 E6.82904
G1 X66.392 Y82.291 E7.10191
G1 X66.706 Y81.559 E7.14827
G1 X67.013 Y81.293 E7.17192
G1 X67.228 Y80.682 E7.20962
G1 X67.451 Y80.348 E7.23299
G1 X67.638 Y79.752 E7.26935
G1 X67.676 Y79.752 E7.27156
G1 X67.582 Y80.052 E7.28986
G0 F3600 X66.65 Y82.094
G1 F1800 X66.65 Y83.03 E7.34434
G0 F3600 X66.921 Y82.646
G1 F1800 X66.2 Y82.646 E7.38631
G0 F3600 X63.984 Y84.392
G1 F1800 X63.984 Y85.188 E7.43264
G0 F3600 X63.591 Y85.312
G1 F1800 X62.818 Y85.312 E7.47763
G0 F3600 X62.542 Y85.312
G1 F1800 X57.951 Y85.312 E7.74485
G0 F3600 X57.172 Y85.312
G1 F1800 X56.41 Y85.312 E7.7892
G0 F3600 X55.986 Y85.182
G1 F1800 X55.986 Y84.361 E7.83699
G0 F3600 X53.848 Y82.646
G1 F1800 X53.079 Y82.646 E7.88175
G0 F3600 X53.32 Y82.984
G1 F1800 X53.32 Y82.02 E7.93786
G0 F3600 X58.652 Y83.482
G1 F1800 X58.652 Y86.02 E8.08558
G0 F3600 X61.318 Y86.02
G1 F1800 X61.318 Y83.324 E8.24251
G0 F3600 X61.063 Y82.646
G1 F1800 X58.893 Y82.646 E8.36881
G1 F1500 E1.86881
G0 F3600 X57.843 Y59.864
G0 X57.486 Y58.959
G0 X53.323 Y49.86
G0 X53.519 Y48.601
;TYPE:WALL-INNER
G1 F1500 E8.36881
G1 F1800 X53.569 Y48.618 E8.37188
G0 X53.517 Y48.61
G1 X53.424 Y48.579 E8.37757
G1 X53.34 Y48.55 E8.38274
G1 X53.201 Y48.473 E8.39199
G1 X53.158 Y48.438 E8.39522
G1 X53.075 Y48.37 E8.40146
G1 X52.987 Y48.271 E8.40917
G0 X53.087 Y48.355
G0 X53.169 Y48.424
G0 X53.214 Y48.449
G0 X53.353 Y48.527
G0 X53.427 Y48.569
G0 X53.519 Y48.601
G0 F3600 X53.592 Y48.203
;TYPE:WALL-OUTER
G1 F1800 X53.811 Y48.279 E8.42266
G1 X54.055 Y48.322 E8.43708
G1 X54.322 Y48.333 E8.45264
G1 X54.603 Y48.314 E8.46903
G1 X54.894 Y48.265 E8.48621
G1 X55.187 Y48.187 E8.50386
G1 X55.475 Y48.081 E8.52172
G1 X55.75 Y47.949 E8.53947
G1 X56.01 Y47.792 E8.55715
G1 X56.253 Y47.613 E8.57472
G1 X56.482 Y47.415 E8.59234
G1 X56.696 Y47.198 E8.61008
G1 X56.893 Y46.967 E8.62775
G1 X57.075 Y46.721 E8.64556
G1 X57.238 Y46.464 E8.66327
G1 X57.377 Y46.196 E8.68085
G1 X57.489 Y45.916 E8.6984
G1 X57.575 Y45.593 E8.71785
G1 X57.611 Y45.306 E8.73469
G1 X57.611 Y45.019 E8.75139
G1 X57.572 Y44.738 E8.76791
G1 X57.494 Y44.466 E8.78438
G1 X57.381 Y44.207 E8.80082
G1 X57.236 Y43.966 E8.8172
G1 X57.061 Y43.741 E8.83379
G1 X56.862 Y43.541 E8.85021
G1 X56.674 Y43.385 E8.86443
G1 X56.437 Y43.227 E8.88101
G1 X56.184 Y43.096 E8.89759
G1 X55.918 Y42.992 E8.91421
G1 X55.644 Y42.917 E8.93075
G1 X55.362 Y42.871 E8.94738
G1 X55.077 Y42.856 E8.96399
G1 X54.792 Y42.871 E8.9806
G1 X54.511 Y42.917 E8.99718
G1 X54.235 Y42.992 E9.01382
G1 X53.971 Y43.095 E9.03032
G1 X53.716 Y43.226 E9.047
G1 X53.477 Y43.384 E9.06368
G1 X53.256 Y43.565 E9.08031
G1 X53.054 Y43.77 E9.09706
G1 X52.875 Y43.995 E9.11379
G1 X52.721 Y44.238 E9.13054
G1 X52.593 Y44.494 E9.1472
G1 X52.489 Y44.764 E9.16404
G1 X52.417 Y45.044 E9.18087
G1 X52.374 Y45.329 E9.19764
G1 X52.359 Y45.615 E9.21431
G1 X52.373 Y45.901 E9.23098
G1 X52.412 Y46.182 E9.24749
G1 X52.475 Y46.456 E9.26385
G1 X52.553 Y46.717 E9.27971
G1 X52.644 Y46.966 E9.29514
G1 X52.745 Y47.198 E9.30987
G1 X52.851 Y47.414 E9.32387
G1 X52.966 Y47.613 E9.33725
G1 X53.091 Y47.794 E9.35005
G1 X53.233 Y47.955 E9.36255
G1 X53.398 Y48.094 E9.37511
G1 X53.592 Y48.203 E9.38806
G0 F3600 X53.781 Y48.268
G0 X53.702 Y49.046
G1 F1800 X53.424 Y49 E9.40446
G1 X53.176 Y48.917 E9.41968
G1 X52.976 Y48.806 E9.433
G1 X52.796 Y48.659 E9.44652
G1 X52.637 Y48.479 E9.4605
G1 X52.485 Y48.261 E9.47597
G1 X52.338 Y48.006 E9.4931
G1 X52.198 Y47.725 E9.51138
G1 X52.059 Y47.404 E9.53174
G1 X51.935 Y47.072 E9.55236
G1 X51.834 Y46.738 E9.57267
G1 X51.75 Y46.372 E9.59453
G1 X51.696 Y45.978 E9.61768
G1 X51.68 Y45.609 E9.63918
G1 X51.7 Y45.243 E9.66051
G1 X51.758 Y44.876 E9.68214
G1 X51.85 Y44.533 E9.70281
G1 X51.984 Y44.184 E9.72457
G1 X52.149 Y43.861 E9.74568
G1 X52.338 Y43.565 E9.76612
G1 X52.575 Y43.271 E9.7881
G1 X52.83 Y43.014 E9.80917
G1 X53.11 Y42.786 E9.83019
G1 X53.402 Y42.595 E9.8505
G1 X53.731 Y42.425 E9.87205
G1 X54.072 Y42.294 E9.89332
G1 X54.411 Y42.203 E9.91375
G1 X54.772 Y42.146 E9.93502
G1 X55.129 Y42.129 E9.95582
G1 X55.493 Y42.15 E9.97704
G1 X55.839 Y42.206 E9.99744
G1 X56.181 Y42.3 E10.01809
G1 X56.522 Y42.435 E10.03943
G1 X56.851 Y42.609 E10.0611
G1 X57.151 Y42.811 E10.08215
G1 X57.42 Y43.037 E10.1026
G1 X57.642 Y43.266 E10.12116
G1 X57.667 Y43.311 E10.12416
G1 X57.871 Y43.587 E10.14414
G1 X58.03 Y43.858 E10.16242
G1 X58.166 Y44.193 E10.18347
G1 X58.239 Y44.469 E10.20008
G1 X58.289 Y44.869 E10.22355
G1 X58.281 Y45.216 E10.24375
G1 X58.234 Y45.532 E10.26235
G1 X58.143 Y45.872 E10.28283
G1 X57.994 Y46.255 E10.30675
G1 X57.81 Y46.607 E10.32987
G1 X57.601 Y46.938 E10.35266
G1 X57.35 Y47.276 E10.37716
G1 X57.098 Y47.569 E10.39965
G1 X56.828 Y47.842 E10.422
G1 X56.507 Y48.125 E10.44691
G1 X56.202 Y48.35 E10.46897
G1 X55.872 Y48.55 E10.49143
G1 X55.493 Y48.735 E10.51598
G1 X55.132 Y48.866 E10.53833
G1 X54.745 Y48.97 E10.56166
G1 X54.374 Y49.034 E10.58357
G1 X54.029 Y49.058 E10.6037
G1 X53.702 Y49.046 E10.62275
G0 F3600 X53.505 Y49.014
G0 X53.847 Y48.756
G1 F1800 X54.041 Y48.667 E10.63449
G1 X54.326 Y48.669 E10.64801
G1 X54.587 Y48.647 E10.6594
G1 X54.826 Y48.604 E10.66922
G1 X55.055 Y48.549 E10.67793
G1 X55.27 Y48.482 E10.68576
G1 X55.473 Y48.402 E10.69297
G1 X55.67 Y48.316 E10.69957
G1 X55.855 Y48.218 E10.7056
G1 X56.033 Y48.113 E10.71128
G1 X56.201 Y47.999 E10.71657
G1 X56.363 Y47.878 E10.72154
G1 X56.517 Y47.749 E10.72637
G1 X56.666 Y47.615 E10.73097
G1 X56.807 Y47.473 E10.73555
G1 X56.944 Y47.327 E10.74015
G1 X57.074 Y47.174 E10.74477
G1 X57.198 Y47.016 E10.74944
G1 X57.317 Y46.852 E10.75425
G1 X57.43 Y46.682 E10.75921
G1 X57.535 Y46.504 E10.76447
G1 X57.633 Y46.319 E10.77002
G1 X57.721 Y46.125 E10.776
G1 X57.796 Y45.917 E10.78269
G1 X57.864 Y45.701 E10.79014
G1 X57.91 Y45.465 E10.79853
G1 X57.935 Y45.207 E10.80842
G1 X57.929 Y44.918 E10.82032
G1 X57.873 Y44.579 E10.83547
G1 X57.652 Y44.075 E10.85973
G0 F3600 X56.456 Y42.88
G1 F1800 X55.923 Y42.63 E10.8874
G0 F3600 X56.507 Y42.648
;TYPE:SKIN
G1 F1800 X57.888 Y44.029 E10.94424
G1 F1500 E4.44424
G0 F3600 X58.593 Y43.11
G0 X58.589 Y43.11
G0 X58.511 Y43.128
G0 X55.76 Y43.79
G0 X55.682 Y43.809
G0 X55.656 Y43.816
G0 X55.552 Y42.542
G1 F1500 E10.94424
G1 F1800 X55.232 Y42.504 E10.95981
G1 X54.946 Y42.501 E10.97367
G1 X54.688 Y42.526 E10.98634
G1 X54.449 Y42.569 E10.998
G1 X54.222 Y42.626 E11.00907
G1 X54.011 Y42.697 E11.0195
G1 X53.812 Y42.781 E11.02947
G1 X53.624 Y42.876 E11.03912
G1 X53.447 Y42.982 E11.04846
G1 X53.28 Y43.097 E11.05755
G1 X53.123 Y43.223 E11.06651
G1 X52.974 Y43.357 E11.07534
G1 X52.833 Y43.499 E11.08411
G1 X52.705 Y43.654 E11.09286
G1 X52.583 Y43.815 E11.10161
G1 X52.473 Y43.987 E11.11038
G1 X52.373 Y44.17 E11.11927
G1 X52.28 Y44.36 E11.12835
G1 X52.201 Y44.564 E11.13758
G1 X52.134 Y44.78 E11.14706
G1 X52.08 Y45.009 E11.15702
G1 X52.044 Y45.256 E11.16752
G1 X52.026 Y45.521 E11.17865
G1 X52.03 Y45.808 E11.19072
G1 X52.062 Y46.123 E11.20422
G1 X52.134 Y46.478 E11.21966
G1 X52.255 Y46.881 E11.23803
G1 X52.458 Y47.367 E11.26171
G1 X52.609 Y47.801 E11.28746
G1 X52.684 Y48.158 E11.30296
G1 F1500 E4.80296
G0 F3600 X53.058 Y48.34
G0 X53.55 Y48.613
G0 X54.03 Y47.441
G0 X54.739 Y47.44
G0 X54.819 Y47.44
G0 X58.215 Y47.439
G0 X58.295 Y47.439
G0 X61.705 Y47.438
G0 X61.785 Y47.438
G0 X65.168 Y47.437
G0 X65.248 Y47.437
G0 X65.977 Y47.438
G0 X66.493 Y48.598
;TYPE:WALL-INNER
G1 F1500 E11.30296
G1 F1800 X66.569 Y48.572 E11.30763
G1 X66.653 Y48.526 E11.31321
G1 X66.793 Y48.448 E11.32254
G1 X66.831 Y48.427 E11.32506
G1 X66.924 Y48.349 E11.33213
G1 X67.012 Y48.274 E11.33886
G0 X66.935 Y48.361
G0 X66.842 Y48.439
G0 X66.805 Y48.47
G0 X66.666 Y48.549
G0 X66.573 Y48.58
G0 X66.497 Y48.606
G1 X66.435 Y48.617 E11.34245
G0 X66.493 Y48.598
G0 F3600 X66.603 Y48.096
;TYPE:WALL-OUTER
G1 F1800 X66.768 Y47.956 E11.35504
G1 X66.91 Y47.795 E11.36754
G1 X67.035 Y47.614 E11.38034
G1 X67.15 Y47.415 E11.39372
G1 X67.256 Y47.199 E11.40773
G1 X67.357 Y46.967 E11.42245
G1 X67.448 Y46.718 E11.43788
G1 X67.526 Y46.457 E11.45374
G1 X67.589 Y46.183 E11.4701
G1 X67.628 Y45.902 E11.48662
G1 X67.642 Y45.616 E11.50328
G1 X67.627 Y45.328 E11.52007
G1 X67.584 Y45.042 E11.5369
G1 X67.511 Y44.763 E11.55369
G1 X67.407 Y44.494 E11.57047
G1 X67.279 Y44.237 E11.58719
G1 X67.124 Y43.995 E11.60391
G1 X66.945 Y43.771 E11.6206
G1 X66.743 Y43.566 E11.63735
G1 X66.522 Y43.385 E11.65398
G1 X66.283 Y43.227 E11.67066
G1 X66.028 Y43.096 E11.68734
G1 X65.764 Y42.993 E11.70384
G1 X65.488 Y42.918 E11.72049
G1 X65.207 Y42.872 E11.73706
G1 X64.924 Y42.857 E11.75355
